(G-CODE GENERATED BY FLATCAM v8.96 - www.flatcam.org - Version Date: 2019/08/23)

(Name: back)
(Type: G-code from Geometry)
(Units: MM)

(Created on Monday, 14 October 2019 at 20:49)

(TOOL DIAMETER: 0.16 mm)

(Feedrate: 79.9998 mm/min)
(Feedrate_Z: 79.9998 mm/min)
(Feedrate rapids 79.9998 mm/min)

(Z_Cut: -0.112 mm)
(Z_Move: 1.999 mm)
(Z Toolchange: 12.7 mm)
(X,Y Toolchange: 0.0000, 0.0000 mm)
(Z Start: None mm)
(Z End: 12.7 mm)
(Steps per circle: 128)
(Postprocessor Geometry: grbl_11)

(X range:    4.3140 ...   83.2848  mm)
(Y range:  -73.2100 ...   -3.1292  mm)

(Spindle Speed: 30 RPM)


G21
G90
G94
G17

G01 F80.00
G00 Z1.9990

M03 S30
G00 X27.2778 Y-21.6931
G01 F80.00
G01 Z-0.1120
G01 F80.00
G01 X27.2778 Y-10.5553 F80.00
G01 X27.2942 Y-10.5318 F80.00
G01 X27.3218 Y-10.4883 F80.00
G01 X27.3485 Y-10.4414 F80.00
G01 X27.3727 Y-10.3931 F80.00
G01 X27.3936 Y-10.3460 F80.00
G01 X27.4121 Y-10.2979 F80.00
G01 X27.4291 Y-10.2467 F80.00
G01 X27.4435 Y-10.1946 F80.00
G01 X27.4547 Y-10.1443 F80.00
G01 X27.4636 Y-10.0935 F80.00
G01 X27.4703 Y-10.0387 F80.00
G01 X27.4741 Y-9.9873 F80.00
G01 X27.4754 Y-9.9346 F80.00
G01 X27.4754 Y-7.9846 F80.00
G01 X27.4740 Y-7.9306 F80.00
G01 X27.4702 Y-7.8792 F80.00
G01 X27.4638 Y-7.8269 F80.00
G01 X27.4547 Y-7.7749 F80.00
G01 X27.4432 Y-7.7234 F80.00
G01 X27.4291 Y-7.6725 F80.00
G01 X27.4126 Y-7.6224 F80.00
G01 X27.3936 Y-7.5732 F80.00
G01 X27.3722 Y-7.5250 F80.00
G01 X27.3485 Y-7.4778 F80.00
G01 X27.3225 Y-7.4319 F80.00
G01 X27.2942 Y-7.3874 F80.00
G01 X27.2638 Y-7.3442 F80.00
G01 X27.2314 Y-7.3026 F80.00
G01 X27.1969 Y-7.2627 F80.00
G01 X27.1605 Y-7.2245 F80.00
G01 X27.1223 Y-7.1881 F80.00
G01 X27.0824 Y-7.1536 F80.00
G01 X27.0408 Y-7.1212 F80.00
G01 X26.9976 Y-7.0908 F80.00
G01 X26.9531 Y-7.0625 F80.00
G01 X26.9072 Y-7.0365 F80.00
G01 X26.8600 Y-7.0128 F80.00
G01 X26.8118 Y-6.9914 F80.00
G01 X26.7626 Y-6.9724 F80.00
G01 X26.7125 Y-6.9559 F80.00
G01 X26.6616 Y-6.9418 F80.00
G01 X26.6101 Y-6.9303 F80.00
G01 X26.5581 Y-6.9212 F80.00
G01 X26.5058 Y-6.9148 F80.00
G01 X26.4531 Y-6.9109 F80.00
G01 X26.4004 Y-6.9096 F80.00
G01 X26.3464 Y-6.9110 F80.00
G01 X26.2950 Y-6.9148 F80.00
G01 X26.2427 Y-6.9212 F80.00
G01 X26.1907 Y-6.9303 F80.00
G01 X26.1392 Y-6.9418 F80.00
G01 X26.0883 Y-6.9559 F80.00
G01 X26.0382 Y-6.9724 F80.00
G01 X25.9890 Y-6.9914 F80.00
G01 X25.9408 Y-7.0128 F80.00
G01 X25.8936 Y-7.0365 F80.00
G01 X25.8477 Y-7.0625 F80.00
G01 X25.8032 Y-7.0908 F80.00
G01 X25.7600 Y-7.1212 F80.00
G01 X25.7184 Y-7.1536 F80.00
G01 X25.6785 Y-7.1881 F80.00
G01 X25.6403 Y-7.2245 F80.00
G01 X25.6047 Y-7.2618 F80.00
G01 X25.5694 Y-7.3026 F80.00
G01 X25.5370 Y-7.3442 F80.00
G01 X25.5066 Y-7.3874 F80.00
G01 X25.4790 Y-7.4309 F80.00
G01 X25.4523 Y-7.4778 F80.00
G01 X25.4291 Y-7.5239 F80.00
G01 X25.4068 Y-7.5744 F80.00
G01 X25.3882 Y-7.6224 F80.00
G01 X25.3717 Y-7.6725 F80.00
G01 X25.3576 Y-7.7234 F80.00
G01 X25.3461 Y-7.7749 F80.00
G01 X25.3370 Y-7.8269 F80.00
G01 X25.3306 Y-7.8792 F80.00
G01 X25.3267 Y-7.9319 F80.00
G01 X25.3254 Y-7.9846 F80.00
G01 X25.3254 Y-9.9346 F80.00
G01 X25.3268 Y-9.9886 F80.00
G01 X25.3306 Y-10.0400 F80.00
G01 X25.3370 Y-10.0923 F80.00
G01 X25.3461 Y-10.1443 F80.00
G01 X25.3576 Y-10.1958 F80.00
G01 X25.3717 Y-10.2467 F80.00
G01 X25.3882 Y-10.2968 F80.00
G01 X25.4072 Y-10.3460 F80.00
G01 X25.4286 Y-10.3942 F80.00
G01 X25.4523 Y-10.4414 F80.00
G01 X25.4783 Y-10.4873 F80.00
G01 X25.5066 Y-10.5318 F80.00
G01 X25.5370 Y-10.5750 F80.00
G01 X25.5694 Y-10.6166 F80.00
G01 X25.6039 Y-10.6565 F80.00
G01 X25.6403 Y-10.6947 F80.00
G01 X25.6785 Y-10.7311 F80.00
G01 X25.7184 Y-10.7656 F80.00
G01 X25.7600 Y-10.7980 F80.00
G01 X25.7770 Y-10.8101 F80.00
G01 X25.7770 Y-21.6931 F80.00
G01 X25.7664 Y-21.7033 F80.00
G01 X25.7301 Y-21.7416 F80.00
G01 X25.6964 Y-21.7806 F80.00
G01 X25.6632 Y-21.8232 F80.00
G01 X25.6336 Y-21.8654 F80.00
G01 X25.6053 Y-21.9099 F80.00
G01 X25.5793 Y-21.9558 F80.00
G01 X25.5556 Y-22.0030 F80.00
G01 X25.5342 Y-22.0512 F80.00
G01 X25.5157 Y-22.0993 F80.00
G01 X25.4983 Y-22.1517 F80.00
G01 X25.4846 Y-22.2014 F80.00
G01 X25.4731 Y-22.2529 F80.00
G01 X25.4640 Y-22.3049 F80.00
G01 X25.4577 Y-22.3560 F80.00
G01 X25.4537 Y-22.4099 F80.00
G01 X25.4524 Y-22.4626 F80.00
G01 X25.4524 Y-24.4126 F80.00
G01 X25.4537 Y-24.4653 F80.00
G01 X25.4576 Y-24.5180 F80.00
G01 X25.4639 Y-24.5691 F80.00
G01 X25.4731 Y-24.6223 F80.00
G01 X25.4846 Y-24.6738 F80.00
G01 X25.4983 Y-24.7235 F80.00
G01 X25.5157 Y-24.7759 F80.00
G01 X25.5342 Y-24.8240 F80.00
G01 X25.5556 Y-24.8722 F80.00
G01 X25.5793 Y-24.9194 F80.00
G01 X25.6047 Y-24.9642 F80.00
G01 X25.6343 Y-25.0108 F80.00
G01 X25.6640 Y-25.0530 F80.00
G01 X25.6964 Y-25.0946 F80.00
G01 X25.7317 Y-25.1354 F80.00
G01 X25.7673 Y-25.1727 F80.00
G01 X25.8055 Y-25.2091 F80.00
G01 X25.8454 Y-25.2436 F80.00
G01 X25.8860 Y-25.2753 F80.00
G01 X25.9312 Y-25.3071 F80.00
G01 X25.9747 Y-25.3347 F80.00
G01 X26.0206 Y-25.3607 F80.00
G01 X26.0678 Y-25.3844 F80.00
G01 X26.1149 Y-25.4053 F80.00
G01 X26.1664 Y-25.4252 F80.00
G01 X26.2153 Y-25.4413 F80.00
G01 X26.2650 Y-25.4551 F80.00
G01 X26.3177 Y-25.4669 F80.00
G01 X26.3697 Y-25.4760 F80.00
G01 X26.4220 Y-25.4824 F80.00
G01 X26.4747 Y-25.4863 F80.00
G01 X26.5274 Y-25.4876 F80.00
G01 X26.5801 Y-25.4863 F80.00
G01 X26.6328 Y-25.4824 F80.00
G01 X26.6851 Y-25.4760 F80.00
G01 X26.7371 Y-25.4669 F80.00
G01 X26.7886 Y-25.4554 F80.00
G01 X26.8395 Y-25.4413 F80.00
G01 X26.8896 Y-25.4248 F80.00
G01 X26.9388 Y-25.4058 F80.00
G01 X26.9870 Y-25.3844 F80.00
G01 X27.0342 Y-25.3607 F80.00
G01 X27.0801 Y-25.3347 F80.00
G01 X27.1246 Y-25.3064 F80.00
G01 X27.1678 Y-25.2760 F80.00
G01 X27.2094 Y-25.2436 F80.00
G01 X27.2493 Y-25.2091 F80.00
G01 X27.2875 Y-25.1727 F80.00
G01 X27.3239 Y-25.1345 F80.00
G01 X27.3584 Y-25.0946 F80.00
G01 X27.3908 Y-25.0530 F80.00
G01 X27.4212 Y-25.0098 F80.00
G01 X27.4495 Y-24.9653 F80.00
G01 X27.4755 Y-24.9194 F80.00
G01 X27.4992 Y-24.8722 F80.00
G01 X27.5206 Y-24.8240 F80.00
G01 X27.5396 Y-24.7748 F80.00
G01 X27.5561 Y-24.7247 F80.00
G01 X27.5699 Y-24.6750 F80.00
G01 X27.5817 Y-24.6223 F80.00
G01 X27.5909 Y-24.5691 F80.00
G01 X27.5972 Y-24.5180 F80.00
G01 X27.6010 Y-24.4666 F80.00
G01 X27.6024 Y-24.4132 F80.00
G01 X27.6024 Y-22.4626 F80.00
G01 X27.6011 Y-22.4099 F80.00
G01 X27.5972 Y-22.3572 F80.00
G01 X27.5908 Y-22.3049 F80.00
G01 X27.5817 Y-22.2529 F80.00
G01 X27.5702 Y-22.2014 F80.00
G01 X27.5565 Y-22.1517 F80.00
G01 X27.5391 Y-22.0993 F80.00
G01 X27.5206 Y-22.0512 F80.00
G01 X27.4992 Y-22.0030 F80.00
G01 X27.4755 Y-21.9558 F80.00
G01 X27.4495 Y-21.9099 F80.00
G01 X27.4212 Y-21.8654 F80.00
G01 X27.3916 Y-21.8232 F80.00
G01 X27.3584 Y-21.7806 F80.00
G01 X27.3247 Y-21.7416 F80.00
G01 X27.2884 Y-21.7033 F80.00
G01 X27.2778 Y-21.6931 F80.00
G00 Z1.9990
G00 X29.0662 Y-25.4876
G01 F80.00
G01 Z-0.1120
G01 F80.00
G01 X29.1201 Y-25.4863 F80.00
G01 X29.1728 Y-25.4824 F80.00
G01 X29.2251 Y-25.4760 F80.00
G01 X29.2771 Y-25.4669 F80.00
G01 X29.3286 Y-25.4554 F80.00
G01 X29.3795 Y-25.4413 F80.00
G01 X29.4296 Y-25.4248 F80.00
G01 X29.4788 Y-25.4058 F80.00
G01 X29.5270 Y-25.3844 F80.00
G01 X29.5742 Y-25.3607 F80.00
G01 X29.6201 Y-25.3347 F80.00
G01 X29.6646 Y-25.3064 F80.00
G01 X29.7078 Y-25.2760 F80.00
G01 X29.7494 Y-25.2436 F80.00
G01 X29.7893 Y-25.2091 F80.00
G01 X29.8275 Y-25.1727 F80.00
G01 X29.8639 Y-25.1345 F80.00
G01 X29.8984 Y-25.0946 F80.00
G01 X29.9308 Y-25.0530 F80.00
G01 X29.9612 Y-25.0098 F80.00
G01 X29.9895 Y-24.9653 F80.00
G01 X30.0155 Y-24.9194 F80.00
G01 X30.0392 Y-24.8722 F80.00
G01 X30.0606 Y-24.8240 F80.00
G01 X30.0796 Y-24.7748 F80.00
G01 X30.0961 Y-24.7247 F80.00
G01 X30.1102 Y-24.6738 F80.00
G01 X30.1217 Y-24.6223 F80.00
G01 X30.1308 Y-24.5703 F80.00
G01 X30.1372 Y-24.5180 F80.00
G01 X30.1411 Y-24.4653 F80.00
G01 X30.1424 Y-24.4126 F80.00
G01 X30.1424 Y-22.4626 F80.00
G01 X30.1412 Y-22.4111 F80.00
G01 X30.1371 Y-22.3560 F80.00
G01 X30.1308 Y-22.3049 F80.00
G01 X30.1217 Y-22.2529 F80.00
G01 X30.1102 Y-22.2014 F80.00
G01 X30.0965 Y-22.1517 F80.00
G01 X30.0796 Y-22.1004 F80.00
G01 X30.0601 Y-22.0501 F80.00
G01 X30.0392 Y-22.0030 F80.00
G01 X30.0155 Y-21.9558 F80.00
G01 X29.9895 Y-21.9099 F80.00
G01 X29.9619 Y-21.8664 F80.00
G01 X29.9308 Y-21.8222 F80.00
G01 X29.8984 Y-21.7806 F80.00
G01 X29.8647 Y-21.7416 F80.00
G01 X29.8275 Y-21.7025 F80.00
G01 X29.7893 Y-21.6661 F80.00
G01 X29.7503 Y-21.6324 F80.00
G01 X29.7068 Y-21.5984 F80.00
G01 X29.6646 Y-21.5688 F80.00
G01 X29.6201 Y-21.5405 F80.00
G01 X29.5742 Y-21.5145 F80.00
G01 X29.5281 Y-21.4913 F80.00
G01 X29.4776 Y-21.4690 F80.00
G01 X29.4296 Y-21.4504 F80.00
G01 X29.3806 Y-21.4343 F80.00
G01 X29.3274 Y-21.4195 F80.00
G01 X29.2771 Y-21.4083 F80.00
G01 X29.2251 Y-21.3992 F80.00
G01 X29.1715 Y-21.3927 F80.00
G01 X29.1201 Y-21.3889 F80.00
G01 X29.0674 Y-21.3876 F80.00
G01 X29.0147 Y-21.3889 F80.00
G01 X28.9620 Y-21.3928 F80.00
G01 X28.9097 Y-21.3992 F80.00
G01 X28.8577 Y-21.4083 F80.00
G01 X28.8062 Y-21.4198 F80.00
G01 X28.7553 Y-21.4339 F80.00
G01 X28.7052 Y-21.4504 F80.00
G01 X28.6560 Y-21.4694 F80.00
G01 X28.6078 Y-21.4908 F80.00
G01 X28.5606 Y-21.5145 F80.00
G01 X28.5147 Y-21.5405 F80.00
G01 X28.4702 Y-21.5688 F80.00
G01 X28.4270 Y-21.5992 F80.00
G01 X28.3854 Y-21.6316 F80.00
G01 X28.3455 Y-21.6661 F80.00
G01 X28.3073 Y-21.7025 F80.00
G01 X28.2709 Y-21.7407 F80.00
G01 X28.2364 Y-21.7806 F80.00
G01 X28.2040 Y-21.8222 F80.00
G01 X28.1736 Y-21.8654 F80.00
G01 X28.1453 Y-21.9099 F80.00
G01 X28.1193 Y-21.9558 F80.00
G01 X28.0956 Y-22.0030 F80.00
G01 X28.0742 Y-22.0512 F80.00
G01 X28.0552 Y-22.1004 F80.00
G01 X28.0387 Y-22.1505 F80.00
G01 X28.0246 Y-22.2014 F80.00
G01 X28.0131 Y-22.2529 F80.00
G01 X28.0040 Y-22.3049 F80.00
G01 X27.9976 Y-22.3572 F80.00
G01 X27.9937 Y-22.4099 F80.00
G01 X27.9924 Y-22.4626 F80.00
G01 X27.9924 Y-24.4126 F80.00
G01 X27.9936 Y-24.4641 F80.00
G01 X27.9977 Y-24.5192 F80.00
G01 X28.0040 Y-24.5703 F80.00
G01 X28.0131 Y-24.6223 F80.00
G01 X28.0246 Y-24.6738 F80.00
G01 X28.0383 Y-24.7235 F80.00
G01 X28.0552 Y-24.7748 F80.00
G01 X28.0747 Y-24.8251 F80.00
G01 X28.0956 Y-24.8722 F80.00
G01 X28.1193 Y-24.9194 F80.00
G01 X28.1453 Y-24.9653 F80.00
G01 X28.1729 Y-25.0088 F80.00
G01 X28.2040 Y-25.0530 F80.00
G01 X28.2364 Y-25.0946 F80.00
G01 X28.2701 Y-25.1336 F80.00
G01 X28.3073 Y-25.1727 F80.00
G01 X28.3455 Y-25.2091 F80.00
G01 X28.3845 Y-25.2428 F80.00
G01 X28.4280 Y-25.2768 F80.00
G01 X28.4702 Y-25.3064 F80.00
G01 X28.5137 Y-25.3340 F80.00
G01 X28.5606 Y-25.3607 F80.00
G01 X28.6078 Y-25.3844 F80.00
G01 X28.6549 Y-25.4053 F80.00
G01 X28.7064 Y-25.4252 F80.00
G01 X28.7553 Y-25.4413 F80.00
G01 X28.8062 Y-25.4554 F80.00
G01 X28.8577 Y-25.4669 F80.00
G01 X28.9085 Y-25.4758 F80.00
G01 X28.9633 Y-25.4825 F80.00
G01 X29.0147 Y-25.4863 F80.00
G01 X29.0662 Y-25.4876 F80.00
G00 Z1.9990
G00 X31.6062 Y-25.4876
G01 F80.00
G01 Z-0.1120
G01 F80.00
G01 X31.6601 Y-25.4863 F80.00
G01 X31.7128 Y-25.4824 F80.00
G01 X31.7651 Y-25.4760 F80.00
G01 X31.8171 Y-25.4669 F80.00
G01 X31.8686 Y-25.4554 F80.00
G01 X31.9195 Y-25.4413 F80.00
G01 X31.9696 Y-25.4248 F80.00
G01 X32.0188 Y-25.4058 F80.00
G01 X32.0670 Y-25.3844 F80.00
G01 X32.1142 Y-25.3607 F80.00
G01 X32.1601 Y-25.3347 F80.00
G01 X32.2046 Y-25.3064 F80.00
G01 X32.2478 Y-25.2760 F80.00
G01 X32.2894 Y-25.2436 F80.00
G01 X32.3293 Y-25.2091 F80.00
G01 X32.3675 Y-25.1727 F80.00
G01 X32.4039 Y-25.1345 F80.00
G01 X32.4384 Y-25.0946 F80.00
G01 X32.4708 Y-25.0530 F80.00
G01 X32.5012 Y-25.0098 F80.00
G01 X32.5295 Y-24.9653 F80.00
G01 X32.5555 Y-24.9194 F80.00
G01 X32.5792 Y-24.8722 F80.00
G01 X32.6006 Y-24.8240 F80.00
G01 X32.6196 Y-24.7748 F80.00
G01 X32.6361 Y-24.7247 F80.00
G01 X32.6502 Y-24.6738 F80.00
G01 X32.6617 Y-24.6223 F80.00
G01 X32.6708 Y-24.5703 F80.00
G01 X32.6772 Y-24.5180 F80.00
G01 X32.6811 Y-24.4653 F80.00
G01 X32.6824 Y-24.4126 F80.00
G01 X32.6824 Y-22.4626 F80.00
G01 X32.6812 Y-22.4111 F80.00
G01 X32.6771 Y-22.3560 F80.00
G01 X32.6708 Y-22.3049 F80.00
G01 X32.6617 Y-22.2529 F80.00
G01 X32.6502 Y-22.2014 F80.00
G01 X32.6365 Y-22.1517 F80.00
G01 X32.6196 Y-22.1004 F80.00
G01 X32.6001 Y-22.0501 F80.00
G01 X32.5792 Y-22.0030 F80.00
G01 X32.5555 Y-21.9558 F80.00
G01 X32.5295 Y-21.9099 F80.00
G01 X32.5019 Y-21.8664 F80.00
G01 X32.4708 Y-21.8222 F80.00
G01 X32.4384 Y-21.7806 F80.00
G01 X32.4047 Y-21.7416 F80.00
G01 X32.3675 Y-21.7025 F80.00
G01 X32.3293 Y-21.6661 F80.00
G01 X32.2903 Y-21.6324 F80.00
G01 X32.2468 Y-21.5984 F80.00
G01 X32.2046 Y-21.5688 F80.00
G01 X32.1601 Y-21.5405 F80.00
G01 X32.1142 Y-21.5145 F80.00
G01 X32.0681 Y-21.4913 F80.00
G01 X32.0176 Y-21.4690 F80.00
G01 X31.9696 Y-21.4504 F80.00
G01 X31.9206 Y-21.4343 F80.00
G01 X31.8674 Y-21.4195 F80.00
G01 X31.8171 Y-21.4083 F80.00
G01 X31.7651 Y-21.3992 F80.00
G01 X31.7115 Y-21.3927 F80.00
G01 X31.6601 Y-21.3889 F80.00
G01 X31.6074 Y-21.3876 F80.00
G01 X31.5547 Y-21.3889 F80.00
G01 X31.5020 Y-21.3928 F80.00
G01 X31.4497 Y-21.3992 F80.00
G01 X31.3977 Y-21.4083 F80.00
G01 X31.3462 Y-21.4198 F80.00
G01 X31.2953 Y-21.4339 F80.00
G01 X31.2452 Y-21.4504 F80.00
G01 X31.1960 Y-21.4694 F80.00
G01 X31.1478 Y-21.4908 F80.00
G01 X31.1006 Y-21.5145 F80.00
G01 X31.0547 Y-21.5405 F80.00
G01 X31.0102 Y-21.5688 F80.00
G01 X30.9670 Y-21.5992 F80.00
G01 X30.9254 Y-21.6316 F80.00
G01 X30.8855 Y-21.6661 F80.00
G01 X30.8473 Y-21.7025 F80.00
G01 X30.8109 Y-21.7407 F80.00
G01 X30.7764 Y-21.7806 F80.00
G01 X30.7440 Y-21.8222 F80.00
G01 X30.7136 Y-21.8654 F80.00
G01 X30.6853 Y-21.9099 F80.00
G01 X30.6593 Y-21.9558 F80.00
G01 X30.6356 Y-22.0030 F80.00
G01 X30.6142 Y-22.0512 F80.00
G01 X30.5952 Y-22.1004 F80.00
G01 X30.5787 Y-22.1505 F80.00
G01 X30.5646 Y-22.2014 F80.00
G01 X30.5531 Y-22.2529 F80.00
G01 X30.5440 Y-22.3049 F80.00
G01 X30.5376 Y-22.3572 F80.00
G01 X30.5337 Y-22.4099 F80.00
G01 X30.5324 Y-22.4626 F80.00
G01 X30.5324 Y-24.4126 F80.00
G01 X30.5336 Y-24.4641 F80.00
G01 X30.5377 Y-24.5192 F80.00
G01 X30.5440 Y-24.5703 F80.00
G01 X30.5531 Y-24.6223 F80.00
G01 X30.5646 Y-24.6738 F80.00
G01 X30.5783 Y-24.7235 F80.00
G01 X30.5952 Y-24.7748 F80.00
G01 X30.6147 Y-24.8251 F80.00
G01 X30.6356 Y-24.8722 F80.00
G01 X30.6593 Y-24.9194 F80.00
G01 X30.6853 Y-24.9653 F80.00
G01 X30.7129 Y-25.0088 F80.00
G01 X30.7440 Y-25.0530 F80.00
G01 X30.7764 Y-25.0946 F80.00
G01 X30.8101 Y-25.1336 F80.00
G01 X30.8473 Y-25.1727 F80.00
G01 X30.8855 Y-25.2091 F80.00
G01 X30.9245 Y-25.2428 F80.00
G01 X30.9680 Y-25.2768 F80.00
G01 X31.0102 Y-25.3064 F80.00
G01 X31.0537 Y-25.3340 F80.00
G01 X31.1006 Y-25.3607 F80.00
G01 X31.1478 Y-25.3844 F80.00
G01 X31.1949 Y-25.4053 F80.00
G01 X31.2464 Y-25.4252 F80.00
G01 X31.2953 Y-25.4413 F80.00
G01 X31.3462 Y-25.4554 F80.00
G01 X31.3977 Y-25.4669 F80.00
G01 X31.4485 Y-25.4758 F80.00
G01 X31.5033 Y-25.4825 F80.00
G01 X31.5547 Y-25.4863 F80.00
G01 X31.6062 Y-25.4876 F80.00
G00 Z1.9990
G00 X34.1462 Y-25.4876
G01 F80.00
G01 Z-0.1120
G01 F80.00
G01 X34.2001 Y-25.4863 F80.00
G01 X34.2528 Y-25.4824 F80.00
G01 X34.3051 Y-25.4760 F80.00
G01 X34.3571 Y-25.4669 F80.00
G01 X34.4086 Y-25.4554 F80.00
G01 X34.4595 Y-25.4413 F80.00
G01 X34.5096 Y-25.4248 F80.00
G01 X34.5588 Y-25.4058 F80.00
G01 X34.6070 Y-25.3844 F80.00
G01 X34.6542 Y-25.3607 F80.00
G01 X34.7001 Y-25.3347 F80.00
G01 X34.7446 Y-25.3064 F80.00
G01 X34.7878 Y-25.2760 F80.00
G01 X34.8294 Y-25.2436 F80.00
G01 X34.8693 Y-25.2091 F80.00
G01 X34.9075 Y-25.1727 F80.00
G01 X34.9439 Y-25.1345 F80.00
G01 X34.9784 Y-25.0946 F80.00
G01 X35.0108 Y-25.0530 F80.00
G01 X35.0412 Y-25.0098 F80.00
G01 X35.0695 Y-24.9653 F80.00
G01 X35.0955 Y-24.9194 F80.00
G01 X35.1192 Y-24.8722 F80.00
G01 X35.1406 Y-24.8240 F80.00
G01 X35.1596 Y-24.7748 F80.00
G01 X35.1761 Y-24.7247 F80.00
G01 X35.1902 Y-24.6738 F80.00
G01 X35.2017 Y-24.6223 F80.00
G01 X35.2108 Y-24.5703 F80.00
G01 X35.2172 Y-24.5180 F80.00
G01 X35.2211 Y-24.4653 F80.00
G01 X35.2224 Y-24.4126 F80.00
G01 X35.2224 Y-22.4626 F80.00
G01 X35.2212 Y-22.4111 F80.00
G01 X35.2171 Y-22.3560 F80.00
G01 X35.2108 Y-22.3049 F80.00
G01 X35.2017 Y-22.2529 F80.00
G01 X35.1902 Y-22.2014 F80.00
G01 X35.1765 Y-22.1517 F80.00
G01 X35.1596 Y-22.1004 F80.00
G01 X35.1401 Y-22.0501 F80.00
G01 X35.1192 Y-22.0030 F80.00
G01 X35.0955 Y-21.9558 F80.00
G01 X35.0695 Y-21.9099 F80.00
G01 X35.0419 Y-21.8664 F80.00
G01 X35.0108 Y-21.8222 F80.00
G01 X34.9784 Y-21.7806 F80.00
G01 X34.9447 Y-21.7416 F80.00
G01 X34.9075 Y-21.7025 F80.00
G01 X34.8693 Y-21.6661 F80.00
G01 X34.8303 Y-21.6324 F80.00
G01 X34.7868 Y-21.5984 F80.00
G01 X34.7446 Y-21.5688 F80.00
G01 X34.7001 Y-21.5405 F80.00
G01 X34.6542 Y-21.5145 F80.00
G01 X34.6081 Y-21.4913 F80.00
G01 X34.5576 Y-21.4690 F80.00
G01 X34.5096 Y-21.4504 F80.00
G01 X34.4606 Y-21.4343 F80.00
G01 X34.4074 Y-21.4195 F80.00
G01 X34.3571 Y-21.4083 F80.00
G01 X34.3051 Y-21.3992 F80.00
G01 X34.2515 Y-21.3927 F80.00
G01 X34.2001 Y-21.3889 F80.00
G01 X34.1474 Y-21.3876 F80.00
G01 X34.0947 Y-21.3889 F80.00
G01 X34.0420 Y-21.3928 F80.00
G01 X33.9897 Y-21.3992 F80.00
G01 X33.9377 Y-21.4083 F80.00
G01 X33.8862 Y-21.4198 F80.00
G01 X33.8353 Y-21.4339 F80.00
G01 X33.7852 Y-21.4504 F80.00
G01 X33.7360 Y-21.4694 F80.00
G01 X33.6878 Y-21.4908 F80.00
G01 X33.6406 Y-21.5145 F80.00
G01 X33.5947 Y-21.5405 F80.00
G01 X33.5502 Y-21.5688 F80.00
G01 X33.5070 Y-21.5992 F80.00
G01 X33.4654 Y-21.6316 F80.00
G01 X33.4255 Y-21.6661 F80.00
G01 X33.3873 Y-21.7025 F80.00
G01 X33.3509 Y-21.7407 F80.00
G01 X33.3164 Y-21.7806 F80.00
G01 X33.2840 Y-21.8222 F80.00
G01 X33.2536 Y-21.8654 F80.00
G01 X33.2253 Y-21.9099 F80.00
G01 X33.1993 Y-21.9558 F80.00
G01 X33.1756 Y-22.0030 F80.00
G01 X33.1542 Y-22.0512 F80.00
G01 X33.1352 Y-22.1004 F80.00
G01 X33.1187 Y-22.1505 F80.00
G01 X33.1046 Y-22.2014 F80.00
G01 X33.0931 Y-22.2529 F80.00
G01 X33.0840 Y-22.3049 F80.00
G01 X33.0776 Y-22.3572 F80.00
G01 X33.0737 Y-22.4099 F80.00
G01 X33.0724 Y-22.4626 F80.00
G01 X33.0724 Y-24.4126 F80.00
G01 X33.0736 Y-24.4641 F80.00
G01 X33.0777 Y-24.5192 F80.00
G01 X33.0840 Y-24.5703 F80.00
G01 X33.0931 Y-24.6223 F80.00
G01 X33.1046 Y-24.6738 F80.00
G01 X33.1183 Y-24.7235 F80.00
G01 X33.1352 Y-24.7748 F80.00
G01 X33.1547 Y-24.8251 F80.00
G01 X33.1756 Y-24.8722 F80.00
G01 X33.1993 Y-24.9194 F80.00
G01 X33.2253 Y-24.9653 F80.00
G01 X33.2529 Y-25.0088 F80.00
G01 X33.2840 Y-25.0530 F80.00
G01 X33.3164 Y-25.0946 F80.00
G01 X33.3501 Y-25.1336 F80.00
G01 X33.3873 Y-25.1727 F80.00
G01 X33.4255 Y-25.2091 F80.00
G01 X33.4645 Y-25.2428 F80.00
G01 X33.5080 Y-25.2768 F80.00
G01 X33.5502 Y-25.3064 F80.00
G01 X33.5937 Y-25.3340 F80.00
G01 X33.6406 Y-25.3607 F80.00
G01 X33.6878 Y-25.3844 F80.00
G01 X33.7349 Y-25.4053 F80.00
G01 X33.7864 Y-25.4252 F80.00
G01 X33.8353 Y-25.4413 F80.00
G01 X33.8862 Y-25.4554 F80.00
G01 X33.9377 Y-25.4669 F80.00
G01 X33.9885 Y-25.4758 F80.00
G01 X34.0433 Y-25.4825 F80.00
G01 X34.0947 Y-25.4863 F80.00
G01 X34.1462 Y-25.4876 F80.00
G00 Z1.9990
G00 X36.6862 Y-25.4876
G01 F80.00
G01 Z-0.1120
G01 F80.00
G01 X36.7401 Y-25.4863 F80.00
G01 X36.7928 Y-25.4824 F80.00
G01 X36.8451 Y-25.4760 F80.00
G01 X36.8971 Y-25.4669 F80.00
G01 X36.9486 Y-25.4554 F80.00
G01 X36.9995 Y-25.4413 F80.00
G01 X37.0496 Y-25.4248 F80.00
G01 X37.0988 Y-25.4058 F80.00
G01 X37.1470 Y-25.3844 F80.00
G01 X37.1942 Y-25.3607 F80.00
G01 X37.2401 Y-25.3347 F80.00
G01 X37.2846 Y-25.3064 F80.00
G01 X37.3278 Y-25.2760 F80.00
G01 X37.3694 Y-25.2436 F80.00
G01 X37.4093 Y-25.2091 F80.00
G01 X37.4475 Y-25.1727 F80.00
G01 X37.4839 Y-25.1345 F80.00
G01 X37.5184 Y-25.0946 F80.00
G01 X37.5508 Y-25.0530 F80.00
G01 X37.5812 Y-25.0098 F80.00
G01 X37.6095 Y-24.9653 F80.00
G01 X37.6355 Y-24.9194 F80.00
G01 X37.6592 Y-24.8722 F80.00
G01 X37.6806 Y-24.8240 F80.00
G01 X37.6996 Y-24.7748 F80.00
G01 X37.7161 Y-24.7247 F80.00
G01 X37.7302 Y-24.6738 F80.00
G01 X37.7417 Y-24.6223 F80.00
G01 X37.7508 Y-24.5703 F80.00
G01 X37.7572 Y-24.5180 F80.00
G01 X37.7611 Y-24.4653 F80.00
G01 X37.7624 Y-24.4126 F80.00
G01 X37.7624 Y-22.4626 F80.00
G01 X37.7612 Y-22.4111 F80.00
G01 X37.7571 Y-22.3560 F80.00
G01 X37.7508 Y-22.3049 F80.00
G01 X37.7417 Y-22.2529 F80.00
G01 X37.7302 Y-22.2014 F80.00
G01 X37.7165 Y-22.1517 F80.00
G01 X37.6996 Y-22.1004 F80.00
G01 X37.6801 Y-22.0501 F80.00
G01 X37.6592 Y-22.0030 F80.00
G01 X37.6355 Y-21.9558 F80.00
G01 X37.6095 Y-21.9099 F80.00
G01 X37.5819 Y-21.8664 F80.00
G01 X37.5508 Y-21.8222 F80.00
G01 X37.5184 Y-21.7806 F80.00
G01 X37.4847 Y-21.7416 F80.00
G01 X37.4475 Y-21.7025 F80.00
G01 X37.4093 Y-21.6661 F80.00
G01 X37.3703 Y-21.6324 F80.00
G01 X37.3268 Y-21.5984 F80.00
G01 X37.2846 Y-21.5688 F80.00
G01 X37.2401 Y-21.5405 F80.00
G01 X37.1942 Y-21.5145 F80.00
G01 X37.1481 Y-21.4913 F80.00
G01 X37.0976 Y-21.4690 F80.00
G01 X37.0496 Y-21.4504 F80.00
G01 X37.0006 Y-21.4343 F80.00
G01 X36.9474 Y-21.4195 F80.00
G01 X36.8971 Y-21.4083 F80.00
G01 X36.8451 Y-21.3992 F80.00
G01 X36.7915 Y-21.3927 F80.00
G01 X36.7401 Y-21.3889 F80.00
G01 X36.6874 Y-21.3876 F80.00
G01 X36.6347 Y-21.3889 F80.00
G01 X36.5820 Y-21.3928 F80.00
G01 X36.5297 Y-21.3992 F80.00
G01 X36.4777 Y-21.4083 F80.00
G01 X36.4262 Y-21.4198 F80.00
G01 X36.3753 Y-21.4339 F80.00
G01 X36.3252 Y-21.4504 F80.00
G01 X36.2760 Y-21.4694 F80.00
G01 X36.2278 Y-21.4908 F80.00
G01 X36.1806 Y-21.5145 F80.00
G01 X36.1347 Y-21.5405 F80.00
G01 X36.0902 Y-21.5688 F80.00
G01 X36.0470 Y-21.5992 F80.00
G01 X36.0054 Y-21.6316 F80.00
G01 X35.9655 Y-21.6661 F80.00
G01 X35.9273 Y-21.7025 F80.00
G01 X35.8909 Y-21.7407 F80.00
G01 X35.8564 Y-21.7806 F80.00
G01 X35.8240 Y-21.8222 F80.00
G01 X35.7936 Y-21.8654 F80.00
G01 X35.7653 Y-21.9099 F80.00
G01 X35.7393 Y-21.9558 F80.00
G01 X35.7156 Y-22.0030 F80.00
G01 X35.6942 Y-22.0512 F80.00
G01 X35.6752 Y-22.1004 F80.00
G01 X35.6587 Y-22.1505 F80.00
G01 X35.6446 Y-22.2014 F80.00
G01 X35.6331 Y-22.2529 F80.00
G01 X35.6240 Y-22.3049 F80.00
G01 X35.6176 Y-22.3572 F80.00
G01 X35.6137 Y-22.4099 F80.00
G01 X35.6124 Y-22.4626 F80.00
G01 X35.6124 Y-24.4126 F80.00
G01 X35.6136 Y-24.4641 F80.00
G01 X35.6177 Y-24.5192 F80.00
G01 X35.6240 Y-24.5703 F80.00
G01 X35.6331 Y-24.6223 F80.00
G01 X35.6446 Y-24.6738 F80.00
G01 X35.6583 Y-24.7235 F80.00
G01 X35.6752 Y-24.7748 F80.00
G01 X35.6947 Y-24.8251 F80.00
G01 X35.7156 Y-24.8722 F80.00
G01 X35.7393 Y-24.9194 F80.00
G01 X35.7653 Y-24.9653 F80.00
G01 X35.7929 Y-25.0088 F80.00
G01 X35.8240 Y-25.0530 F80.00
G01 X35.8564 Y-25.0946 F80.00
G01 X35.8901 Y-25.1336 F80.00
G01 X35.9273 Y-25.1727 F80.00
G01 X35.9655 Y-25.2091 F80.00
G01 X36.0045 Y-25.2428 F80.00
G01 X36.0480 Y-25.2768 F80.00
G01 X36.0902 Y-25.3064 F80.00
G01 X36.1337 Y-25.3340 F80.00
G01 X36.1806 Y-25.3607 F80.00
G01 X36.2278 Y-25.3844 F80.00
G01 X36.2749 Y-25.4053 F80.00
G01 X36.3264 Y-25.4252 F80.00
G01 X36.3753 Y-25.4413 F80.00
G01 X36.4262 Y-25.4554 F80.00
G01 X36.4777 Y-25.4669 F80.00
G01 X36.5285 Y-25.4758 F80.00
G01 X36.5833 Y-25.4825 F80.00
G01 X36.6347 Y-25.4863 F80.00
G01 X36.6862 Y-25.4876 F80.00
G00 Z1.9990
G00 X39.2262 Y-25.4876
G01 F80.00
G01 Z-0.1120
G01 F80.00
G01 X39.2801 Y-25.4863 F80.00
G01 X39.3328 Y-25.4824 F80.00
G01 X39.3851 Y-25.4760 F80.00
G01 X39.4371 Y-25.4669 F80.00
G01 X39.4886 Y-25.4554 F80.00
G01 X39.5395 Y-25.4413 F80.00
G01 X39.5896 Y-25.4248 F80.00
G01 X39.6388 Y-25.4058 F80.00
G01 X39.6870 Y-25.3844 F80.00
G01 X39.7342 Y-25.3607 F80.00
G01 X39.7801 Y-25.3347 F80.00
G01 X39.8246 Y-25.3064 F80.00
G01 X39.8678 Y-25.2760 F80.00
G01 X39.9094 Y-25.2436 F80.00
G01 X39.9493 Y-25.2091 F80.00
G01 X39.9875 Y-25.1727 F80.00
G01 X40.0239 Y-25.1345 F80.00
G01 X40.0584 Y-25.0946 F80.00
G01 X40.0908 Y-25.0530 F80.00
G01 X40.1212 Y-25.0098 F80.00
G01 X40.1495 Y-24.9653 F80.00
G01 X40.1755 Y-24.9194 F80.00
G01 X40.1992 Y-24.8722 F80.00
G01 X40.2206 Y-24.8240 F80.00
G01 X40.2396 Y-24.7748 F80.00
G01 X40.2561 Y-24.7247 F80.00
G01 X40.2702 Y-24.6738 F80.00
G01 X40.2817 Y-24.6223 F80.00
G01 X40.2908 Y-24.5703 F80.00
G01 X40.2972 Y-24.5180 F80.00
G01 X40.3011 Y-24.4653 F80.00
G01 X40.3024 Y-24.4126 F80.00
G01 X40.3024 Y-22.4626 F80.00
G01 X40.3012 Y-22.4111 F80.00
G01 X40.2971 Y-22.3560 F80.00
G01 X40.2908 Y-22.3049 F80.00
G01 X40.2817 Y-22.2529 F80.00
G01 X40.2702 Y-22.2014 F80.00
G01 X40.2565 Y-22.1517 F80.00
G01 X40.2396 Y-22.1004 F80.00
G01 X40.2201 Y-22.0501 F80.00
G01 X40.1992 Y-22.0030 F80.00
G01 X40.1755 Y-21.9558 F80.00
G01 X40.1495 Y-21.9099 F80.00
G01 X40.1219 Y-21.8664 F80.00
G01 X40.0908 Y-21.8222 F80.00
G01 X40.0584 Y-21.7806 F80.00
G01 X40.0247 Y-21.7416 F80.00
G01 X39.9875 Y-21.7025 F80.00
G01 X39.9493 Y-21.6661 F80.00
G01 X39.9103 Y-21.6324 F80.00
G01 X39.8668 Y-21.5984 F80.00
G01 X39.8246 Y-21.5688 F80.00
G01 X39.7801 Y-21.5405 F80.00
G01 X39.7342 Y-21.5145 F80.00
G01 X39.6881 Y-21.4913 F80.00
G01 X39.6376 Y-21.4690 F80.00
G01 X39.5896 Y-21.4504 F80.00
G01 X39.5406 Y-21.4343 F80.00
G01 X39.4874 Y-21.4195 F80.00
G01 X39.4371 Y-21.4083 F80.00
G01 X39.3851 Y-21.3992 F80.00
G01 X39.3315 Y-21.3927 F80.00
G01 X39.2801 Y-21.3889 F80.00
G01 X39.2274 Y-21.3876 F80.00
G01 X39.1747 Y-21.3889 F80.00
G01 X39.1220 Y-21.3928 F80.00
G01 X39.0697 Y-21.3992 F80.00
G01 X39.0177 Y-21.4083 F80.00
G01 X38.9662 Y-21.4198 F80.00
G01 X38.9153 Y-21.4339 F80.00
G01 X38.8652 Y-21.4504 F80.00
G01 X38.8160 Y-21.4694 F80.00
G01 X38.7678 Y-21.4908 F80.00
G01 X38.7206 Y-21.5145 F80.00
G01 X38.6747 Y-21.5405 F80.00
G01 X38.6302 Y-21.5688 F80.00
G01 X38.5870 Y-21.5992 F80.00
G01 X38.5454 Y-21.6316 F80.00
G01 X38.5055 Y-21.6661 F80.00
G01 X38.4673 Y-21.7025 F80.00
G01 X38.4309 Y-21.7407 F80.00
G01 X38.3964 Y-21.7806 F80.00
G01 X38.3640 Y-21.8222 F80.00
G01 X38.3336 Y-21.8654 F80.00
G01 X38.3053 Y-21.9099 F80.00
G01 X38.2793 Y-21.9558 F80.00
G01 X38.2556 Y-22.0030 F80.00
G01 X38.2342 Y-22.0512 F80.00
G01 X38.2152 Y-22.1004 F80.00
G01 X38.1987 Y-22.1505 F80.00
G01 X38.1846 Y-22.2014 F80.00
G01 X38.1731 Y-22.2529 F80.00
G01 X38.1640 Y-22.3049 F80.00
G01 X38.1576 Y-22.3572 F80.00
G01 X38.1537 Y-22.4099 F80.00
G01 X38.1524 Y-22.4626 F80.00
G01 X38.1524 Y-24.4126 F80.00
G01 X38.1536 Y-24.4641 F80.00
G01 X38.1577 Y-24.5192 F80.00
G01 X38.1640 Y-24.5703 F80.00
G01 X38.1731 Y-24.6223 F80.00
G01 X38.1846 Y-24.6738 F80.00
G01 X38.1983 Y-24.7235 F80.00
G01 X38.2152 Y-24.7748 F80.00
G01 X38.2347 Y-24.8251 F80.00
G01 X38.2556 Y-24.8722 F80.00
G01 X38.2793 Y-24.9194 F80.00
G01 X38.3053 Y-24.9653 F80.00
G01 X38.3329 Y-25.0088 F80.00
G01 X38.3640 Y-25.0530 F80.00
G01 X38.3964 Y-25.0946 F80.00
G01 X38.4301 Y-25.1336 F80.00
G01 X38.4673 Y-25.1727 F80.00
G01 X38.5055 Y-25.2091 F80.00
G01 X38.5445 Y-25.2428 F80.00
G01 X38.5880 Y-25.2768 F80.00
G01 X38.6302 Y-25.3064 F80.00
G01 X38.6737 Y-25.3340 F80.00
G01 X38.7206 Y-25.3607 F80.00
G01 X38.7678 Y-25.3844 F80.00
G01 X38.8149 Y-25.4053 F80.00
G01 X38.8664 Y-25.4252 F80.00
G01 X38.9153 Y-25.4413 F80.00
G01 X38.9662 Y-25.4554 F80.00
G01 X39.0177 Y-25.4669 F80.00
G01 X39.0685 Y-25.4758 F80.00
G01 X39.1233 Y-25.4825 F80.00
G01 X39.1747 Y-25.4863 F80.00
G01 X39.2262 Y-25.4876 F80.00
G00 Z1.9990
G00 X41.7662 Y-25.4876
G01 F80.00
G01 Z-0.1120
G01 F80.00
G01 X41.8201 Y-25.4863 F80.00
G01 X41.8728 Y-25.4824 F80.00
G01 X41.9251 Y-25.4760 F80.00
G01 X41.9771 Y-25.4669 F80.00
G01 X42.0286 Y-25.4554 F80.00
G01 X42.0795 Y-25.4413 F80.00
G01 X42.1296 Y-25.4248 F80.00
G01 X42.1788 Y-25.4058 F80.00
G01 X42.2270 Y-25.3844 F80.00
G01 X42.2742 Y-25.3607 F80.00
G01 X42.3201 Y-25.3347 F80.00
G01 X42.3646 Y-25.3064 F80.00
G01 X42.4078 Y-25.2760 F80.00
G01 X42.4494 Y-25.2436 F80.00
G01 X42.4893 Y-25.2091 F80.00
G01 X42.5275 Y-25.1727 F80.00
G01 X42.5639 Y-25.1345 F80.00
G01 X42.5984 Y-25.0946 F80.00
G01 X42.6308 Y-25.0530 F80.00
G01 X42.6612 Y-25.0098 F80.00
G01 X42.6895 Y-24.9653 F80.00
G01 X42.7155 Y-24.9194 F80.00
G01 X42.7392 Y-24.8722 F80.00
G01 X42.7606 Y-24.8240 F80.00
G01 X42.7796 Y-24.7748 F80.00
G01 X42.7961 Y-24.7247 F80.00
G01 X42.8102 Y-24.6738 F80.00
G01 X42.8217 Y-24.6223 F80.00
G01 X42.8308 Y-24.5703 F80.00
G01 X42.8372 Y-24.5180 F80.00
G01 X42.8411 Y-24.4653 F80.00
G01 X42.8424 Y-24.4126 F80.00
G01 X42.8424 Y-22.4626 F80.00
G01 X42.8412 Y-22.4111 F80.00
G01 X42.8371 Y-22.3560 F80.00
G01 X42.8308 Y-22.3049 F80.00
G01 X42.8217 Y-22.2529 F80.00
G01 X42.8102 Y-22.2014 F80.00
G01 X42.7965 Y-22.1517 F80.00
G01 X42.7796 Y-22.1004 F80.00
G01 X42.7601 Y-22.0501 F80.00
G01 X42.7392 Y-22.0030 F80.00
G01 X42.7155 Y-21.9558 F80.00
G01 X42.6895 Y-21.9099 F80.00
G01 X42.6619 Y-21.8664 F80.00
G01 X42.6308 Y-21.8222 F80.00
G01 X42.5984 Y-21.7806 F80.00
G01 X42.5647 Y-21.7416 F80.00
G01 X42.5275 Y-21.7025 F80.00
G01 X42.4893 Y-21.6661 F80.00
G01 X42.4503 Y-21.6324 F80.00
G01 X42.4068 Y-21.5984 F80.00
G01 X42.3646 Y-21.5688 F80.00
G01 X42.3201 Y-21.5405 F80.00
G01 X42.2742 Y-21.5145 F80.00
G01 X42.2281 Y-21.4913 F80.00
G01 X42.1776 Y-21.4690 F80.00
G01 X42.1296 Y-21.4504 F80.00
G01 X42.0806 Y-21.4343 F80.00
G01 X42.0274 Y-21.4195 F80.00
G01 X41.9771 Y-21.4083 F80.00
G01 X41.9251 Y-21.3992 F80.00
G01 X41.8715 Y-21.3927 F80.00
G01 X41.8201 Y-21.3889 F80.00
G01 X41.7674 Y-21.3876 F80.00
G01 X41.7147 Y-21.3889 F80.00
G01 X41.6620 Y-21.3928 F80.00
G01 X41.6097 Y-21.3992 F80.00
G01 X41.5577 Y-21.4083 F80.00
G01 X41.5062 Y-21.4198 F80.00
G01 X41.4553 Y-21.4339 F80.00
G01 X41.4052 Y-21.4504 F80.00
G01 X41.3560 Y-21.4694 F80.00
G01 X41.3078 Y-21.4908 F80.00
G01 X41.2606 Y-21.5145 F80.00
G01 X41.2147 Y-21.5405 F80.00
G01 X41.1702 Y-21.5688 F80.00
G01 X41.1270 Y-21.5992 F80.00
G01 X41.0854 Y-21.6316 F80.00
G01 X41.0455 Y-21.6661 F80.00
G01 X41.0073 Y-21.7025 F80.00
G01 X40.9709 Y-21.7407 F80.00
G01 X40.9364 Y-21.7806 F80.00
G01 X40.9040 Y-21.8222 F80.00
G01 X40.8736 Y-21.8654 F80.00
G01 X40.8453 Y-21.9099 F80.00
G01 X40.8193 Y-21.9558 F80.00
G01 X40.7956 Y-22.0030 F80.00
G01 X40.7742 Y-22.0512 F80.00
G01 X40.7552 Y-22.1004 F80.00
G01 X40.7387 Y-22.1505 F80.00
G01 X40.7246 Y-22.2014 F80.00
G01 X40.7131 Y-22.2529 F80.00
G01 X40.7040 Y-22.3049 F80.00
G01 X40.6976 Y-22.3572 F80.00
G01 X40.6937 Y-22.4099 F80.00
G01 X40.6924 Y-22.4626 F80.00
G01 X40.6924 Y-24.4126 F80.00
G01 X40.6936 Y-24.4641 F80.00
G01 X40.6977 Y-24.5192 F80.00
G01 X40.7040 Y-24.5703 F80.00
G01 X40.7131 Y-24.6223 F80.00
G01 X40.7246 Y-24.6738 F80.00
G01 X40.7383 Y-24.7235 F80.00
G01 X40.7552 Y-24.7748 F80.00
G01 X40.7747 Y-24.8251 F80.00
G01 X40.7956 Y-24.8722 F80.00
G01 X40.8193 Y-24.9194 F80.00
G01 X40.8453 Y-24.9653 F80.00
G01 X40.8729 Y-25.0088 F80.00
G01 X40.9040 Y-25.0530 F80.00
G01 X40.9364 Y-25.0946 F80.00
G01 X40.9701 Y-25.1336 F80.00
G01 X41.0073 Y-25.1727 F80.00
G01 X41.0455 Y-25.2091 F80.00
G01 X41.0845 Y-25.2428 F80.00
G01 X41.1280 Y-25.2768 F80.00
G01 X41.1702 Y-25.3064 F80.00
G01 X41.2137 Y-25.3340 F80.00
G01 X41.2606 Y-25.3607 F80.00
G01 X41.3078 Y-25.3844 F80.00
G01 X41.3549 Y-25.4053 F80.00
G01 X41.4064 Y-25.4252 F80.00
G01 X41.4553 Y-25.4413 F80.00
G01 X41.5062 Y-25.4554 F80.00
G01 X41.5577 Y-25.4669 F80.00
G01 X41.6085 Y-25.4758 F80.00
G01 X41.6633 Y-25.4825 F80.00
G01 X41.7147 Y-25.4863 F80.00
G01 X41.7662 Y-25.4876 F80.00
G00 Z1.9990
G00 X23.9862 Y-25.4876
G01 F80.00
G01 Z-0.1120
G01 F80.00
G01 X24.0401 Y-25.4863 F80.00
G01 X24.0928 Y-25.4824 F80.00
G01 X24.1451 Y-25.4760 F80.00
G01 X24.1971 Y-25.4669 F80.00
G01 X24.2486 Y-25.4554 F80.00
G01 X24.2995 Y-25.4413 F80.00
G01 X24.3496 Y-25.4248 F80.00
G01 X24.3988 Y-25.4058 F80.00
G01 X24.4470 Y-25.3844 F80.00
G01 X24.4942 Y-25.3607 F80.00
G01 X24.5401 Y-25.3347 F80.00
G01 X24.5846 Y-25.3064 F80.00
G01 X24.6278 Y-25.2760 F80.00
G01 X24.6694 Y-25.2436 F80.00
G01 X24.7093 Y-25.2091 F80.00
G01 X24.7475 Y-25.1727 F80.00
G01 X24.7839 Y-25.1345 F80.00
G01 X24.8184 Y-25.0946 F80.00
G01 X24.8508 Y-25.0530 F80.00
G01 X24.8812 Y-25.0098 F80.00
G01 X24.9095 Y-24.9653 F80.00
G01 X24.9355 Y-24.9194 F80.00
G01 X24.9592 Y-24.8722 F80.00
G01 X24.9806 Y-24.8240 F80.00
G01 X24.9996 Y-24.7748 F80.00
G01 X25.0161 Y-24.7247 F80.00
G01 X25.0302 Y-24.6738 F80.00
G01 X25.0417 Y-24.6223 F80.00
G01 X25.0508 Y-24.5703 F80.00
G01 X25.0572 Y-24.5180 F80.00
G01 X25.0611 Y-24.4653 F80.00
G01 X25.0624 Y-24.4126 F80.00
G01 X25.0624 Y-22.4626 F80.00
G01 X25.0612 Y-22.4111 F80.00
G01 X25.0571 Y-22.3560 F80.00
G01 X25.0508 Y-22.3049 F80.00
G01 X25.0417 Y-22.2529 F80.00
G01 X25.0302 Y-22.2014 F80.00
G01 X25.0165 Y-22.1517 F80.00
G01 X24.9996 Y-22.1004 F80.00
G01 X24.9801 Y-22.0501 F80.00
G01 X24.9592 Y-22.0030 F80.00
G01 X24.9355 Y-21.9558 F80.00
G01 X24.9095 Y-21.9099 F80.00
G01 X24.8819 Y-21.8664 F80.00
G01 X24.8508 Y-21.8222 F80.00
G01 X24.8184 Y-21.7806 F80.00
G01 X24.7847 Y-21.7416 F80.00
G01 X24.7475 Y-21.7025 F80.00
G01 X24.7093 Y-21.6661 F80.00
G01 X24.6703 Y-21.6324 F80.00
G01 X24.6268 Y-21.5984 F80.00
G01 X24.5846 Y-21.5688 F80.00
G01 X24.5401 Y-21.5405 F80.00
G01 X24.4942 Y-21.5145 F80.00
G01 X24.4481 Y-21.4913 F80.00
G01 X24.3976 Y-21.4690 F80.00
G01 X24.3496 Y-21.4504 F80.00
G01 X24.3006 Y-21.4343 F80.00
G01 X24.2474 Y-21.4195 F80.00
G01 X24.1971 Y-21.4083 F80.00
G01 X24.1451 Y-21.3992 F80.00
G01 X24.0915 Y-21.3927 F80.00
G01 X24.0401 Y-21.3889 F80.00
G01 X23.9874 Y-21.3876 F80.00
G01 X23.9347 Y-21.3889 F80.00
G01 X23.8820 Y-21.3928 F80.00
G01 X23.8297 Y-21.3992 F80.00
G01 X23.7777 Y-21.4083 F80.00
G01 X23.7262 Y-21.4198 F80.00
G01 X23.6753 Y-21.4339 F80.00
G01 X23.6252 Y-21.4504 F80.00
G01 X23.5760 Y-21.4694 F80.00
G01 X23.5278 Y-21.4908 F80.00
G01 X23.4806 Y-21.5145 F80.00
G01 X23.4347 Y-21.5405 F80.00
G01 X23.3902 Y-21.5688 F80.00
G01 X23.3470 Y-21.5992 F80.00
G01 X23.3054 Y-21.6316 F80.00
G01 X23.2655 Y-21.6661 F80.00
G01 X23.2273 Y-21.7025 F80.00
G01 X23.1909 Y-21.7407 F80.00
G01 X23.1564 Y-21.7806 F80.00
G01 X23.1240 Y-21.8222 F80.00
G01 X23.0936 Y-21.8654 F80.00
G01 X23.0653 Y-21.9099 F80.00
G01 X23.0393 Y-21.9558 F80.00
G01 X23.0156 Y-22.0030 F80.00
G01 X22.9942 Y-22.0512 F80.00
G01 X22.9752 Y-22.1004 F80.00
G01 X22.9587 Y-22.1505 F80.00
G01 X22.9446 Y-22.2014 F80.00
G01 X22.9331 Y-22.2529 F80.00
G01 X22.9240 Y-22.3049 F80.00
G01 X22.9176 Y-22.3572 F80.00
G01 X22.9137 Y-22.4099 F80.00
G01 X22.9124 Y-22.4626 F80.00
G01 X22.9124 Y-24.4126 F80.00
G01 X22.9136 Y-24.4641 F80.00
G01 X22.9177 Y-24.5192 F80.00
G01 X22.9240 Y-24.5703 F80.00
G01 X22.9331 Y-24.6223 F80.00
G01 X22.9446 Y-24.6738 F80.00
G01 X22.9583 Y-24.7235 F80.00
G01 X22.9752 Y-24.7748 F80.00
G01 X22.9947 Y-24.8251 F80.00
G01 X23.0156 Y-24.8722 F80.00
G01 X23.0393 Y-24.9194 F80.00
G01 X23.0653 Y-24.9653 F80.00
G01 X23.0929 Y-25.0088 F80.00
G01 X23.1240 Y-25.0530 F80.00
G01 X23.1564 Y-25.0946 F80.00
G01 X23.1901 Y-25.1336 F80.00
G01 X23.2273 Y-25.1727 F80.00
G01 X23.2655 Y-25.2091 F80.00
G01 X23.3045 Y-25.2428 F80.00
G01 X23.3480 Y-25.2768 F80.00
G01 X23.3902 Y-25.3064 F80.00
G01 X23.4337 Y-25.3340 F80.00
G01 X23.4806 Y-25.3607 F80.00
G01 X23.5278 Y-25.3844 F80.00
G01 X23.5749 Y-25.4053 F80.00
G01 X23.6264 Y-25.4252 F80.00
G01 X23.6753 Y-25.4413 F80.00
G01 X23.7262 Y-25.4554 F80.00
G01 X23.7777 Y-25.4669 F80.00
G01 X23.8285 Y-25.4758 F80.00
G01 X23.8833 Y-25.4825 F80.00
G01 X23.9347 Y-25.4863 F80.00
G01 X23.9862 Y-25.4876 F80.00
G00 Z1.9990
G00 X14.1646 Y-34.6020
G01 F80.00
G01 Z-0.1120
G01 F80.00
G01 X40.2136 Y-34.6020 F80.00
G01 X40.2504 Y-34.6010 F80.00
G01 X40.2859 Y-34.5984 F80.00
G01 X40.3237 Y-34.5938 F80.00
G01 X40.3600 Y-34.5875 F80.00
G01 X40.3947 Y-34.5797 F80.00
G01 X40.4314 Y-34.5696 F80.00
G01 X40.4676 Y-34.5577 F80.00
G01 X40.5008 Y-34.5448 F80.00
G01 X40.5344 Y-34.5299 F80.00
G01 X40.5684 Y-34.5128 F80.00
G01 X40.5994 Y-34.4952 F80.00
G01 X40.6305 Y-34.4755 F80.00
G01 X40.6606 Y-34.4543 F80.00
G01 X40.6896 Y-34.4316 F80.00
G01 X40.7175 Y-34.4076 F80.00
G01 X40.7442 Y-34.3822 F80.00
G01 X44.8384 Y-30.2880 F80.00
G01 X44.8634 Y-30.2617 F80.00
G01 X44.8866 Y-30.2348 F80.00
G01 X44.9101 Y-30.2048 F80.00
G01 X44.9313 Y-30.1747 F80.00
G01 X44.9504 Y-30.1446 F80.00
G01 X44.9691 Y-30.1115 F80.00
G01 X44.9862 Y-30.0775 F80.00
G01 X45.0006 Y-30.0450 F80.00
G01 X45.0139 Y-30.0106 F80.00
G01 X45.0258 Y-29.9745 F80.00
G01 X45.0353 Y-29.9401 F80.00
G01 X45.0433 Y-29.9042 F80.00
G01 X45.0496 Y-29.8679 F80.00
G01 X45.0541 Y-29.8314 F80.00
G01 X45.0568 Y-29.7946 F80.00
G01 X45.0578 Y-29.7578 F80.00
G01 X45.0578 Y-25.1821 F80.00
G01 X45.0684 Y-25.1719 F80.00
G01 X45.1047 Y-25.1336 F80.00
G01 X45.1384 Y-25.0946 F80.00
G01 X45.1716 Y-25.0520 F80.00
G01 X45.2012 Y-25.0098 F80.00
G01 X45.2295 Y-24.9653 F80.00
G01 X45.2555 Y-24.9194 F80.00
G01 X45.2792 Y-24.8722 F80.00
G01 X45.3006 Y-24.8240 F80.00
G01 X45.3191 Y-24.7759 F80.00
G01 X45.3365 Y-24.7235 F80.00
G01 X45.3502 Y-24.6738 F80.00
G01 X45.3617 Y-24.6223 F80.00
G01 X45.3708 Y-24.5703 F80.00
G01 X45.3771 Y-24.5192 F80.00
G01 X45.3811 Y-24.4653 F80.00
G01 X45.3824 Y-24.4126 F80.00
G01 X45.3824 Y-22.4620 F80.00
G01 X45.3811 Y-22.4099 F80.00
G01 X45.3772 Y-22.3572 F80.00
G01 X45.3708 Y-22.3049 F80.00
G01 X45.3617 Y-22.2529 F80.00
G01 X45.3502 Y-22.2014 F80.00
G01 X45.3361 Y-22.1505 F80.00
G01 X45.3196 Y-22.1004 F80.00
G01 X45.3006 Y-22.0512 F80.00
G01 X45.2792 Y-22.0030 F80.00
G01 X45.2555 Y-21.9558 F80.00
G01 X45.2295 Y-21.9099 F80.00
G01 X45.2012 Y-21.8654 F80.00
G01 X45.1708 Y-21.8222 F80.00
G01 X45.1384 Y-21.7806 F80.00
G01 X45.1039 Y-21.7407 F80.00
G01 X45.0684 Y-21.7033 F80.00
G01 X45.0578 Y-21.6931 F80.00
G01 X45.0577 Y-14.2020 F80.00
G01 X45.0568 Y-14.1658 F80.00
G01 X45.0542 Y-14.1303 F80.00
G01 X45.0496 Y-14.0925 F80.00
G01 X45.0431 Y-14.0550 F80.00
G01 X45.0353 Y-14.0203 F80.00
G01 X45.0254 Y-13.9848 F80.00
G01 X45.0135 Y-13.9487 F80.00
G01 X45.0006 Y-13.9155 F80.00
G01 X44.9857 Y-13.8818 F80.00
G01 X44.9686 Y-13.8478 F80.00
G01 X44.9510 Y-13.8168 F80.00
G01 X44.9313 Y-13.7857 F80.00
G01 X44.9101 Y-13.7556 F80.00
G01 X44.8874 Y-13.7266 F80.00
G01 X44.8634 Y-13.6987 F80.00
G01 X44.8380 Y-13.6720 F80.00
G01 X39.5950 Y-8.4290 F80.00
G01 X39.5683 Y-8.4036 F80.00
G01 X39.5404 Y-8.3796 F80.00
G01 X39.5114 Y-8.3569 F80.00
G01 X39.4813 Y-8.3357 F80.00
G01 X39.4502 Y-8.3160 F80.00
G01 X39.4181 Y-8.2979 F80.00
G01 X39.3852 Y-8.2813 F80.00
G01 X39.3515 Y-8.2664 F80.00
G01 X39.3172 Y-8.2531 F80.00
G01 X39.2822 Y-8.2416 F80.00
G01 X39.2467 Y-8.2317 F80.00
G01 X39.2108 Y-8.2237 F80.00
G01 X39.1745 Y-8.2174 F80.00
G01 X39.1379 Y-8.2129 F80.00
G01 X39.1012 Y-8.2102 F80.00
G01 X39.0644 Y-8.2092 F80.00
G01 X30.0154 Y-8.2092 F80.00
G01 X30.0154 Y-7.9846 F80.00
G01 X30.0142 Y-7.9331 F80.00
G01 X30.0102 Y-7.8792 F80.00
G01 X30.0039 Y-7.8281 F80.00
G01 X29.9947 Y-7.7749 F80.00
G01 X29.9829 Y-7.7222 F80.00
G01 X29.9691 Y-7.6725 F80.00
G01 X29.9530 Y-7.6236 F80.00
G01 X29.9336 Y-7.5732 F80.00
G01 X29.9117 Y-7.5239 F80.00
G01 X29.8885 Y-7.4778 F80.00
G01 X29.8625 Y-7.4319 F80.00
G01 X29.8335 Y-7.3864 F80.00
G01 X29.8038 Y-7.3442 F80.00
G01 X29.7714 Y-7.3026 F80.00
G01 X29.7361 Y-7.2618 F80.00
G01 X29.7005 Y-7.2245 F80.00
G01 X29.6623 Y-7.1881 F80.00
G01 X29.6214 Y-7.1528 F80.00
G01 X29.5808 Y-7.1212 F80.00
G01 X29.5376 Y-7.0908 F80.00
G01 X29.4920 Y-7.0619 F80.00
G01 X29.4472 Y-7.0365 F80.00
G01 X29.4000 Y-7.0128 F80.00
G01 X29.3518 Y-6.9914 F80.00
G01 X29.3037 Y-6.9729 F80.00
G01 X29.2525 Y-6.9559 F80.00
G01 X29.2016 Y-6.9418 F80.00
G01 X29.1513 Y-6.9305 F80.00
G01 X29.0981 Y-6.9212 F80.00
G01 X29.0445 Y-6.9147 F80.00
G01 X28.9931 Y-6.9109 F80.00
G01 X28.9404 Y-6.9096 F80.00
G01 X28.8877 Y-6.9109 F80.00
G01 X28.8363 Y-6.9147 F80.00
G01 X28.7827 Y-6.9212 F80.00
G01 X28.7295 Y-6.9305 F80.00
G01 X28.6792 Y-6.9418 F80.00
G01 X28.6283 Y-6.9559 F80.00
G01 X28.5771 Y-6.9729 F80.00
G01 X28.5290 Y-6.9914 F80.00
G01 X28.4808 Y-7.0128 F80.00
G01 X28.4336 Y-7.0365 F80.00
G01 X28.3888 Y-7.0619 F80.00
G01 X28.3432 Y-7.0908 F80.00
G01 X28.3000 Y-7.1212 F80.00
G01 X28.2584 Y-7.1536 F80.00
G01 X28.2185 Y-7.1881 F80.00
G01 X28.1803 Y-7.2245 F80.00
G01 X28.1439 Y-7.2627 F80.00
G01 X28.1094 Y-7.3026 F80.00
G01 X28.0770 Y-7.3442 F80.00
G01 X28.0459 Y-7.3884 F80.00
G01 X28.0183 Y-7.4319 F80.00
G01 X27.9923 Y-7.4778 F80.00
G01 X27.9686 Y-7.5250 F80.00
G01 X27.9468 Y-7.5744 F80.00
G01 X27.9282 Y-7.6224 F80.00
G01 X27.9121 Y-7.6714 F80.00
G01 X27.8979 Y-7.7222 F80.00
G01 X27.8861 Y-7.7749 F80.00
G01 X27.8772 Y-7.8257 F80.00
G01 X27.8705 Y-7.8805 F80.00
G01 X27.8667 Y-7.9319 F80.00
G01 X27.8654 Y-7.9846 F80.00
G01 X27.8654 Y-9.9346 F80.00
G01 X27.8666 Y-9.9861 F80.00
G01 X27.8706 Y-10.0400 F80.00
G01 X27.8772 Y-10.0935 F80.00
G01 X27.8861 Y-10.1443 F80.00
G01 X27.8973 Y-10.1946 F80.00
G01 X27.9121 Y-10.2478 F80.00
G01 X27.9282 Y-10.2968 F80.00
G01 X27.9468 Y-10.3448 F80.00
G01 X27.9686 Y-10.3942 F80.00
G01 X27.9929 Y-10.4424 F80.00
G01 X28.0183 Y-10.4873 F80.00
G01 X28.0466 Y-10.5318 F80.00
G01 X28.0777 Y-10.5760 F80.00
G01 X28.1094 Y-10.6166 F80.00
G01 X28.1439 Y-10.6565 F80.00
G01 X28.1811 Y-10.6956 F80.00
G01 X28.2185 Y-10.7311 F80.00
G01 X28.2575 Y-10.7648 F80.00
G01 X28.3000 Y-10.7980 F80.00
G01 X28.3442 Y-10.8291 F80.00
G01 X28.3877 Y-10.8567 F80.00
G01 X28.4326 Y-10.8821 F80.00
G01 X28.4808 Y-10.9064 F80.00
G01 X28.5290 Y-10.9278 F80.00
G01 X28.5771 Y-10.9463 F80.00
G01 X28.6283 Y-10.9633 F80.00
G01 X28.6804 Y-10.9777 F80.00
G01 X28.7307 Y-10.9889 F80.00
G01 X28.7815 Y-10.9978 F80.00
G01 X28.8350 Y-11.0044 F80.00
G01 X28.8889 Y-11.0084 F80.00
G01 X28.9404 Y-11.0096 F80.00
G01 X28.9919 Y-11.0084 F80.00
G01 X29.0458 Y-11.0044 F80.00
G01 X29.0981 Y-10.9980 F80.00
G01 X29.1489 Y-10.9892 F80.00
G01 X29.2016 Y-10.9774 F80.00
G01 X29.2536 Y-10.9629 F80.00
G01 X29.3026 Y-10.9468 F80.00
G01 X29.3506 Y-10.9282 F80.00
G01 X29.4011 Y-10.9059 F80.00
G01 X29.4472 Y-10.8827 F80.00
G01 X29.4920 Y-10.8573 F80.00
G01 X29.5376 Y-10.8284 F80.00
G01 X29.5818 Y-10.7973 F80.00
G01 X29.6224 Y-10.7656 F80.00
G01 X29.6614 Y-10.7319 F80.00
G01 X29.7005 Y-10.6947 F80.00
G01 X29.7377 Y-10.6556 F80.00
G01 X29.7714 Y-10.6166 F80.00
G01 X29.8031 Y-10.5760 F80.00
G01 X29.8342 Y-10.5318 F80.00
G01 X29.8631 Y-10.4862 F80.00
G01 X29.8885 Y-10.4414 F80.00
G01 X29.9117 Y-10.3953 F80.00
G01 X29.9340 Y-10.3448 F80.00
G01 X29.9526 Y-10.2968 F80.00
G01 X29.9687 Y-10.2478 F80.00
G01 X29.9829 Y-10.1970 F80.00
G01 X29.9947 Y-10.1443 F80.00
G01 X30.0039 Y-10.0911 F80.00
G01 X30.0102 Y-10.0400 F80.00
G01 X30.0142 Y-9.9861 F80.00
G01 X30.0154 Y-9.9346 F80.00
G01 X30.0154 Y-9.7100 F80.00
G01 X38.7536 Y-9.7100 F80.00
G01 X43.5570 Y-14.5134 F80.00
G01 X43.5570 Y-21.6931 F80.00
G01 X43.5464 Y-21.7033 F80.00
G01 X43.5101 Y-21.7416 F80.00
G01 X43.4764 Y-21.7806 F80.00
G01 X43.4432 Y-21.8232 F80.00
G01 X43.4136 Y-21.8654 F80.00
G01 X43.3853 Y-21.9099 F80.00
G01 X43.3593 Y-21.9558 F80.00
G01 X43.3356 Y-22.0030 F80.00
G01 X43.3142 Y-22.0512 F80.00
G01 X43.2957 Y-22.0993 F80.00
G01 X43.2783 Y-22.1517 F80.00
G01 X43.2646 Y-22.2014 F80.00
G01 X43.2531 Y-22.2529 F80.00
G01 X43.2440 Y-22.3049 F80.00
G01 X43.2377 Y-22.3560 F80.00
G01 X43.2337 Y-22.4099 F80.00
G01 X43.2324 Y-22.4626 F80.00
G01 X43.2324 Y-24.4126 F80.00
G01 X43.2337 Y-24.4653 F80.00
G01 X43.2376 Y-24.5180 F80.00
G01 X43.2440 Y-24.5703 F80.00
G01 X43.2531 Y-24.6223 F80.00
G01 X43.2646 Y-24.6738 F80.00
G01 X43.2787 Y-24.7247 F80.00
G01 X43.2952 Y-24.7748 F80.00
G01 X43.3142 Y-24.8240 F80.00
G01 X43.3356 Y-24.8722 F80.00
G01 X43.3593 Y-24.9194 F80.00
G01 X43.3853 Y-24.9653 F80.00
G01 X43.4136 Y-25.0098 F80.00
G01 X43.4440 Y-25.0530 F80.00
G01 X43.4764 Y-25.0946 F80.00
G01 X43.5109 Y-25.1345 F80.00
G01 X43.5464 Y-25.1719 F80.00
G01 X43.5570 Y-25.1821 F80.00
G01 X43.5570 Y-29.4470 F80.00
G01 X39.9028 Y-33.1012 F80.00
G01 X14.1646 Y-33.1012 F80.00
G01 X14.1355 Y-33.0736 F80.00
G01 X14.0965 Y-33.0399 F80.00
G01 X14.0559 Y-33.0082 F80.00
G01 X14.0148 Y-32.9793 F80.00
G01 X13.9691 Y-32.9504 F80.00
G01 X13.9254 Y-32.9256 F80.00
G01 X13.8793 Y-32.9024 F80.00
G01 X13.8322 Y-32.8815 F80.00
G01 X13.7853 Y-32.8634 F80.00
G01 X13.7340 Y-32.8465 F80.00
G01 X13.6855 Y-32.8331 F80.00
G01 X13.6352 Y-32.8218 F80.00
G01 X13.5845 Y-32.8130 F80.00
G01 X13.5333 Y-32.8067 F80.00
G01 X13.4819 Y-32.8029 F80.00
G01 X13.4304 Y-32.8016 F80.00
G01 X11.4298 Y-32.8016 F80.00
G01 X11.3789 Y-32.8029 F80.00
G01 X11.3287 Y-32.8066 F80.00
G01 X11.2751 Y-32.8132 F80.00
G01 X11.2256 Y-32.8218 F80.00
G01 X11.1753 Y-32.8331 F80.00
G01 X11.1256 Y-32.8468 F80.00
G01 X11.0778 Y-32.8626 F80.00
G01 X11.0275 Y-32.8820 F80.00
G01 X10.9815 Y-32.9024 F80.00
G01 X10.9354 Y-32.9256 F80.00
G01 X10.8906 Y-32.9510 F80.00
G01 X10.8481 Y-32.9779 F80.00
G01 X10.8039 Y-33.0090 F80.00
G01 X10.7643 Y-33.0399 F80.00
G01 X10.7253 Y-33.0736 F80.00
G01 X10.6879 Y-33.1091 F80.00
G01 X10.6532 Y-33.1456 F80.00
G01 X10.6180 Y-33.1864 F80.00
G01 X10.5870 Y-33.2261 F80.00
G01 X10.5574 Y-33.2683 F80.00
G01 X10.5298 Y-33.3118 F80.00
G01 X10.5050 Y-33.3556 F80.00
G01 X10.4807 Y-33.4038 F80.00
G01 X10.4603 Y-33.4498 F80.00
G01 X10.4418 Y-33.4979 F80.00
G01 X10.4256 Y-33.5468 F80.00
G01 X10.4122 Y-33.5953 F80.00
G01 X10.4006 Y-33.6468 F80.00
G01 X10.3918 Y-33.6975 F80.00
G01 X10.3855 Y-33.7487 F80.00
G01 X10.3817 Y-33.8001 F80.00
G01 X10.3804 Y-33.8522 F80.00
G01 X10.3817 Y-33.9031 F80.00
G01 X10.3855 Y-33.9545 F80.00
G01 X10.3918 Y-34.0057 F80.00
G01 X10.4006 Y-34.0564 F80.00
G01 X10.4119 Y-34.1067 F80.00
G01 X10.4256 Y-34.1564 F80.00
G01 X10.4418 Y-34.2053 F80.00
G01 X10.4603 Y-34.2534 F80.00
G01 X10.4812 Y-34.3005 F80.00
G01 X10.5044 Y-34.3466 F80.00
G01 X10.5298 Y-34.3914 F80.00
G01 X10.5574 Y-34.4349 F80.00
G01 X10.5870 Y-34.4771 F80.00
G01 X10.6187 Y-34.5177 F80.00
G01 X10.6524 Y-34.5567 F80.00
G01 X10.6879 Y-34.5941 F80.00
G01 X10.7253 Y-34.6296 F80.00
G01 X10.7643 Y-34.6633 F80.00
G01 X10.8049 Y-34.6950 F80.00
G01 X10.8471 Y-34.7246 F80.00
G01 X10.8906 Y-34.7522 F80.00
G01 X10.9354 Y-34.7776 F80.00
G01 X10.9815 Y-34.8008 F80.00
G01 X11.0286 Y-34.8217 F80.00
G01 X11.0767 Y-34.8402 F80.00
G01 X11.1256 Y-34.8564 F80.00
G01 X11.1741 Y-34.8698 F80.00
G01 X11.2256 Y-34.8814 F80.00
G01 X11.2775 Y-34.8904 F80.00
G01 X11.3275 Y-34.8965 F80.00
G01 X11.3777 Y-34.9003 F80.00
G01 X11.4298 Y-34.9016 F80.00
G01 X13.4304 Y-34.9016 F80.00
G01 X13.4819 Y-34.9003 F80.00
G01 X13.5333 Y-34.8965 F80.00
G01 X13.5845 Y-34.8902 F80.00
G01 X13.6352 Y-34.8814 F80.00
G01 X13.6855 Y-34.8701 F80.00
G01 X13.7340 Y-34.8567 F80.00
G01 X13.7853 Y-34.8398 F80.00
G01 X13.8322 Y-34.8217 F80.00
G01 X13.8793 Y-34.8008 F80.00
G01 X13.9254 Y-34.7776 F80.00
G01 X13.9691 Y-34.7528 F80.00
G01 X14.0148 Y-34.7239 F80.00
G01 X14.0559 Y-34.6950 F80.00
G01 X14.0965 Y-34.6633 F80.00
G01 X14.1355 Y-34.6296 F80.00
G01 X14.1646 Y-34.6020 F80.00
G00 Z1.9990
G00 X10.6962 Y-37.1420
G01 F80.00
G01 Z-0.1120
G01 F80.00
G01 X10.7253 Y-37.1696 F80.00
G01 X10.7643 Y-37.2033 F80.00
G01 X10.8049 Y-37.2350 F80.00
G01 X10.8460 Y-37.2639 F80.00
G01 X10.8917 Y-37.2928 F80.00
G01 X10.9354 Y-37.3176 F80.00
G01 X10.9815 Y-37.3408 F80.00
G01 X11.0286 Y-37.3617 F80.00
G01 X11.0755 Y-37.3798 F80.00
G01 X11.1268 Y-37.3967 F80.00
G01 X11.1753 Y-37.4101 F80.00
G01 X11.2256 Y-37.4214 F80.00
G01 X11.2763 Y-37.4302 F80.00
G01 X11.3275 Y-37.4365 F80.00
G01 X11.3789 Y-37.4403 F80.00
G01 X11.4304 Y-37.4416 F80.00
G01 X13.4310 Y-37.4416 F80.00
G01 X13.4831 Y-37.4403 F80.00
G01 X13.5333 Y-37.4365 F80.00
G01 X13.5833 Y-37.4304 F80.00
G01 X13.6352 Y-37.4214 F80.00
G01 X13.6867 Y-37.4098 F80.00
G01 X13.7352 Y-37.3964 F80.00
G01 X13.7841 Y-37.3802 F80.00
G01 X13.8322 Y-37.3617 F80.00
G01 X13.8793 Y-37.3408 F80.00
G01 X13.9254 Y-37.3176 F80.00
G01 X13.9702 Y-37.2922 F80.00
G01 X14.0137 Y-37.2646 F80.00
G01 X14.0559 Y-37.2350 F80.00
G01 X14.0965 Y-37.2033 F80.00
G01 X14.1355 Y-37.1696 F80.00
G01 X14.1729 Y-37.1341 F80.00
G01 X14.2084 Y-37.0967 F80.00
G01 X14.2421 Y-37.0577 F80.00
G01 X14.2738 Y-37.0171 F80.00
G01 X14.3034 Y-36.9749 F80.00
G01 X14.3310 Y-36.9314 F80.00
G01 X14.3564 Y-36.8866 F80.00
G01 X14.3796 Y-36.8405 F80.00
G01 X14.4005 Y-36.7934 F80.00
G01 X14.4190 Y-36.7453 F80.00
G01 X14.4352 Y-36.6964 F80.00
G01 X14.4489 Y-36.6467 F80.00
G01 X14.4602 Y-36.5964 F80.00
G01 X14.4690 Y-36.5457 F80.00
G01 X14.4753 Y-36.4945 F80.00
G01 X14.4791 Y-36.4431 F80.00
G01 X14.4804 Y-36.3916 F80.00
G01 X14.4791 Y-36.3401 F80.00
G01 X14.4753 Y-36.2887 F80.00
G01 X14.4690 Y-36.2375 F80.00
G01 X14.4602 Y-36.1868 F80.00
G01 X14.4486 Y-36.1353 F80.00
G01 X14.4352 Y-36.0868 F80.00
G01 X14.4194 Y-36.0390 F80.00
G01 X14.4000 Y-35.9887 F80.00
G01 X14.3796 Y-35.9427 F80.00
G01 X14.3564 Y-35.8966 F80.00
G01 X14.3310 Y-35.8518 F80.00
G01 X14.3041 Y-35.8093 F80.00
G01 X14.2730 Y-35.7651 F80.00
G01 X14.2421 Y-35.7255 F80.00
G01 X14.2084 Y-35.6865 F80.00
G01 X14.1720 Y-35.6483 F80.00
G01 X14.1355 Y-35.6136 F80.00
G01 X14.0975 Y-35.5807 F80.00
G01 X14.0549 Y-35.5475 F80.00
G01 X14.0137 Y-35.5186 F80.00
G01 X13.9702 Y-35.4910 F80.00
G01 X13.9254 Y-35.4656 F80.00
G01 X13.8804 Y-35.4429 F80.00
G01 X13.8322 Y-35.4215 F80.00
G01 X13.7841 Y-35.4030 F80.00
G01 X13.7364 Y-35.3872 F80.00
G01 X13.6855 Y-35.3731 F80.00
G01 X13.6340 Y-35.3616 F80.00
G01 X13.5845 Y-35.3530 F80.00
G01 X13.5333 Y-35.3467 F80.00
G01 X13.4819 Y-35.3429 F80.00
G01 X13.4304 Y-35.3416 F80.00
G01 X11.4304 Y-35.3416 F80.00
G01 X11.3777 Y-35.3429 F80.00
G01 X11.3275 Y-35.3467 F80.00
G01 X11.2763 Y-35.3530 F80.00
G01 X11.2256 Y-35.3618 F80.00
G01 X11.1765 Y-35.3728 F80.00
G01 X11.1244 Y-35.3872 F80.00
G01 X11.0767 Y-35.4030 F80.00
G01 X11.0275 Y-35.4220 F80.00
G01 X10.9815 Y-35.4424 F80.00
G01 X10.9354 Y-35.4656 F80.00
G01 X10.8906 Y-35.4910 F80.00
G01 X10.8471 Y-35.5186 F80.00
G01 X10.8049 Y-35.5482 F80.00
G01 X10.7643 Y-35.5799 F80.00
G01 X10.7253 Y-35.6136 F80.00
G01 X10.6962 Y-35.6412 F80.00
G01 X9.3122 Y-35.6412 F80.00
G01 X5.8148 Y-32.1438 F80.00
G01 X5.8148 Y-6.7304 F80.00
G01 X7.6044 Y-4.9408 F80.00
G01 X12.1543 Y-9.4906 F80.00
G01 X12.1805 Y-9.5156 F80.00
G01 X12.2084 Y-9.5396 F80.00
G01 X12.2374 Y-9.5623 F80.00
G01 X12.2686 Y-9.5842 F80.00
G01 X12.2997 Y-9.6038 F80.00
G01 X12.3307 Y-9.6213 F80.00
G01 X12.3625 Y-9.6374 F80.00
G01 X12.3973 Y-9.6528 F80.00
G01 X12.4305 Y-9.6657 F80.00
G01 X12.4666 Y-9.6776 F80.00
G01 X12.5009 Y-9.6872 F80.00
G01 X12.5392 Y-9.6958 F80.00
G01 X12.5743 Y-9.7018 F80.00
G01 X12.6109 Y-9.7063 F80.00
G01 X12.6476 Y-9.7090 F80.00
G01 X12.6844 Y-9.7100 F80.00
G01 X22.7854 Y-9.7100 F80.00
G01 X22.7854 Y-9.9346 F80.00
G01 X22.7868 Y-9.9886 F80.00
G01 X22.7906 Y-10.0400 F80.00
G01 X22.7970 Y-10.0923 F80.00
G01 X22.8061 Y-10.1443 F80.00
G01 X22.8179 Y-10.1970 F80.00
G01 X22.8321 Y-10.2478 F80.00
G01 X22.8482 Y-10.2968 F80.00
G01 X22.8668 Y-10.3448 F80.00
G01 X22.8886 Y-10.3942 F80.00
G01 X22.9118 Y-10.4403 F80.00
G01 X22.9383 Y-10.4873 F80.00
G01 X22.9666 Y-10.5318 F80.00
G01 X22.9970 Y-10.5750 F80.00
G01 X23.0294 Y-10.6166 F80.00
G01 X23.0639 Y-10.6565 F80.00
G01 X23.1003 Y-10.6947 F80.00
G01 X23.1385 Y-10.7311 F80.00
G01 X23.1794 Y-10.7664 F80.00
G01 X23.2200 Y-10.7980 F80.00
G01 X23.2622 Y-10.8277 F80.00
G01 X23.3067 Y-10.8560 F80.00
G01 X23.3536 Y-10.8827 F80.00
G01 X23.4008 Y-10.9064 F80.00
G01 X23.4490 Y-10.9278 F80.00
G01 X23.4994 Y-10.9472 F80.00
G01 X23.5483 Y-10.9633 F80.00
G01 X23.5980 Y-10.9771 F80.00
G01 X23.6495 Y-10.9887 F80.00
G01 X23.7027 Y-10.9980 F80.00
G01 X23.7550 Y-11.0044 F80.00
G01 X23.8077 Y-11.0083 F80.00
G01 X23.8604 Y-11.0096 F80.00
G01 X23.9131 Y-11.0083 F80.00
G01 X23.9658 Y-11.0044 F80.00
G01 X24.0181 Y-10.9980 F80.00
G01 X24.0689 Y-10.9892 F80.00
G01 X24.1228 Y-10.9771 F80.00
G01 X24.1725 Y-10.9633 F80.00
G01 X24.2237 Y-10.9463 F80.00
G01 X24.2718 Y-10.9278 F80.00
G01 X24.3200 Y-10.9064 F80.00
G01 X24.3672 Y-10.8827 F80.00
G01 X24.4131 Y-10.8567 F80.00
G01 X24.4576 Y-10.8284 F80.00
G01 X24.5008 Y-10.7980 F80.00
G01 X24.5424 Y-10.7656 F80.00
G01 X24.5823 Y-10.7311 F80.00
G01 X24.6205 Y-10.6947 F80.00
G01 X24.6569 Y-10.6565 F80.00
G01 X24.6914 Y-10.6166 F80.00
G01 X24.7231 Y-10.5760 F80.00
G01 X24.7549 Y-10.5308 F80.00
G01 X24.7825 Y-10.4873 F80.00
G01 X24.8090 Y-10.4403 F80.00
G01 X24.8322 Y-10.3942 F80.00
G01 X24.8536 Y-10.3460 F80.00
G01 X24.8726 Y-10.2968 F80.00
G01 X24.8891 Y-10.2467 F80.00
G01 X24.9032 Y-10.1958 F80.00
G01 X24.9147 Y-10.1443 F80.00
G01 X24.9238 Y-10.0923 F80.00
G01 X24.9302 Y-10.0400 F80.00
G01 X24.9341 Y-9.9873 F80.00
G01 X24.9354 Y-9.9346 F80.00
G01 X24.9354 Y-7.9840 F80.00
G01 X24.9341 Y-7.9319 F80.00
G01 X24.9302 Y-7.8792 F80.00
G01 X24.9238 Y-7.8269 F80.00
G01 X24.9145 Y-7.7737 F80.00
G01 X24.9032 Y-7.7234 F80.00
G01 X24.8895 Y-7.6737 F80.00
G01 X24.8730 Y-7.6236 F80.00
G01 X24.8536 Y-7.5732 F80.00
G01 X24.8322 Y-7.5250 F80.00
G01 X24.8085 Y-7.4778 F80.00
G01 X24.7818 Y-7.4309 F80.00
G01 X24.7542 Y-7.3874 F80.00
G01 X24.7246 Y-7.3452 F80.00
G01 X24.6914 Y-7.3026 F80.00
G01 X24.6569 Y-7.2627 F80.00
G01 X24.6197 Y-7.2236 F80.00
G01 X24.5823 Y-7.1881 F80.00
G01 X24.5433 Y-7.1544 F80.00
G01 X24.5008 Y-7.1212 F80.00
G01 X24.4576 Y-7.0908 F80.00
G01 X24.4120 Y-7.0619 F80.00
G01 X24.3672 Y-7.0365 F80.00
G01 X24.3211 Y-7.0133 F80.00
G01 X24.2729 Y-6.9919 F80.00
G01 X24.2214 Y-6.9720 F80.00
G01 X24.1725 Y-6.9559 F80.00
G01 X24.1228 Y-6.9421 F80.00
G01 X24.0701 Y-6.9303 F80.00
G01 X24.0169 Y-6.9211 F80.00
G01 X23.9658 Y-6.9148 F80.00
G01 X23.9144 Y-6.9110 F80.00
G01 X23.8604 Y-6.9096 F80.00
G01 X23.8077 Y-6.9109 F80.00
G01 X23.7563 Y-6.9147 F80.00
G01 X23.7027 Y-6.9212 F80.00
G01 X23.6495 Y-6.9305 F80.00
G01 X23.5992 Y-6.9418 F80.00
G01 X23.5495 Y-6.9555 F80.00
G01 X23.4982 Y-6.9724 F80.00
G01 X23.4479 Y-6.9919 F80.00
G01 X23.4008 Y-7.0128 F80.00
G01 X23.3547 Y-7.0360 F80.00
G01 X23.3077 Y-7.0625 F80.00
G01 X23.2622 Y-7.0915 F80.00
G01 X23.2200 Y-7.1212 F80.00
G01 X23.1784 Y-7.1536 F80.00
G01 X23.1376 Y-7.1889 F80.00
G01 X23.1003 Y-7.2245 F80.00
G01 X23.0647 Y-7.2618 F80.00
G01 X23.0294 Y-7.3026 F80.00
G01 X22.9962 Y-7.3452 F80.00
G01 X22.9666 Y-7.3874 F80.00
G01 X22.9390 Y-7.4309 F80.00
G01 X22.9123 Y-7.4778 F80.00
G01 X22.8881 Y-7.5261 F80.00
G01 X22.8672 Y-7.5732 F80.00
G01 X22.8487 Y-7.6213 F80.00
G01 X22.8317 Y-7.6725 F80.00
G01 X22.8173 Y-7.7246 F80.00
G01 X22.8061 Y-7.7749 F80.00
G01 X22.7972 Y-7.8257 F80.00
G01 X22.7906 Y-7.8792 F80.00
G01 X22.7867 Y-7.9319 F80.00
G01 X22.7854 Y-7.9840 F80.00
G01 X22.7854 Y-8.2092 F80.00
G01 X12.9952 Y-8.2092 F80.00
G01 X9.4159 Y-4.6300 F80.00
G01 X42.8536 Y-4.6300 F80.00
G01 X46.0970 Y-7.8734 F80.00
G01 X46.0970 Y-21.6931 F80.00
G01 X46.0864 Y-21.7033 F80.00
G01 X46.0501 Y-21.7416 F80.00
G01 X46.0164 Y-21.7806 F80.00
G01 X45.9832 Y-21.8232 F80.00
G01 X45.9536 Y-21.8654 F80.00
G01 X45.9253 Y-21.9099 F80.00
G01 X45.8993 Y-21.9558 F80.00
G01 X45.8756 Y-22.0030 F80.00
G01 X45.8542 Y-22.0512 F80.00
G01 X45.8357 Y-22.0993 F80.00
G01 X45.8183 Y-22.1517 F80.00
G01 X45.8046 Y-22.2014 F80.00
G01 X45.7931 Y-22.2529 F80.00
G01 X45.7840 Y-22.3049 F80.00
G01 X45.7777 Y-22.3560 F80.00
G01 X45.7737 Y-22.4099 F80.00
G01 X45.7724 Y-22.4626 F80.00
G01 X45.7724 Y-24.4126 F80.00
G01 X45.7737 Y-24.4653 F80.00
G01 X45.7776 Y-24.5180 F80.00
G01 X45.7840 Y-24.5703 F80.00
G01 X45.7931 Y-24.6223 F80.00
G01 X45.8046 Y-24.6738 F80.00
G01 X45.8187 Y-24.7247 F80.00
G01 X45.8352 Y-24.7748 F80.00
G01 X45.8542 Y-24.8240 F80.00
G01 X45.8751 Y-24.8711 F80.00
G01 X45.8993 Y-24.9194 F80.00
G01 X45.9247 Y-24.9642 F80.00
G01 X45.9543 Y-25.0108 F80.00
G01 X45.9840 Y-25.0530 F80.00
G01 X46.0164 Y-25.0946 F80.00
G01 X46.0509 Y-25.1345 F80.00
G01 X46.0873 Y-25.1727 F80.00
G01 X46.1255 Y-25.2091 F80.00
G01 X46.1654 Y-25.2436 F80.00
G01 X46.2070 Y-25.2760 F80.00
G01 X46.2502 Y-25.3064 F80.00
G01 X46.2947 Y-25.3347 F80.00
G01 X46.3406 Y-25.3607 F80.00
G01 X46.3878 Y-25.3844 F80.00
G01 X46.4349 Y-25.4053 F80.00
G01 X46.4864 Y-25.4252 F80.00
G01 X46.5353 Y-25.4413 F80.00
G01 X46.5874 Y-25.4557 F80.00
G01 X46.6377 Y-25.4669 F80.00
G01 X46.6897 Y-25.4760 F80.00
G01 X46.7420 Y-25.4824 F80.00
G01 X46.7959 Y-25.4864 F80.00
G01 X46.8474 Y-25.4876 F80.00
G01 X46.9001 Y-25.4863 F80.00
G01 X46.9528 Y-25.4824 F80.00
G01 X47.0051 Y-25.4760 F80.00
G01 X47.0571 Y-25.4669 F80.00
G01 X47.1086 Y-25.4554 F80.00
G01 X47.1595 Y-25.4413 F80.00
G01 X47.2096 Y-25.4248 F80.00
G01 X47.2588 Y-25.4058 F80.00
G01 X47.3070 Y-25.3844 F80.00
G01 X47.3542 Y-25.3607 F80.00
G01 X47.4001 Y-25.3347 F80.00
G01 X47.4446 Y-25.3064 F80.00
G01 X47.4878 Y-25.2760 F80.00
G01 X47.5294 Y-25.2436 F80.00
G01 X47.5693 Y-25.2091 F80.00
G01 X47.6075 Y-25.1727 F80.00
G01 X47.6439 Y-25.1345 F80.00
G01 X47.6784 Y-25.0946 F80.00
G01 X47.7108 Y-25.0530 F80.00
G01 X47.7412 Y-25.0098 F80.00
G01 X47.7695 Y-24.9653 F80.00
G01 X47.7955 Y-24.9194 F80.00
G01 X47.8192 Y-24.8722 F80.00
G01 X47.8406 Y-24.8240 F80.00
G01 X47.8596 Y-24.7748 F80.00
G01 X47.8761 Y-24.7247 F80.00
G01 X47.8902 Y-24.6738 F80.00
G01 X47.9017 Y-24.6223 F80.00
G01 X47.9108 Y-24.5703 F80.00
G01 X47.9172 Y-24.5180 F80.00
G01 X47.9212 Y-24.4641 F80.00
G01 X47.9224 Y-24.4126 F80.00
G01 X47.9224 Y-22.4626 F80.00
G01 X47.9211 Y-22.4099 F80.00
G01 X47.9171 Y-22.3560 F80.00
G01 X47.9108 Y-22.3049 F80.00
G01 X47.9017 Y-22.2529 F80.00
G01 X47.8902 Y-22.2014 F80.00
G01 X47.8765 Y-22.1517 F80.00
G01 X47.8591 Y-22.0993 F80.00
G01 X47.8406 Y-22.0512 F80.00
G01 X47.8192 Y-22.0030 F80.00
G01 X47.7955 Y-21.9558 F80.00
G01 X47.7695 Y-21.9099 F80.00
G01 X47.7412 Y-21.8654 F80.00
G01 X47.7116 Y-21.8232 F80.00
G01 X47.6784 Y-21.7806 F80.00
G01 X47.6447 Y-21.7416 F80.00
G01 X47.6084 Y-21.7033 F80.00
G01 X47.5978 Y-21.6931 F80.00
G01 X47.5977 Y-7.5620 F80.00
G01 X47.5968 Y-7.5258 F80.00
G01 X47.5941 Y-7.4891 F80.00
G01 X47.5896 Y-7.4525 F80.00
G01 X47.5836 Y-7.4174 F80.00
G01 X47.5753 Y-7.3803 F80.00
G01 X47.5658 Y-7.3460 F80.00
G01 X47.5535 Y-7.3087 F80.00
G01 X47.5406 Y-7.2755 F80.00
G01 X47.5257 Y-7.2418 F80.00
G01 X47.5091 Y-7.2089 F80.00
G01 X47.4910 Y-7.1768 F80.00
G01 X47.4713 Y-7.1457 F80.00
G01 X47.4501 Y-7.1156 F80.00
G01 X47.4274 Y-7.0866 F80.00
G01 X47.4042 Y-7.0596 F80.00
G01 X47.3780 Y-7.0320 F80.00
G01 X43.6950 Y-3.3490 F80.00
G01 X43.6683 Y-3.3236 F80.00
G01 X43.6404 Y-3.2996 F80.00
G01 X43.6114 Y-3.2769 F80.00
G01 X43.5813 Y-3.2557 F80.00
G01 X43.5512 Y-3.2366 F80.00
G01 X43.5181 Y-3.2179 F80.00
G01 X43.4863 Y-3.2018 F80.00
G01 X43.4504 Y-3.1859 F80.00
G01 X43.4172 Y-3.1731 F80.00
G01 X43.3822 Y-3.1616 F80.00
G01 X43.3467 Y-3.1517 F80.00
G01 X43.3108 Y-3.1437 F80.00
G01 X43.2745 Y-3.1374 F80.00
G01 X43.2379 Y-3.1329 F80.00
G01 X43.2012 Y-3.1302 F80.00
G01 X43.1650 Y-3.1293 F80.00
G01 X7.6044 Y-3.1292 F80.00
G01 X7.5676 Y-3.1302 F80.00
G01 X7.5321 Y-3.1328 F80.00
G01 X7.4931 Y-3.1376 F80.00
G01 X7.4580 Y-3.1437 F80.00
G01 X7.4221 Y-3.1517 F80.00
G01 X7.3866 Y-3.1616 F80.00
G01 X7.3528 Y-3.1727 F80.00
G01 X7.3161 Y-3.1869 F80.00
G01 X7.2836 Y-3.2013 F80.00
G01 X7.2507 Y-3.2179 F80.00
G01 X7.2186 Y-3.2360 F80.00
G01 X7.1886 Y-3.2550 F80.00
G01 X7.1564 Y-3.2777 F80.00
G01 X7.1284 Y-3.2996 F80.00
G01 X7.1005 Y-3.3236 F80.00
G01 X7.0738 Y-3.3490 F80.00
G01 X4.5338 Y-5.8890 F80.00
G01 X4.5084 Y-5.9157 F80.00
G01 X4.4844 Y-5.9436 F80.00
G01 X4.4617 Y-5.9726 F80.00
G01 X4.4412 Y-6.0017 F80.00
G01 X4.4202 Y-6.0349 F80.00
G01 X4.4027 Y-6.0659 F80.00
G01 X4.3861 Y-6.0988 F80.00
G01 X4.3712 Y-6.1325 F80.00
G01 X4.3579 Y-6.1668 F80.00
G01 X4.3464 Y-6.2018 F80.00
G01 X4.3368 Y-6.2361 F80.00
G01 X4.3282 Y-6.2744 F80.00
G01 X4.3222 Y-6.3095 F80.00
G01 X4.3176 Y-6.3473 F80.00
G01 X4.3150 Y-6.3828 F80.00
G01 X4.3140 Y-6.4196 F80.00
G01 X4.3140 Y-52.7746 F80.00
G01 X4.3150 Y-52.8126 F80.00
G01 X4.3177 Y-52.8481 F80.00
G01 X4.3220 Y-52.8835 F80.00
G01 X4.3285 Y-52.9210 F80.00
G01 X4.3365 Y-52.9569 F80.00
G01 X4.3467 Y-52.9936 F80.00
G01 X4.3579 Y-53.0274 F80.00
G01 X4.3707 Y-53.0606 F80.00
G01 X4.3861 Y-53.0954 F80.00
G01 X4.4032 Y-53.1294 F80.00
G01 X4.4208 Y-53.1604 F80.00
G01 X4.4398 Y-53.1904 F80.00
G01 X4.4617 Y-53.2216 F80.00
G01 X4.4852 Y-53.2516 F80.00
G01 X4.5084 Y-53.2785 F80.00
G01 X4.5338 Y-53.3052 F80.00
G01 X24.2188 Y-72.9902 F80.00
G01 X24.2455 Y-73.0156 F80.00
G01 X24.2724 Y-73.0388 F80.00
G01 X24.3024 Y-73.0623 F80.00
G01 X24.3325 Y-73.0835 F80.00
G01 X24.3626 Y-73.1026 F80.00
G01 X24.3957 Y-73.1213 F80.00
G01 X24.4286 Y-73.1379 F80.00
G01 X24.4634 Y-73.1533 F80.00
G01 X24.4966 Y-73.1661 F80.00
G01 X24.5304 Y-73.1773 F80.00
G01 X24.5671 Y-73.1875 F80.00
G01 X24.6030 Y-73.1955 F80.00
G01 X24.6405 Y-73.2020 F80.00
G01 X24.6759 Y-73.2063 F80.00
G01 X24.7114 Y-73.2090 F80.00
G01 X24.7494 Y-73.2100 F80.00
G01 X41.4844 Y-73.2100 F80.00
G01 X41.5212 Y-73.2090 F80.00
G01 X41.5579 Y-73.2063 F80.00
G01 X41.5945 Y-73.2018 F80.00
G01 X41.6296 Y-73.1958 F80.00
G01 X41.6679 Y-73.1872 F80.00
G01 X41.7022 Y-73.1776 F80.00
G01 X41.7383 Y-73.1657 F80.00
G01 X41.7715 Y-73.1528 F80.00
G01 X41.8052 Y-73.1379 F80.00
G01 X41.8381 Y-73.1213 F80.00
G01 X41.8702 Y-73.1032 F80.00
G01 X41.9013 Y-73.0835 F80.00
G01 X41.9314 Y-73.0623 F80.00
G01 X41.9604 Y-73.0396 F80.00
G01 X41.9874 Y-73.0164 F80.00
G01 X42.0150 Y-72.9902 F80.00
G01 X46.2354 Y-68.7697 F80.00
G01 X46.2604 Y-68.7435 F80.00
G01 X46.2844 Y-68.7156 F80.00
G01 X46.3071 Y-68.6866 F80.00
G01 X46.3283 Y-68.6565 F80.00
G01 X46.3480 Y-68.6254 F80.00
G01 X46.3661 Y-68.5933 F80.00
G01 X46.3827 Y-68.5604 F80.00
G01 X46.3976 Y-68.5267 F80.00
G01 X46.4109 Y-68.4924 F80.00
G01 X46.4224 Y-68.4574 F80.00
G01 X46.4323 Y-68.4219 F80.00
G01 X46.4401 Y-68.3872 F80.00
G01 X46.4468 Y-68.3485 F80.00
G01 X46.4511 Y-68.3131 F80.00
G01 X46.4539 Y-68.2752 F80.00
G01 X46.4548 Y-68.2396 F80.00
G01 X46.4548 Y-66.5841 F80.00
G01 X46.4654 Y-66.5739 F80.00
G01 X46.5017 Y-66.5356 F80.00
G01 X46.5354 Y-66.4966 F80.00
G01 X46.5686 Y-66.4540 F80.00
G01 X46.5982 Y-66.4118 F80.00
G01 X46.6265 Y-66.3673 F80.00
G01 X46.6525 Y-66.3214 F80.00
G01 X46.6762 Y-66.2742 F80.00
G01 X46.6976 Y-66.2260 F80.00
G01 X46.7166 Y-66.1768 F80.00
G01 X46.7331 Y-66.1267 F80.00
G01 X46.7469 Y-66.0770 F80.00
G01 X46.7590 Y-66.0231 F80.00
G01 X46.7678 Y-65.9723 F80.00
G01 X46.7743 Y-65.9187 F80.00
G01 X46.7781 Y-65.8673 F80.00
G01 X46.7794 Y-65.8146 F80.00
G01 X46.7794 Y-63.8646 F80.00
G01 X46.7782 Y-63.8131 F80.00
G01 X46.7742 Y-63.7592 F80.00
G01 X46.7676 Y-63.7057 F80.00
G01 X46.7587 Y-63.6549 F80.00
G01 X46.7475 Y-63.6046 F80.00
G01 X46.7331 Y-63.5525 F80.00
G01 X46.7166 Y-63.5024 F80.00
G01 X46.6971 Y-63.4521 F80.00
G01 X46.6762 Y-63.4050 F80.00
G01 X46.6530 Y-63.3589 F80.00
G01 X46.6265 Y-63.3119 F80.00
G01 X46.5975 Y-63.2664 F80.00
G01 X46.5678 Y-63.2242 F80.00
G01 X46.5362 Y-63.1836 F80.00
G01 X46.5009 Y-63.1427 F80.00
G01 X46.4645 Y-63.1045 F80.00
G01 X46.4254 Y-63.0673 F80.00
G01 X46.3864 Y-63.0336 F80.00
G01 X46.3458 Y-63.0019 F80.00
G01 X46.3016 Y-62.9708 F80.00
G01 X46.2560 Y-62.9419 F80.00
G01 X46.2112 Y-62.9165 F80.00
G01 X46.1651 Y-62.8933 F80.00
G01 X46.1169 Y-62.8719 F80.00
G01 X46.0666 Y-62.8524 F80.00
G01 X46.0165 Y-62.8359 F80.00
G01 X45.9656 Y-62.8218 F80.00
G01 X45.9129 Y-62.8100 F80.00
G01 X45.8609 Y-62.8011 F80.00
G01 X45.8098 Y-62.7948 F80.00
G01 X45.7584 Y-62.7910 F80.00
G01 X45.7044 Y-62.7896 F80.00
G01 X45.6517 Y-62.7909 F80.00
G01 X45.5990 Y-62.7948 F80.00
G01 X45.5455 Y-62.8014 F80.00
G01 X45.4935 Y-62.8105 F80.00
G01 X45.4432 Y-62.8218 F80.00
G01 X45.3935 Y-62.8355 F80.00
G01 X45.3422 Y-62.8524 F80.00
G01 X45.2930 Y-62.8714 F80.00
G01 X45.2448 Y-62.8928 F80.00
G01 X45.1966 Y-62.9171 F80.00
G01 X45.1507 Y-62.9432 F80.00
G01 X45.1072 Y-62.9708 F80.00
G01 X45.0650 Y-63.0004 F80.00
G01 X45.0224 Y-63.0336 F80.00
G01 X44.9825 Y-63.0681 F80.00
G01 X44.9443 Y-63.1045 F80.00
G01 X44.9071 Y-63.1436 F80.00
G01 X44.8726 Y-63.1836 F80.00
G01 X44.8410 Y-63.2242 F80.00
G01 X44.8113 Y-63.2664 F80.00
G01 X44.7823 Y-63.3119 F80.00
G01 X44.7563 Y-63.3578 F80.00
G01 X44.7326 Y-63.4050 F80.00
G01 X44.7108 Y-63.4544 F80.00
G01 X44.6922 Y-63.5024 F80.00
G01 X44.6761 Y-63.5514 F80.00
G01 X44.6616 Y-63.6034 F80.00
G01 X44.6501 Y-63.6549 F80.00
G01 X44.6409 Y-63.7081 F80.00
G01 X44.6346 Y-63.7592 F80.00
G01 X44.6308 Y-63.8106 F80.00
G01 X44.6294 Y-63.8640 F80.00
G01 X44.6294 Y-65.8146 F80.00
G01 X44.6308 Y-65.8686 F80.00
G01 X44.6346 Y-65.9200 F80.00
G01 X44.6410 Y-65.9723 F80.00
G01 X44.6501 Y-66.0243 F80.00
G01 X44.6616 Y-66.0758 F80.00
G01 X44.6757 Y-66.1267 F80.00
G01 X44.6922 Y-66.1768 F80.00
G01 X44.7112 Y-66.2260 F80.00
G01 X44.7321 Y-66.2731 F80.00
G01 X44.7563 Y-66.3214 F80.00
G01 X44.7823 Y-66.3673 F80.00
G01 X44.8106 Y-66.4118 F80.00
G01 X44.8402 Y-66.4540 F80.00
G01 X44.8734 Y-66.4966 F80.00
G01 X44.9071 Y-66.5356 F80.00
G01 X44.9434 Y-66.5739 F80.00
G01 X44.9540 Y-66.5841 F80.00
G01 X44.9540 Y-67.9288 F80.00
G01 X41.1736 Y-71.7092 F80.00
G01 X25.0602 Y-71.7092 F80.00
G01 X5.8148 Y-52.4638 F80.00
G01 X5.8148 Y-34.2661 F80.00
G01 X8.4708 Y-36.9222 F80.00
G01 X8.4975 Y-36.9476 F80.00
G01 X8.5263 Y-36.9724 F80.00
G01 X8.5544 Y-36.9943 F80.00
G01 X8.5835 Y-37.0148 F80.00
G01 X8.6156 Y-37.0352 F80.00
G01 X8.6488 Y-37.0539 F80.00
G01 X8.6806 Y-37.0699 F80.00
G01 X8.7131 Y-37.0843 F80.00
G01 X8.7486 Y-37.0981 F80.00
G01 X8.7836 Y-37.1096 F80.00
G01 X8.8191 Y-37.1195 F80.00
G01 X8.8562 Y-37.1278 F80.00
G01 X8.8913 Y-37.1338 F80.00
G01 X8.9266 Y-37.1382 F80.00
G01 X8.9646 Y-37.1410 F80.00
G01 X9.0014 Y-37.1420 F80.00
G01 X10.6962 Y-37.1420 F80.00
G00 Z1.9990
G00 X14.1646 Y-39.6820
G01 F80.00
G01 Z-0.1120
G01 F80.00
G01 X19.5106 Y-39.6820 F80.00
G01 X25.7770 Y-45.9484 F80.00
G01 X25.7770 Y-47.0931 F80.00
G01 X25.7664 Y-47.1033 F80.00
G01 X25.7301 Y-47.1416 F80.00
G01 X25.6964 Y-47.1806 F80.00
G01 X25.6632 Y-47.2232 F80.00
G01 X25.6336 Y-47.2654 F80.00
G01 X25.6053 Y-47.3099 F80.00
G01 X25.5793 Y-47.3558 F80.00
G01 X25.5551 Y-47.4041 F80.00
G01 X25.5342 Y-47.4512 F80.00
G01 X25.5152 Y-47.5004 F80.00
G01 X25.4987 Y-47.5505 F80.00
G01 X25.4846 Y-47.6014 F80.00
G01 X25.4731 Y-47.6529 F80.00
G01 X25.4640 Y-47.7049 F80.00
G01 X25.4576 Y-47.7572 F80.00
G01 X25.4538 Y-47.8086 F80.00
G01 X25.4524 Y-47.8626 F80.00
G01 X25.4524 Y-49.8126 F80.00
G01 X25.4536 Y-49.8641 F80.00
G01 X25.4577 Y-49.9192 F80.00
G01 X25.4640 Y-49.9703 F80.00
G01 X25.4731 Y-50.0223 F80.00
G01 X25.4846 Y-50.0738 F80.00
G01 X25.4983 Y-50.1235 F80.00
G01 X25.5152 Y-50.1748 F80.00
G01 X25.5342 Y-50.2240 F80.00
G01 X25.5551 Y-50.2711 F80.00
G01 X25.5793 Y-50.3194 F80.00
G01 X25.6060 Y-50.3663 F80.00
G01 X25.6336 Y-50.4098 F80.00
G01 X25.6632 Y-50.4520 F80.00
G01 X25.6964 Y-50.4946 F80.00
G01 X25.7317 Y-50.5354 F80.00
G01 X25.7673 Y-50.5727 F80.00
G01 X25.8046 Y-50.6083 F80.00
G01 X25.8454 Y-50.6436 F80.00
G01 X25.8880 Y-50.6768 F80.00
G01 X25.9302 Y-50.7064 F80.00
G01 X25.9737 Y-50.7340 F80.00
G01 X26.0206 Y-50.7607 F80.00
G01 X26.0689 Y-50.7849 F80.00
G01 X26.1160 Y-50.8058 F80.00
G01 X26.1641 Y-50.8243 F80.00
G01 X26.2153 Y-50.8413 F80.00
G01 X26.2674 Y-50.8557 F80.00
G01 X26.3177 Y-50.8669 F80.00
G01 X26.3685 Y-50.8758 F80.00
G01 X26.4220 Y-50.8824 F80.00
G01 X26.4759 Y-50.8864 F80.00
G01 X26.5274 Y-50.8876 F80.00
G01 X26.5789 Y-50.8864 F80.00
G01 X26.6328 Y-50.8824 F80.00
G01 X26.6863 Y-50.8758 F80.00
G01 X26.7371 Y-50.8669 F80.00
G01 X26.7874 Y-50.8557 F80.00
G01 X26.8395 Y-50.8413 F80.00
G01 X26.8907 Y-50.8243 F80.00
G01 X26.9388 Y-50.8058 F80.00
G01 X26.9859 Y-50.7849 F80.00
G01 X27.0342 Y-50.7607 F80.00
G01 X27.0811 Y-50.7340 F80.00
G01 X27.1246 Y-50.7064 F80.00
G01 X27.1668 Y-50.6768 F80.00
G01 X27.2094 Y-50.6436 F80.00
G01 X27.2502 Y-50.6083 F80.00
G01 X27.2875 Y-50.5727 F80.00
G01 X27.3231 Y-50.5354 F80.00
G01 X27.3584 Y-50.4946 F80.00
G01 X27.3908 Y-50.4530 F80.00
G01 X27.4205 Y-50.4108 F80.00
G01 X27.4495 Y-50.3653 F80.00
G01 X27.4755 Y-50.3194 F80.00
G01 X27.4987 Y-50.2733 F80.00
G01 X27.5206 Y-50.2240 F80.00
G01 X27.5396 Y-50.1748 F80.00
G01 X27.5557 Y-50.1258 F80.00
G01 X27.5702 Y-50.0738 F80.00
G01 X27.5820 Y-50.0211 F80.00
G01 X27.5908 Y-49.9703 F80.00
G01 X27.5972 Y-49.9180 F80.00
G01 X27.6011 Y-49.8653 F80.00
G01 X27.6024 Y-49.8126 F80.00
G01 X27.6024 Y-47.8626 F80.00
G01 X27.6012 Y-47.8111 F80.00
G01 X27.5972 Y-47.7572 F80.00
G01 X27.5908 Y-47.7049 F80.00
G01 X27.5817 Y-47.6529 F80.00
G01 X27.5702 Y-47.6014 F80.00
G01 X27.5561 Y-47.5505 F80.00
G01 X27.5396 Y-47.5004 F80.00
G01 X27.5206 Y-47.4512 F80.00
G01 X27.4997 Y-47.4041 F80.00
G01 X27.4755 Y-47.3558 F80.00
G01 X27.4495 Y-47.3099 F80.00
G01 X27.4212 Y-47.2654 F80.00
G01 X27.3916 Y-47.2232 F80.00
G01 X27.3584 Y-47.1806 F80.00
G01 X27.3247 Y-47.1416 F80.00
G01 X27.2884 Y-47.1033 F80.00
G01 X27.2778 Y-47.0931 F80.00
G01 X27.2778 Y-45.6376 F80.00
G01 X27.2768 Y-45.6008 F80.00
G01 X27.2740 Y-45.5628 F80.00
G01 X27.2696 Y-45.5275 F80.00
G01 X27.2636 Y-45.4924 F80.00
G01 X27.2553 Y-45.4553 F80.00
G01 X27.2454 Y-45.4198 F80.00
G01 X27.2339 Y-45.3848 F80.00
G01 X27.2201 Y-45.3493 F80.00
G01 X27.2052 Y-45.3157 F80.00
G01 X27.1891 Y-45.2839 F80.00
G01 X27.1716 Y-45.2529 F80.00
G01 X27.1513 Y-45.2207 F80.00
G01 X27.1293 Y-45.1896 F80.00
G01 X27.1074 Y-45.1616 F80.00
G01 X27.0842 Y-45.1346 F80.00
G01 X27.0580 Y-45.1070 F80.00
G01 X20.3520 Y-38.4010 F80.00
G01 X20.3253 Y-38.3756 F80.00
G01 X20.2974 Y-38.3516 F80.00
G01 X20.2684 Y-38.3289 F80.00
G01 X20.2393 Y-38.3084 F80.00
G01 X20.2061 Y-38.2874 F80.00
G01 X20.1751 Y-38.2699 F80.00
G01 X20.1422 Y-38.2533 F80.00
G01 X20.1085 Y-38.2384 F80.00
G01 X20.0753 Y-38.2255 F80.00
G01 X20.0380 Y-38.2132 F80.00
G01 X20.0037 Y-38.2037 F80.00
G01 X19.9678 Y-38.1957 F80.00
G01 X19.9315 Y-38.1894 F80.00
G01 X19.8962 Y-38.1850 F80.00
G01 X19.8570 Y-38.1821 F80.00
G01 X19.8214 Y-38.1812 F80.00
G01 X14.1646 Y-38.1812 F80.00
G01 X14.1355 Y-38.1536 F80.00
G01 X14.0965 Y-38.1199 F80.00
G01 X14.0559 Y-38.0882 F80.00
G01 X14.0148 Y-38.0593 F80.00
G01 X13.9691 Y-38.0304 F80.00
G01 X13.9254 Y-38.0056 F80.00
G01 X13.8793 Y-37.9824 F80.00
G01 X13.8322 Y-37.9615 F80.00
G01 X13.7853 Y-37.9434 F80.00
G01 X13.7340 Y-37.9265 F80.00
G01 X13.6855 Y-37.9131 F80.00
G01 X13.6352 Y-37.9018 F80.00
G01 X13.5845 Y-37.8930 F80.00
G01 X13.5333 Y-37.8867 F80.00
G01 X13.4819 Y-37.8829 F80.00
G01 X13.4304 Y-37.8816 F80.00
G01 X11.4304 Y-37.8816 F80.00
G01 X11.3801 Y-37.8828 F80.00
G01 X11.3263 Y-37.8868 F80.00
G01 X11.2763 Y-37.8930 F80.00
G01 X11.2256 Y-37.9018 F80.00
G01 X11.1753 Y-37.9131 F80.00
G01 X11.1268 Y-37.9265 F80.00
G01 X11.0755 Y-37.9434 F80.00
G01 X11.0286 Y-37.9615 F80.00
G01 X10.9815 Y-37.9824 F80.00
G01 X10.9354 Y-38.0056 F80.00
G01 X10.8917 Y-38.0304 F80.00
G01 X10.8460 Y-38.0593 F80.00
G01 X10.8049 Y-38.0882 F80.00
G01 X10.7643 Y-38.1199 F80.00
G01 X10.7253 Y-38.1536 F80.00
G01 X10.6888 Y-38.1883 F80.00
G01 X10.6524 Y-38.2265 F80.00
G01 X10.6187 Y-38.2655 F80.00
G01 X10.5878 Y-38.3051 F80.00
G01 X10.5567 Y-38.3493 F80.00
G01 X10.5298 Y-38.3918 F80.00
G01 X10.5050 Y-38.4356 F80.00
G01 X10.4807 Y-38.4838 F80.00
G01 X10.4603 Y-38.5298 F80.00
G01 X10.4418 Y-38.5779 F80.00
G01 X10.4256 Y-38.6268 F80.00
G01 X10.4122 Y-38.6753 F80.00
G01 X10.4006 Y-38.7268 F80.00
G01 X10.3918 Y-38.7775 F80.00
G01 X10.3855 Y-38.8287 F80.00
G01 X10.3817 Y-38.8801 F80.00
G01 X10.3804 Y-38.9322 F80.00
G01 X10.3817 Y-38.9831 F80.00
G01 X10.3855 Y-39.0345 F80.00
G01 X10.3918 Y-39.0857 F80.00
G01 X10.4006 Y-39.1364 F80.00
G01 X10.4119 Y-39.1867 F80.00
G01 X10.4256 Y-39.2364 F80.00
G01 X10.4418 Y-39.2853 F80.00
G01 X10.4603 Y-39.3334 F80.00
G01 X10.4812 Y-39.3805 F80.00
G01 X10.5044 Y-39.4266 F80.00
G01 X10.5298 Y-39.4714 F80.00
G01 X10.5574 Y-39.5149 F80.00
G01 X10.5870 Y-39.5571 F80.00
G01 X10.6187 Y-39.5977 F80.00
G01 X10.6524 Y-39.6367 F80.00
G01 X10.6879 Y-39.6741 F80.00
G01 X10.7253 Y-39.7096 F80.00
G01 X10.7643 Y-39.7433 F80.00
G01 X10.8049 Y-39.7750 F80.00
G01 X10.8471 Y-39.8046 F80.00
G01 X10.8906 Y-39.8322 F80.00
G01 X10.9354 Y-39.8576 F80.00
G01 X10.9815 Y-39.8808 F80.00
G01 X11.0286 Y-39.9017 F80.00
G01 X11.0767 Y-39.9202 F80.00
G01 X11.1256 Y-39.9364 F80.00
G01 X11.1741 Y-39.9498 F80.00
G01 X11.2256 Y-39.9614 F80.00
G01 X11.2775 Y-39.9704 F80.00
G01 X11.3275 Y-39.9765 F80.00
G01 X11.3777 Y-39.9803 F80.00
G01 X11.4298 Y-39.9816 F80.00
G01 X13.4304 Y-39.9816 F80.00
G01 X13.4819 Y-39.9803 F80.00
G01 X13.5333 Y-39.9765 F80.00
G01 X13.5845 Y-39.9702 F80.00
G01 X13.6352 Y-39.9614 F80.00
G01 X13.6855 Y-39.9501 F80.00
G01 X13.7340 Y-39.9367 F80.00
G01 X13.7853 Y-39.9198 F80.00
G01 X13.8322 Y-39.9017 F80.00
G01 X13.8793 Y-39.8808 F80.00
G01 X13.9254 Y-39.8576 F80.00
G01 X13.9691 Y-39.8328 F80.00
G01 X14.0148 Y-39.8039 F80.00
G01 X14.0559 Y-39.7750 F80.00
G01 X14.0965 Y-39.7433 F80.00
G01 X14.1355 Y-39.7096 F80.00
G01 X14.1646 Y-39.6820 F80.00
G00 Z1.9990
G00 X30.1220 Y-47.6541
G01 F80.00
G01 Z-0.1120
G01 F80.00
G01 X30.1099 Y-47.6002 F80.00
G01 X30.0961 Y-47.5505 F80.00
G01 X30.0796 Y-47.5004 F80.00
G01 X30.0606 Y-47.4512 F80.00
G01 X30.0397 Y-47.4041 F80.00
G01 X30.0155 Y-47.3558 F80.00
G01 X29.9888 Y-47.3089 F80.00
G01 X29.9612 Y-47.2654 F80.00
G01 X29.9308 Y-47.2222 F80.00
G01 X29.8984 Y-47.1806 F80.00
G01 X29.8647 Y-47.1416 F80.00
G01 X29.8267 Y-47.1016 F80.00
G01 X29.7893 Y-47.0661 F80.00
G01 X29.7503 Y-47.0324 F80.00
G01 X29.7068 Y-46.9984 F80.00
G01 X29.6646 Y-46.9688 F80.00
G01 X29.6201 Y-46.9405 F80.00
G01 X29.5742 Y-46.9145 F80.00
G01 X29.5281 Y-46.8913 F80.00
G01 X29.4776 Y-46.8690 F80.00
G01 X29.4296 Y-46.8504 F80.00
G01 X29.3795 Y-46.8339 F80.00
G01 X29.3286 Y-46.8198 F80.00
G01 X29.2783 Y-46.8085 F80.00
G01 X29.2239 Y-46.7991 F80.00
G01 X29.1728 Y-46.7928 F80.00
G01 X29.1214 Y-46.7890 F80.00
G01 X29.0662 Y-46.7876 F80.00
G01 X29.0147 Y-46.7889 F80.00
G01 X28.9620 Y-46.7928 F80.00
G01 X28.9097 Y-46.7992 F80.00
G01 X28.8589 Y-46.8080 F80.00
G01 X28.8050 Y-46.8201 F80.00
G01 X28.7553 Y-46.8339 F80.00
G01 X28.7052 Y-46.8504 F80.00
G01 X28.6560 Y-46.8694 F80.00
G01 X28.6089 Y-46.8903 F80.00
G01 X28.5606 Y-46.9145 F80.00
G01 X28.5137 Y-46.9412 F80.00
G01 X28.4702 Y-46.9688 F80.00
G01 X28.4270 Y-46.9992 F80.00
G01 X28.3854 Y-47.0316 F80.00
G01 X28.3464 Y-47.0653 F80.00
G01 X28.3064 Y-47.1033 F80.00
G01 X28.2709 Y-47.1407 F80.00
G01 X28.2364 Y-47.1806 F80.00
G01 X28.2040 Y-47.2222 F80.00
G01 X28.1743 Y-47.2644 F80.00
G01 X28.1447 Y-47.3110 F80.00
G01 X28.1193 Y-47.3558 F80.00
G01 X28.0956 Y-47.4030 F80.00
G01 X28.0742 Y-47.4512 F80.00
G01 X28.0552 Y-47.5004 F80.00
G01 X28.0387 Y-47.5505 F80.00
G01 X28.0246 Y-47.6014 F80.00
G01 X28.0131 Y-47.6529 F80.00
G01 X28.0040 Y-47.7049 F80.00
G01 X27.9976 Y-47.7572 F80.00
G01 X27.9936 Y-47.8111 F80.00
G01 X27.9924 Y-47.8626 F80.00
G01 X27.9924 Y-49.8126 F80.00
G01 X27.9937 Y-49.8653 F80.00
G01 X27.9975 Y-49.9167 F80.00
G01 X28.0040 Y-49.9703 F80.00
G01 X28.0131 Y-50.0223 F80.00
G01 X28.0249 Y-50.0750 F80.00
G01 X28.0387 Y-50.1247 F80.00
G01 X28.0548 Y-50.1736 F80.00
G01 X28.0742 Y-50.2240 F80.00
G01 X28.0956 Y-50.2722 F80.00
G01 X28.1199 Y-50.3204 F80.00
G01 X28.1453 Y-50.3653 F80.00
G01 X28.1729 Y-50.4088 F80.00
G01 X28.2040 Y-50.4530 F80.00
G01 X28.2372 Y-50.4955 F80.00
G01 X28.2709 Y-50.5345 F80.00
G01 X28.3064 Y-50.5719 F80.00
G01 X28.3455 Y-50.6091 F80.00
G01 X28.3854 Y-50.6436 F80.00
G01 X28.4280 Y-50.6768 F80.00
G01 X28.4702 Y-50.7064 F80.00
G01 X28.5137 Y-50.7340 F80.00
G01 X28.5606 Y-50.7607 F80.00
G01 X28.6078 Y-50.7844 F80.00
G01 X28.6560 Y-50.8058 F80.00
G01 X28.7052 Y-50.8248 F80.00
G01 X28.7553 Y-50.8413 F80.00
G01 X28.8062 Y-50.8554 F80.00
G01 X28.8577 Y-50.8669 F80.00
G01 X28.9097 Y-50.8760 F80.00
G01 X28.9620 Y-50.8824 F80.00
G01 X29.0147 Y-50.8863 F80.00
G01 X29.0674 Y-50.8876 F80.00
G01 X29.1201 Y-50.8863 F80.00
G01 X29.1728 Y-50.8824 F80.00
G01 X29.2251 Y-50.8760 F80.00
G01 X29.2771 Y-50.8669 F80.00
G01 X29.3286 Y-50.8554 F80.00
G01 X29.3795 Y-50.8413 F80.00
G01 X29.4296 Y-50.8248 F80.00
G01 X29.4788 Y-50.8058 F80.00
G01 X29.5270 Y-50.7844 F80.00
G01 X29.5742 Y-50.7607 F80.00
G01 X29.6201 Y-50.7347 F80.00
G01 X29.6646 Y-50.7064 F80.00
G01 X29.7078 Y-50.6760 F80.00
G01 X29.7494 Y-50.6436 F80.00
G01 X29.7893 Y-50.6091 F80.00
G01 X29.8275 Y-50.5727 F80.00
G01 X29.8639 Y-50.5345 F80.00
G01 X29.8984 Y-50.4946 F80.00
G01 X29.9308 Y-50.4530 F80.00
G01 X29.9612 Y-50.4098 F80.00
G01 X29.9895 Y-50.3653 F80.00
G01 X30.0155 Y-50.3194 F80.00
G01 X30.0392 Y-50.2722 F80.00
G01 X30.0606 Y-50.2240 F80.00
G01 X30.0796 Y-50.1748 F80.00
G01 X30.0961 Y-50.1247 F80.00
G01 X30.1102 Y-50.0738 F80.00
G01 X30.1217 Y-50.0223 F80.00
G01 X30.1308 Y-49.9703 F80.00
G01 X30.1372 Y-49.9180 F80.00
G01 X30.1412 Y-49.8641 F80.00
G01 X30.1424 Y-49.8126 F80.00
G01 X30.1424 Y-47.8620 F80.00
G01 X30.1411 Y-47.8099 F80.00
G01 X30.1372 Y-47.7572 F80.00
G01 X30.1308 Y-47.7049 F80.00
G01 X30.1220 Y-47.6541 F80.00
G00 Z1.9990
G00 X32.6620 Y-47.6541
G01 F80.00
G01 Z-0.1120
G01 F80.00
G01 X32.6499 Y-47.6002 F80.00
G01 X32.6361 Y-47.5505 F80.00
G01 X32.6196 Y-47.5004 F80.00
G01 X32.6006 Y-47.4512 F80.00
G01 X32.5797 Y-47.4041 F80.00
G01 X32.5555 Y-47.3558 F80.00
G01 X32.5288 Y-47.3089 F80.00
G01 X32.5012 Y-47.2654 F80.00
G01 X32.4708 Y-47.2222 F80.00
G01 X32.4384 Y-47.1806 F80.00
G01 X32.4047 Y-47.1416 F80.00
G01 X32.3667 Y-47.1016 F80.00
G01 X32.3293 Y-47.0661 F80.00
G01 X32.2903 Y-47.0324 F80.00
G01 X32.2468 Y-46.9984 F80.00
G01 X32.2046 Y-46.9688 F80.00
G01 X32.1601 Y-46.9405 F80.00
G01 X32.1142 Y-46.9145 F80.00
G01 X32.0681 Y-46.8913 F80.00
G01 X32.0176 Y-46.8690 F80.00
G01 X31.9696 Y-46.8504 F80.00
G01 X31.9195 Y-46.8339 F80.00
G01 X31.8686 Y-46.8198 F80.00
G01 X31.8183 Y-46.8085 F80.00
G01 X31.7639 Y-46.7991 F80.00
G01 X31.7128 Y-46.7928 F80.00
G01 X31.6614 Y-46.7890 F80.00
G01 X31.6062 Y-46.7876 F80.00
G01 X31.5547 Y-46.7889 F80.00
G01 X31.5020 Y-46.7928 F80.00
G01 X31.4497 Y-46.7992 F80.00
G01 X31.3989 Y-46.8080 F80.00
G01 X31.3450 Y-46.8201 F80.00
G01 X31.2953 Y-46.8339 F80.00
G01 X31.2452 Y-46.8504 F80.00
G01 X31.1960 Y-46.8694 F80.00
G01 X31.1489 Y-46.8903 F80.00
G01 X31.1006 Y-46.9145 F80.00
G01 X31.0537 Y-46.9412 F80.00
G01 X31.0102 Y-46.9688 F80.00
G01 X30.9670 Y-46.9992 F80.00
G01 X30.9254 Y-47.0316 F80.00
G01 X30.8864 Y-47.0653 F80.00
G01 X30.8464 Y-47.1033 F80.00
G01 X30.8109 Y-47.1407 F80.00
G01 X30.7764 Y-47.1806 F80.00
G01 X30.7440 Y-47.2222 F80.00
G01 X30.7143 Y-47.2644 F80.00
G01 X30.6847 Y-47.3110 F80.00
G01 X30.6593 Y-47.3558 F80.00
G01 X30.6356 Y-47.4030 F80.00
G01 X30.6142 Y-47.4512 F80.00
G01 X30.5952 Y-47.5004 F80.00
G01 X30.5787 Y-47.5505 F80.00
G01 X30.5646 Y-47.6014 F80.00
G01 X30.5531 Y-47.6529 F80.00
G01 X30.5440 Y-47.7049 F80.00
G01 X30.5376 Y-47.7572 F80.00
G01 X30.5336 Y-47.8111 F80.00
G01 X30.5324 Y-47.8626 F80.00
G01 X30.5324 Y-49.8126 F80.00
G01 X30.5337 Y-49.8653 F80.00
G01 X30.5375 Y-49.9167 F80.00
G01 X30.5440 Y-49.9703 F80.00
G01 X30.5531 Y-50.0223 F80.00
G01 X30.5649 Y-50.0750 F80.00
G01 X30.5787 Y-50.1247 F80.00
G01 X30.5948 Y-50.1736 F80.00
G01 X30.6142 Y-50.2240 F80.00
G01 X30.6356 Y-50.2722 F80.00
G01 X30.6599 Y-50.3204 F80.00
G01 X30.6853 Y-50.3653 F80.00
G01 X30.7129 Y-50.4088 F80.00
G01 X30.7440 Y-50.4530 F80.00
G01 X30.7772 Y-50.4955 F80.00
G01 X30.8109 Y-50.5345 F80.00
G01 X30.8464 Y-50.5719 F80.00
G01 X30.8855 Y-50.6091 F80.00
G01 X30.9254 Y-50.6436 F80.00
G01 X30.9680 Y-50.6768 F80.00
G01 X31.0102 Y-50.7064 F80.00
G01 X31.0537 Y-50.7340 F80.00
G01 X31.1006 Y-50.7607 F80.00
G01 X31.1478 Y-50.7844 F80.00
G01 X31.1960 Y-50.8058 F80.00
G01 X31.2452 Y-50.8248 F80.00
G01 X31.2953 Y-50.8413 F80.00
G01 X31.3462 Y-50.8554 F80.00
G01 X31.3977 Y-50.8669 F80.00
G01 X31.4497 Y-50.8760 F80.00
G01 X31.5020 Y-50.8824 F80.00
G01 X31.5547 Y-50.8863 F80.00
G01 X31.6074 Y-50.8876 F80.00
G01 X31.6601 Y-50.8863 F80.00
G01 X31.7128 Y-50.8824 F80.00
G01 X31.7651 Y-50.8760 F80.00
G01 X31.8171 Y-50.8669 F80.00
G01 X31.8686 Y-50.8554 F80.00
G01 X31.9195 Y-50.8413 F80.00
G01 X31.9696 Y-50.8248 F80.00
G01 X32.0188 Y-50.8058 F80.00
G01 X32.0670 Y-50.7844 F80.00
G01 X32.1142 Y-50.7607 F80.00
G01 X32.1601 Y-50.7347 F80.00
G01 X32.2046 Y-50.7064 F80.00
G01 X32.2478 Y-50.6760 F80.00
G01 X32.2894 Y-50.6436 F80.00
G01 X32.3293 Y-50.6091 F80.00
G01 X32.3675 Y-50.5727 F80.00
G01 X32.4039 Y-50.5345 F80.00
G01 X32.4384 Y-50.4946 F80.00
G01 X32.4708 Y-50.4530 F80.00
G01 X32.5012 Y-50.4098 F80.00
G01 X32.5295 Y-50.3653 F80.00
G01 X32.5555 Y-50.3194 F80.00
G01 X32.5792 Y-50.2722 F80.00
G01 X32.6006 Y-50.2240 F80.00
G01 X32.6196 Y-50.1748 F80.00
G01 X32.6361 Y-50.1247 F80.00
G01 X32.6502 Y-50.0738 F80.00
G01 X32.6617 Y-50.0223 F80.00
G01 X32.6708 Y-49.9703 F80.00
G01 X32.6772 Y-49.9180 F80.00
G01 X32.6812 Y-49.8641 F80.00
G01 X32.6824 Y-49.8126 F80.00
G01 X32.6824 Y-47.8620 F80.00
G01 X32.6811 Y-47.8099 F80.00
G01 X32.6772 Y-47.7572 F80.00
G01 X32.6708 Y-47.7049 F80.00
G01 X32.6620 Y-47.6541 F80.00
G00 Z1.9990
G00 X35.2020 Y-47.6541
G01 F80.00
G01 Z-0.1120
G01 F80.00
G01 X35.1899 Y-47.6002 F80.00
G01 X35.1761 Y-47.5505 F80.00
G01 X35.1596 Y-47.5004 F80.00
G01 X35.1406 Y-47.4512 F80.00
G01 X35.1197 Y-47.4041 F80.00
G01 X35.0955 Y-47.3558 F80.00
G01 X35.0688 Y-47.3089 F80.00
G01 X35.0412 Y-47.2654 F80.00
G01 X35.0108 Y-47.2222 F80.00
G01 X34.9784 Y-47.1806 F80.00
G01 X34.9447 Y-47.1416 F80.00
G01 X34.9067 Y-47.1016 F80.00
G01 X34.8693 Y-47.0661 F80.00
G01 X34.8303 Y-47.0324 F80.00
G01 X34.7868 Y-46.9984 F80.00
G01 X34.7446 Y-46.9688 F80.00
G01 X34.7001 Y-46.9405 F80.00
G01 X34.6542 Y-46.9145 F80.00
G01 X34.6081 Y-46.8913 F80.00
G01 X34.5576 Y-46.8690 F80.00
G01 X34.5096 Y-46.8504 F80.00
G01 X34.4595 Y-46.8339 F80.00
G01 X34.4086 Y-46.8198 F80.00
G01 X34.3583 Y-46.8085 F80.00
G01 X34.3039 Y-46.7991 F80.00
G01 X34.2528 Y-46.7928 F80.00
G01 X34.2014 Y-46.7890 F80.00
G01 X34.1462 Y-46.7876 F80.00
G01 X34.0947 Y-46.7889 F80.00
G01 X34.0420 Y-46.7928 F80.00
G01 X33.9897 Y-46.7992 F80.00
G01 X33.9389 Y-46.8080 F80.00
G01 X33.8850 Y-46.8201 F80.00
G01 X33.8353 Y-46.8339 F80.00
G01 X33.7852 Y-46.8504 F80.00
G01 X33.7360 Y-46.8694 F80.00
G01 X33.6889 Y-46.8903 F80.00
G01 X33.6406 Y-46.9145 F80.00
G01 X33.5937 Y-46.9412 F80.00
G01 X33.5502 Y-46.9688 F80.00
G01 X33.5070 Y-46.9992 F80.00
G01 X33.4654 Y-47.0316 F80.00
G01 X33.4264 Y-47.0653 F80.00
G01 X33.3864 Y-47.1033 F80.00
G01 X33.3509 Y-47.1407 F80.00
G01 X33.3164 Y-47.1806 F80.00
G01 X33.2840 Y-47.2222 F80.00
G01 X33.2543 Y-47.2644 F80.00
G01 X33.2247 Y-47.3110 F80.00
G01 X33.1993 Y-47.3558 F80.00
G01 X33.1756 Y-47.4030 F80.00
G01 X33.1542 Y-47.4512 F80.00
G01 X33.1352 Y-47.5004 F80.00
G01 X33.1187 Y-47.5505 F80.00
G01 X33.1046 Y-47.6014 F80.00
G01 X33.0931 Y-47.6529 F80.00
G01 X33.0840 Y-47.7049 F80.00
G01 X33.0776 Y-47.7572 F80.00
G01 X33.0736 Y-47.8111 F80.00
G01 X33.0724 Y-47.8626 F80.00
G01 X33.0724 Y-49.8126 F80.00
G01 X33.0737 Y-49.8653 F80.00
G01 X33.0775 Y-49.9167 F80.00
G01 X33.0840 Y-49.9703 F80.00
G01 X33.0931 Y-50.0223 F80.00
G01 X33.1049 Y-50.0750 F80.00
G01 X33.1187 Y-50.1247 F80.00
G01 X33.1348 Y-50.1736 F80.00
G01 X33.1542 Y-50.2240 F80.00
G01 X33.1756 Y-50.2722 F80.00
G01 X33.1999 Y-50.3204 F80.00
G01 X33.2253 Y-50.3653 F80.00
G01 X33.2529 Y-50.4088 F80.00
G01 X33.2840 Y-50.4530 F80.00
G01 X33.3172 Y-50.4955 F80.00
G01 X33.3509 Y-50.5345 F80.00
G01 X33.3864 Y-50.5719 F80.00
G01 X33.4255 Y-50.6091 F80.00
G01 X33.4654 Y-50.6436 F80.00
G01 X33.5080 Y-50.6768 F80.00
G01 X33.5502 Y-50.7064 F80.00
G01 X33.5937 Y-50.7340 F80.00
G01 X33.6406 Y-50.7607 F80.00
G01 X33.6878 Y-50.7844 F80.00
G01 X33.7360 Y-50.8058 F80.00
G01 X33.7852 Y-50.8248 F80.00
G01 X33.8353 Y-50.8413 F80.00
G01 X33.8862 Y-50.8554 F80.00
G01 X33.9377 Y-50.8669 F80.00
G01 X33.9897 Y-50.8760 F80.00
G01 X34.0420 Y-50.8824 F80.00
G01 X34.0947 Y-50.8863 F80.00
G01 X34.1474 Y-50.8876 F80.00
G01 X34.2001 Y-50.8863 F80.00
G01 X34.2528 Y-50.8824 F80.00
G01 X34.3051 Y-50.8760 F80.00
G01 X34.3571 Y-50.8669 F80.00
G01 X34.4086 Y-50.8554 F80.00
G01 X34.4595 Y-50.8413 F80.00
G01 X34.5096 Y-50.8248 F80.00
G01 X34.5588 Y-50.8058 F80.00
G01 X34.6070 Y-50.7844 F80.00
G01 X34.6542 Y-50.7607 F80.00
G01 X34.7001 Y-50.7347 F80.00
G01 X34.7446 Y-50.7064 F80.00
G01 X34.7878 Y-50.6760 F80.00
G01 X34.8294 Y-50.6436 F80.00
G01 X34.8693 Y-50.6091 F80.00
G01 X34.9075 Y-50.5727 F80.00
G01 X34.9439 Y-50.5345 F80.00
G01 X34.9784 Y-50.4946 F80.00
G01 X35.0108 Y-50.4530 F80.00
G01 X35.0412 Y-50.4098 F80.00
G01 X35.0695 Y-50.3653 F80.00
G01 X35.0955 Y-50.3194 F80.00
G01 X35.1192 Y-50.2722 F80.00
G01 X35.1406 Y-50.2240 F80.00
G01 X35.1596 Y-50.1748 F80.00
G01 X35.1761 Y-50.1247 F80.00
G01 X35.1902 Y-50.0738 F80.00
G01 X35.2017 Y-50.0223 F80.00
G01 X35.2108 Y-49.9703 F80.00
G01 X35.2172 Y-49.9180 F80.00
G01 X35.2212 Y-49.8641 F80.00
G01 X35.2224 Y-49.8126 F80.00
G01 X35.2224 Y-47.8620 F80.00
G01 X35.2211 Y-47.8099 F80.00
G01 X35.2172 Y-47.7572 F80.00
G01 X35.2108 Y-47.7049 F80.00
G01 X35.2020 Y-47.6541 F80.00
G00 Z1.9990
G00 X37.7420 Y-47.6541
G01 F80.00
G01 Z-0.1120
G01 F80.00
G01 X37.7299 Y-47.6002 F80.00
G01 X37.7161 Y-47.5505 F80.00
G01 X37.6996 Y-47.5004 F80.00
G01 X37.6806 Y-47.4512 F80.00
G01 X37.6597 Y-47.4041 F80.00
G01 X37.6355 Y-47.3558 F80.00
G01 X37.6088 Y-47.3089 F80.00
G01 X37.5812 Y-47.2654 F80.00
G01 X37.5508 Y-47.2222 F80.00
G01 X37.5184 Y-47.1806 F80.00
G01 X37.4847 Y-47.1416 F80.00
G01 X37.4467 Y-47.1016 F80.00
G01 X37.4093 Y-47.0661 F80.00
G01 X37.3703 Y-47.0324 F80.00
G01 X37.3268 Y-46.9984 F80.00
G01 X37.2846 Y-46.9688 F80.00
G01 X37.2401 Y-46.9405 F80.00
G01 X37.1942 Y-46.9145 F80.00
G01 X37.1481 Y-46.8913 F80.00
G01 X37.0976 Y-46.8690 F80.00
G01 X37.0496 Y-46.8504 F80.00
G01 X36.9995 Y-46.8339 F80.00
G01 X36.9486 Y-46.8198 F80.00
G01 X36.8983 Y-46.8085 F80.00
G01 X36.8439 Y-46.7991 F80.00
G01 X36.7928 Y-46.7928 F80.00
G01 X36.7414 Y-46.7890 F80.00
G01 X36.6862 Y-46.7876 F80.00
G01 X36.6347 Y-46.7889 F80.00
G01 X36.5820 Y-46.7928 F80.00
G01 X36.5297 Y-46.7992 F80.00
G01 X36.4789 Y-46.8080 F80.00
G01 X36.4250 Y-46.8201 F80.00
G01 X36.3753 Y-46.8339 F80.00
G01 X36.3252 Y-46.8504 F80.00
G01 X36.2760 Y-46.8694 F80.00
G01 X36.2289 Y-46.8903 F80.00
G01 X36.1806 Y-46.9145 F80.00
G01 X36.1337 Y-46.9412 F80.00
G01 X36.0902 Y-46.9688 F80.00
G01 X36.0470 Y-46.9992 F80.00
G01 X36.0054 Y-47.0316 F80.00
G01 X35.9664 Y-47.0653 F80.00
G01 X35.9264 Y-47.1033 F80.00
G01 X35.8909 Y-47.1407 F80.00
G01 X35.8564 Y-47.1806 F80.00
G01 X35.8240 Y-47.2222 F80.00
G01 X35.7943 Y-47.2644 F80.00
G01 X35.7647 Y-47.3110 F80.00
G01 X35.7393 Y-47.3558 F80.00
G01 X35.7156 Y-47.4030 F80.00
G01 X35.6942 Y-47.4512 F80.00
G01 X35.6752 Y-47.5004 F80.00
G01 X35.6587 Y-47.5505 F80.00
G01 X35.6446 Y-47.6014 F80.00
G01 X35.6331 Y-47.6529 F80.00
G01 X35.6240 Y-47.7049 F80.00
G01 X35.6176 Y-47.7572 F80.00
G01 X35.6136 Y-47.8111 F80.00
G01 X35.6124 Y-47.8626 F80.00
G01 X35.6124 Y-49.8126 F80.00
G01 X35.6137 Y-49.8653 F80.00
G01 X35.6175 Y-49.9167 F80.00
G01 X35.6240 Y-49.9703 F80.00
G01 X35.6331 Y-50.0223 F80.00
G01 X35.6449 Y-50.0750 F80.00
G01 X35.6587 Y-50.1247 F80.00
G01 X35.6748 Y-50.1736 F80.00
G01 X35.6942 Y-50.2240 F80.00
G01 X35.7156 Y-50.2722 F80.00
G01 X35.7399 Y-50.3204 F80.00
G01 X35.7653 Y-50.3653 F80.00
G01 X35.7929 Y-50.4088 F80.00
G01 X35.8240 Y-50.4530 F80.00
G01 X35.8572 Y-50.4955 F80.00
G01 X35.8909 Y-50.5345 F80.00
G01 X35.9264 Y-50.5719 F80.00
G01 X35.9655 Y-50.6091 F80.00
G01 X36.0054 Y-50.6436 F80.00
G01 X36.0480 Y-50.6768 F80.00
G01 X36.0902 Y-50.7064 F80.00
G01 X36.1337 Y-50.7340 F80.00
G01 X36.1806 Y-50.7607 F80.00
G01 X36.2278 Y-50.7844 F80.00
G01 X36.2760 Y-50.8058 F80.00
G01 X36.3252 Y-50.8248 F80.00
G01 X36.3753 Y-50.8413 F80.00
G01 X36.4262 Y-50.8554 F80.00
G01 X36.4777 Y-50.8669 F80.00
G01 X36.5297 Y-50.8760 F80.00
G01 X36.5820 Y-50.8824 F80.00
G01 X36.6347 Y-50.8863 F80.00
G01 X36.6874 Y-50.8876 F80.00
G01 X36.7401 Y-50.8863 F80.00
G01 X36.7928 Y-50.8824 F80.00
G01 X36.8451 Y-50.8760 F80.00
G01 X36.8971 Y-50.8669 F80.00
G01 X36.9486 Y-50.8554 F80.00
G01 X36.9995 Y-50.8413 F80.00
G01 X37.0496 Y-50.8248 F80.00
G01 X37.0988 Y-50.8058 F80.00
G01 X37.1470 Y-50.7844 F80.00
G01 X37.1942 Y-50.7607 F80.00
G01 X37.2401 Y-50.7347 F80.00
G01 X37.2846 Y-50.7064 F80.00
G01 X37.3278 Y-50.6760 F80.00
G01 X37.3694 Y-50.6436 F80.00
G01 X37.4093 Y-50.6091 F80.00
G01 X37.4475 Y-50.5727 F80.00
G01 X37.4839 Y-50.5345 F80.00
G01 X37.5184 Y-50.4946 F80.00
G01 X37.5508 Y-50.4530 F80.00
G01 X37.5812 Y-50.4098 F80.00
G01 X37.6095 Y-50.3653 F80.00
G01 X37.6355 Y-50.3194 F80.00
G01 X37.6592 Y-50.2722 F80.00
G01 X37.6806 Y-50.2240 F80.00
G01 X37.6996 Y-50.1748 F80.00
G01 X37.7161 Y-50.1247 F80.00
G01 X37.7302 Y-50.0738 F80.00
G01 X37.7417 Y-50.0223 F80.00
G01 X37.7508 Y-49.9703 F80.00
G01 X37.7572 Y-49.9180 F80.00
G01 X37.7612 Y-49.8641 F80.00
G01 X37.7624 Y-49.8126 F80.00
G01 X37.7624 Y-47.8620 F80.00
G01 X37.7611 Y-47.8099 F80.00
G01 X37.7572 Y-47.7572 F80.00
G01 X37.7508 Y-47.7049 F80.00
G01 X37.7420 Y-47.6541 F80.00
G00 Z1.9990
G00 X40.2820 Y-47.6541
G01 F80.00
G01 Z-0.1120
G01 F80.00
G01 X40.2699 Y-47.6002 F80.00
G01 X40.2561 Y-47.5505 F80.00
G01 X40.2396 Y-47.5004 F80.00
G01 X40.2206 Y-47.4512 F80.00
G01 X40.1997 Y-47.4041 F80.00
G01 X40.1755 Y-47.3558 F80.00
G01 X40.1488 Y-47.3089 F80.00
G01 X40.1212 Y-47.2654 F80.00
G01 X40.0908 Y-47.2222 F80.00
G01 X40.0584 Y-47.1806 F80.00
G01 X40.0247 Y-47.1416 F80.00
G01 X39.9867 Y-47.1016 F80.00
G01 X39.9493 Y-47.0661 F80.00
G01 X39.9103 Y-47.0324 F80.00
G01 X39.8668 Y-46.9984 F80.00
G01 X39.8246 Y-46.9688 F80.00
G01 X39.7801 Y-46.9405 F80.00
G01 X39.7342 Y-46.9145 F80.00
G01 X39.6881 Y-46.8913 F80.00
G01 X39.6376 Y-46.8690 F80.00
G01 X39.5896 Y-46.8504 F80.00
G01 X39.5395 Y-46.8339 F80.00
G01 X39.4886 Y-46.8198 F80.00
G01 X39.4383 Y-46.8085 F80.00
G01 X39.3839 Y-46.7991 F80.00
G01 X39.3328 Y-46.7928 F80.00
G01 X39.2814 Y-46.7890 F80.00
G01 X39.2262 Y-46.7876 F80.00
G01 X39.1747 Y-46.7889 F80.00
G01 X39.1220 Y-46.7928 F80.00
G01 X39.0697 Y-46.7992 F80.00
G01 X39.0189 Y-46.8080 F80.00
G01 X38.9650 Y-46.8201 F80.00
G01 X38.9153 Y-46.8339 F80.00
G01 X38.8652 Y-46.8504 F80.00
G01 X38.8160 Y-46.8694 F80.00
G01 X38.7689 Y-46.8903 F80.00
G01 X38.7206 Y-46.9145 F80.00
G01 X38.6737 Y-46.9412 F80.00
G01 X38.6302 Y-46.9688 F80.00
G01 X38.5870 Y-46.9992 F80.00
G01 X38.5454 Y-47.0316 F80.00
G01 X38.5064 Y-47.0653 F80.00
G01 X38.4664 Y-47.1033 F80.00
G01 X38.4309 Y-47.1407 F80.00
G01 X38.3964 Y-47.1806 F80.00
G01 X38.3640 Y-47.2222 F80.00
G01 X38.3343 Y-47.2644 F80.00
G01 X38.3047 Y-47.3110 F80.00
G01 X38.2793 Y-47.3558 F80.00
G01 X38.2556 Y-47.4030 F80.00
G01 X38.2342 Y-47.4512 F80.00
G01 X38.2152 Y-47.5004 F80.00
G01 X38.1987 Y-47.5505 F80.00
G01 X38.1846 Y-47.6014 F80.00
G01 X38.1731 Y-47.6529 F80.00
G01 X38.1640 Y-47.7049 F80.00
G01 X38.1576 Y-47.7572 F80.00
G01 X38.1536 Y-47.8111 F80.00
G01 X38.1524 Y-47.8626 F80.00
G01 X38.1524 Y-49.8126 F80.00
G01 X38.1537 Y-49.8653 F80.00
G01 X38.1575 Y-49.9167 F80.00
G01 X38.1640 Y-49.9703 F80.00
G01 X38.1731 Y-50.0223 F80.00
G01 X38.1849 Y-50.0750 F80.00
G01 X38.1987 Y-50.1247 F80.00
G01 X38.2148 Y-50.1736 F80.00
G01 X38.2342 Y-50.2240 F80.00
G01 X38.2556 Y-50.2722 F80.00
G01 X38.2799 Y-50.3204 F80.00
G01 X38.3053 Y-50.3653 F80.00
G01 X38.3329 Y-50.4088 F80.00
G01 X38.3640 Y-50.4530 F80.00
G01 X38.3972 Y-50.4955 F80.00
G01 X38.4309 Y-50.5345 F80.00
G01 X38.4664 Y-50.5719 F80.00
G01 X38.5055 Y-50.6091 F80.00
G01 X38.5454 Y-50.6436 F80.00
G01 X38.5880 Y-50.6768 F80.00
G01 X38.6302 Y-50.7064 F80.00
G01 X38.6737 Y-50.7340 F80.00
G01 X38.7206 Y-50.7607 F80.00
G01 X38.7678 Y-50.7844 F80.00
G01 X38.8160 Y-50.8058 F80.00
G01 X38.8652 Y-50.8248 F80.00
G01 X38.9153 Y-50.8413 F80.00
G01 X38.9662 Y-50.8554 F80.00
G01 X39.0177 Y-50.8669 F80.00
G01 X39.0697 Y-50.8760 F80.00
G01 X39.1220 Y-50.8824 F80.00
G01 X39.1747 Y-50.8863 F80.00
G01 X39.2274 Y-50.8876 F80.00
G01 X39.2801 Y-50.8863 F80.00
G01 X39.3328 Y-50.8824 F80.00
G01 X39.3851 Y-50.8760 F80.00
G01 X39.4371 Y-50.8669 F80.00
G01 X39.4886 Y-50.8554 F80.00
G01 X39.5395 Y-50.8413 F80.00
G01 X39.5896 Y-50.8248 F80.00
G01 X39.6388 Y-50.8058 F80.00
G01 X39.6870 Y-50.7844 F80.00
G01 X39.7342 Y-50.7607 F80.00
G01 X39.7801 Y-50.7347 F80.00
G01 X39.8246 Y-50.7064 F80.00
G01 X39.8678 Y-50.6760 F80.00
G01 X39.9094 Y-50.6436 F80.00
G01 X39.9493 Y-50.6091 F80.00
G01 X39.9875 Y-50.5727 F80.00
G01 X40.0239 Y-50.5345 F80.00
G01 X40.0584 Y-50.4946 F80.00
G01 X40.0908 Y-50.4530 F80.00
G01 X40.1212 Y-50.4098 F80.00
G01 X40.1495 Y-50.3653 F80.00
G01 X40.1755 Y-50.3194 F80.00
G01 X40.1992 Y-50.2722 F80.00
G01 X40.2206 Y-50.2240 F80.00
G01 X40.2396 Y-50.1748 F80.00
G01 X40.2561 Y-50.1247 F80.00
G01 X40.2702 Y-50.0738 F80.00
G01 X40.2817 Y-50.0223 F80.00
G01 X40.2908 Y-49.9703 F80.00
G01 X40.2972 Y-49.9180 F80.00
G01 X40.3012 Y-49.8641 F80.00
G01 X40.3024 Y-49.8126 F80.00
G01 X40.3024 Y-47.8620 F80.00
G01 X40.3011 Y-47.8099 F80.00
G01 X40.2972 Y-47.7572 F80.00
G01 X40.2908 Y-47.7049 F80.00
G01 X40.2820 Y-47.6541 F80.00
G00 Z1.9990
G00 X42.8220 Y-47.6541
G01 F80.00
G01 Z-0.1120
G01 F80.00
G01 X42.8099 Y-47.6002 F80.00
G01 X42.7961 Y-47.5505 F80.00
G01 X42.7796 Y-47.5004 F80.00
G01 X42.7606 Y-47.4512 F80.00
G01 X42.7397 Y-47.4041 F80.00
G01 X42.7155 Y-47.3558 F80.00
G01 X42.6888 Y-47.3089 F80.00
G01 X42.6612 Y-47.2654 F80.00
G01 X42.6308 Y-47.2222 F80.00
G01 X42.5984 Y-47.1806 F80.00
G01 X42.5647 Y-47.1416 F80.00
G01 X42.5267 Y-47.1016 F80.00
G01 X42.4893 Y-47.0661 F80.00
G01 X42.4503 Y-47.0324 F80.00
G01 X42.4068 Y-46.9984 F80.00
G01 X42.3646 Y-46.9688 F80.00
G01 X42.3201 Y-46.9405 F80.00
G01 X42.2742 Y-46.9145 F80.00
G01 X42.2281 Y-46.8913 F80.00
G01 X42.1776 Y-46.8690 F80.00
G01 X42.1296 Y-46.8504 F80.00
G01 X42.0795 Y-46.8339 F80.00
G01 X42.0286 Y-46.8198 F80.00
G01 X41.9783 Y-46.8085 F80.00
G01 X41.9239 Y-46.7991 F80.00
G01 X41.8728 Y-46.7928 F80.00
G01 X41.8214 Y-46.7890 F80.00
G01 X41.7662 Y-46.7876 F80.00
G01 X41.7147 Y-46.7889 F80.00
G01 X41.6620 Y-46.7928 F80.00
G01 X41.6097 Y-46.7992 F80.00
G01 X41.5589 Y-46.8080 F80.00
G01 X41.5050 Y-46.8201 F80.00
G01 X41.4553 Y-46.8339 F80.00
G01 X41.4052 Y-46.8504 F80.00
G01 X41.3560 Y-46.8694 F80.00
G01 X41.3089 Y-46.8903 F80.00
G01 X41.2606 Y-46.9145 F80.00
G01 X41.2137 Y-46.9412 F80.00
G01 X41.1702 Y-46.9688 F80.00
G01 X41.1270 Y-46.9992 F80.00
G01 X41.0854 Y-47.0316 F80.00
G01 X41.0464 Y-47.0653 F80.00
G01 X41.0064 Y-47.1033 F80.00
G01 X40.9709 Y-47.1407 F80.00
G01 X40.9364 Y-47.1806 F80.00
G01 X40.9040 Y-47.2222 F80.00
G01 X40.8743 Y-47.2644 F80.00
G01 X40.8447 Y-47.3110 F80.00
G01 X40.8193 Y-47.3558 F80.00
G01 X40.7956 Y-47.4030 F80.00
G01 X40.7742 Y-47.4512 F80.00
G01 X40.7552 Y-47.5004 F80.00
G01 X40.7387 Y-47.5505 F80.00
G01 X40.7246 Y-47.6014 F80.00
G01 X40.7131 Y-47.6529 F80.00
G01 X40.7040 Y-47.7049 F80.00
G01 X40.6976 Y-47.7572 F80.00
G01 X40.6936 Y-47.8111 F80.00
G01 X40.6924 Y-47.8626 F80.00
G01 X40.6924 Y-49.8126 F80.00
G01 X40.6937 Y-49.8653 F80.00
G01 X40.6975 Y-49.9167 F80.00
G01 X40.7040 Y-49.9703 F80.00
G01 X40.7131 Y-50.0223 F80.00
G01 X40.7249 Y-50.0750 F80.00
G01 X40.7387 Y-50.1247 F80.00
G01 X40.7548 Y-50.1736 F80.00
G01 X40.7742 Y-50.2240 F80.00
G01 X40.7956 Y-50.2722 F80.00
G01 X40.8199 Y-50.3204 F80.00
G01 X40.8453 Y-50.3653 F80.00
G01 X40.8729 Y-50.4088 F80.00
G01 X40.9040 Y-50.4530 F80.00
G01 X40.9372 Y-50.4955 F80.00
G01 X40.9709 Y-50.5345 F80.00
G01 X41.0064 Y-50.5719 F80.00
G01 X41.0455 Y-50.6091 F80.00
G01 X41.0854 Y-50.6436 F80.00
G01 X41.1280 Y-50.6768 F80.00
G01 X41.1702 Y-50.7064 F80.00
G01 X41.2137 Y-50.7340 F80.00
G01 X41.2606 Y-50.7607 F80.00
G01 X41.3078 Y-50.7844 F80.00
G01 X41.3560 Y-50.8058 F80.00
G01 X41.4052 Y-50.8248 F80.00
G01 X41.4553 Y-50.8413 F80.00
G01 X41.5062 Y-50.8554 F80.00
G01 X41.5577 Y-50.8669 F80.00
G01 X41.6097 Y-50.8760 F80.00
G01 X41.6620 Y-50.8824 F80.00
G01 X41.7147 Y-50.8863 F80.00
G01 X41.7674 Y-50.8876 F80.00
G01 X41.8201 Y-50.8863 F80.00
G01 X41.8728 Y-50.8824 F80.00
G01 X41.9251 Y-50.8760 F80.00
G01 X41.9771 Y-50.8669 F80.00
G01 X42.0286 Y-50.8554 F80.00
G01 X42.0795 Y-50.8413 F80.00
G01 X42.1296 Y-50.8248 F80.00
G01 X42.1788 Y-50.8058 F80.00
G01 X42.2270 Y-50.7844 F80.00
G01 X42.2742 Y-50.7607 F80.00
G01 X42.3201 Y-50.7347 F80.00
G01 X42.3646 Y-50.7064 F80.00
G01 X42.4078 Y-50.6760 F80.00
G01 X42.4494 Y-50.6436 F80.00
G01 X42.4893 Y-50.6091 F80.00
G01 X42.5275 Y-50.5727 F80.00
G01 X42.5639 Y-50.5345 F80.00
G01 X42.5984 Y-50.4946 F80.00
G01 X42.6308 Y-50.4530 F80.00
G01 X42.6612 Y-50.4098 F80.00
G01 X42.6895 Y-50.3653 F80.00
G01 X42.7155 Y-50.3194 F80.00
G01 X42.7392 Y-50.2722 F80.00
G01 X42.7606 Y-50.2240 F80.00
G01 X42.7796 Y-50.1748 F80.00
G01 X42.7961 Y-50.1247 F80.00
G01 X42.8102 Y-50.0738 F80.00
G01 X42.8217 Y-50.0223 F80.00
G01 X42.8308 Y-49.9703 F80.00
G01 X42.8372 Y-49.9180 F80.00
G01 X42.8412 Y-49.8641 F80.00
G01 X42.8424 Y-49.8126 F80.00
G01 X42.8424 Y-47.8620 F80.00
G01 X42.8411 Y-47.8099 F80.00
G01 X42.8372 Y-47.7572 F80.00
G01 X42.8308 Y-47.7049 F80.00
G01 X42.8220 Y-47.6541 F80.00
G00 Z1.9990
G00 X45.3620 Y-47.6541
G01 F80.00
G01 Z-0.1120
G01 F80.00
G01 X45.3499 Y-47.6002 F80.00
G01 X45.3361 Y-47.5505 F80.00
G01 X45.3196 Y-47.5004 F80.00
G01 X45.3006 Y-47.4512 F80.00
G01 X45.2797 Y-47.4041 F80.00
G01 X45.2555 Y-47.3558 F80.00
G01 X45.2288 Y-47.3089 F80.00
G01 X45.2012 Y-47.2654 F80.00
G01 X45.1708 Y-47.2222 F80.00
G01 X45.1384 Y-47.1806 F80.00
G01 X45.1047 Y-47.1416 F80.00
G01 X45.0667 Y-47.1016 F80.00
G01 X45.0293 Y-47.0661 F80.00
G01 X44.9903 Y-47.0324 F80.00
G01 X44.9468 Y-46.9984 F80.00
G01 X44.9046 Y-46.9688 F80.00
G01 X44.8601 Y-46.9405 F80.00
G01 X44.8142 Y-46.9145 F80.00
G01 X44.7681 Y-46.8913 F80.00
G01 X44.7176 Y-46.8690 F80.00
G01 X44.6696 Y-46.8504 F80.00
G01 X44.6195 Y-46.8339 F80.00
G01 X44.5686 Y-46.8198 F80.00
G01 X44.5183 Y-46.8085 F80.00
G01 X44.4639 Y-46.7991 F80.00
G01 X44.4128 Y-46.7928 F80.00
G01 X44.3614 Y-46.7890 F80.00
G01 X44.3062 Y-46.7876 F80.00
G01 X44.2547 Y-46.7889 F80.00
G01 X44.2020 Y-46.7928 F80.00
G01 X44.1497 Y-46.7992 F80.00
G01 X44.0989 Y-46.8080 F80.00
G01 X44.0450 Y-46.8201 F80.00
G01 X43.9953 Y-46.8339 F80.00
G01 X43.9452 Y-46.8504 F80.00
G01 X43.8960 Y-46.8694 F80.00
G01 X43.8489 Y-46.8903 F80.00
G01 X43.8006 Y-46.9145 F80.00
G01 X43.7537 Y-46.9412 F80.00
G01 X43.7102 Y-46.9688 F80.00
G01 X43.6670 Y-46.9992 F80.00
G01 X43.6254 Y-47.0316 F80.00
G01 X43.5864 Y-47.0653 F80.00
G01 X43.5464 Y-47.1033 F80.00
G01 X43.5109 Y-47.1407 F80.00
G01 X43.4764 Y-47.1806 F80.00
G01 X43.4440 Y-47.2222 F80.00
G01 X43.4143 Y-47.2644 F80.00
G01 X43.3847 Y-47.3110 F80.00
G01 X43.3593 Y-47.3558 F80.00
G01 X43.3356 Y-47.4030 F80.00
G01 X43.3142 Y-47.4512 F80.00
G01 X43.2952 Y-47.5004 F80.00
G01 X43.2787 Y-47.5505 F80.00
G01 X43.2646 Y-47.6014 F80.00
G01 X43.2531 Y-47.6529 F80.00
G01 X43.2440 Y-47.7049 F80.00
G01 X43.2376 Y-47.7572 F80.00
G01 X43.2336 Y-47.8111 F80.00
G01 X43.2324 Y-47.8626 F80.00
G01 X43.2324 Y-49.8126 F80.00
G01 X43.2337 Y-49.8653 F80.00
G01 X43.2375 Y-49.9167 F80.00
G01 X43.2440 Y-49.9703 F80.00
G01 X43.2531 Y-50.0223 F80.00
G01 X43.2649 Y-50.0750 F80.00
G01 X43.2787 Y-50.1247 F80.00
G01 X43.2948 Y-50.1736 F80.00
G01 X43.3142 Y-50.2240 F80.00
G01 X43.3356 Y-50.2722 F80.00
G01 X43.3599 Y-50.3204 F80.00
G01 X43.3853 Y-50.3653 F80.00
G01 X43.4129 Y-50.4088 F80.00
G01 X43.4440 Y-50.4530 F80.00
G01 X43.4772 Y-50.4955 F80.00
G01 X43.5109 Y-50.5345 F80.00
G01 X43.5464 Y-50.5719 F80.00
G01 X43.5855 Y-50.6091 F80.00
G01 X43.6254 Y-50.6436 F80.00
G01 X43.6680 Y-50.6768 F80.00
G01 X43.7102 Y-50.7064 F80.00
G01 X43.7537 Y-50.7340 F80.00
G01 X43.8006 Y-50.7607 F80.00
G01 X43.8478 Y-50.7844 F80.00
G01 X43.8960 Y-50.8058 F80.00
G01 X43.9452 Y-50.8248 F80.00
G01 X43.9953 Y-50.8413 F80.00
G01 X44.0462 Y-50.8554 F80.00
G01 X44.0977 Y-50.8669 F80.00
G01 X44.1497 Y-50.8760 F80.00
G01 X44.2020 Y-50.8824 F80.00
G01 X44.2547 Y-50.8863 F80.00
G01 X44.3074 Y-50.8876 F80.00
G01 X44.3601 Y-50.8863 F80.00
G01 X44.4128 Y-50.8824 F80.00
G01 X44.4651 Y-50.8760 F80.00
G01 X44.5171 Y-50.8669 F80.00
G01 X44.5686 Y-50.8554 F80.00
G01 X44.6195 Y-50.8413 F80.00
G01 X44.6696 Y-50.8248 F80.00
G01 X44.7188 Y-50.8058 F80.00
G01 X44.7670 Y-50.7844 F80.00
G01 X44.8142 Y-50.7607 F80.00
G01 X44.8601 Y-50.7347 F80.00
G01 X44.9046 Y-50.7064 F80.00
G01 X44.9478 Y-50.6760 F80.00
G01 X44.9894 Y-50.6436 F80.00
G01 X45.0293 Y-50.6091 F80.00
G01 X45.0675 Y-50.5727 F80.00
G01 X45.1039 Y-50.5345 F80.00
G01 X45.1384 Y-50.4946 F80.00
G01 X45.1708 Y-50.4530 F80.00
G01 X45.2012 Y-50.4098 F80.00
G01 X45.2295 Y-50.3653 F80.00
G01 X45.2555 Y-50.3194 F80.00
G01 X45.2792 Y-50.2722 F80.00
G01 X45.3006 Y-50.2240 F80.00
G01 X45.3196 Y-50.1748 F80.00
G01 X45.3361 Y-50.1247 F80.00
G01 X45.3502 Y-50.0738 F80.00
G01 X45.3617 Y-50.0223 F80.00
G01 X45.3708 Y-49.9703 F80.00
G01 X45.3772 Y-49.9180 F80.00
G01 X45.3812 Y-49.8641 F80.00
G01 X45.3824 Y-49.8126 F80.00
G01 X45.3824 Y-47.8620 F80.00
G01 X45.3811 Y-47.8099 F80.00
G01 X45.3772 Y-47.7572 F80.00
G01 X45.3708 Y-47.7049 F80.00
G01 X45.3620 Y-47.6541 F80.00
G00 Z1.9990
G00 X47.9020 Y-47.6541
G01 F80.00
G01 Z-0.1120
G01 F80.00
G01 X47.8899 Y-47.6002 F80.00
G01 X47.8761 Y-47.5505 F80.00
G01 X47.8596 Y-47.5004 F80.00
G01 X47.8406 Y-47.4512 F80.00
G01 X47.8197 Y-47.4041 F80.00
G01 X47.7955 Y-47.3558 F80.00
G01 X47.7688 Y-47.3089 F80.00
G01 X47.7412 Y-47.2654 F80.00
G01 X47.7108 Y-47.2222 F80.00
G01 X47.6784 Y-47.1806 F80.00
G01 X47.6447 Y-47.1416 F80.00
G01 X47.6067 Y-47.1016 F80.00
G01 X47.5693 Y-47.0661 F80.00
G01 X47.5303 Y-47.0324 F80.00
G01 X47.4868 Y-46.9984 F80.00
G01 X47.4446 Y-46.9688 F80.00
G01 X47.4001 Y-46.9405 F80.00
G01 X47.3542 Y-46.9145 F80.00
G01 X47.3081 Y-46.8913 F80.00
G01 X47.2576 Y-46.8690 F80.00
G01 X47.2096 Y-46.8504 F80.00
G01 X47.1595 Y-46.8339 F80.00
G01 X47.1086 Y-46.8198 F80.00
G01 X47.0583 Y-46.8085 F80.00
G01 X47.0039 Y-46.7991 F80.00
G01 X46.9528 Y-46.7928 F80.00
G01 X46.9014 Y-46.7890 F80.00
G01 X46.8462 Y-46.7876 F80.00
G01 X46.7947 Y-46.7889 F80.00
G01 X46.7420 Y-46.7928 F80.00
G01 X46.6897 Y-46.7992 F80.00
G01 X46.6389 Y-46.8080 F80.00
G01 X46.5850 Y-46.8201 F80.00
