(G-CODE GENERATED BY FLATCAM v8.96 - www.flatcam.org - Version Date: 2019/08/23)

(Name: big drills)
(Type: G-code from Excellon)
(Units: MM)

(Created on Monday, 14 October 2019 at 20:49)

(Feedrate: 80.0 mm/min)
(Feedrate rapids 800.0009 mm/min)

(Z_Cut: -1.4 mm)
(Z_Move: 2.0 mm)
(Z Toolchange: 12.7 mm)
(X,Y Toolchange: 0.0000, 0.0000 mm)
(Z Start: None mm)
(Z End: 12.7 mm)
(Steps per circle: 128)
(Postprocessor Excellon: grbl_11)
(X range:    7.2742 ...   81.5946  mm)
(Y range:  -70.2498 ...   -6.0894  mm)

(Spindle Speed: 30.0 RPM)


G21
G90
G94
G17

G01 F80.00
G00 Z2.0000

M03 S30.0
G00 X8.8744 Y-68.6496
G01 Z-1.4000
G01 Z0
G00 Z2.0000
G00 X79.9944 Y-7.6896
G01 Z-1.4000
G01 Z0
G00 Z2.0000
M05
G00 Z12.70
G00 X0.0 Y0.0

M02