(G-CODE GENERATED BY FLATCAM v8.96 - www.flatcam.org - Version Date: 2019/08/23)

(Name: edges)
(Type: G-code from Geometry)
(Units: MM)

(Created on Monday, 14 October 2019 at 20:53)

(TOOL DIAMETER: 3.17 mm)

(Feedrate: 79.9998 mm/min)
(Feedrate_Z: 79.9998 mm/min)
(Feedrate rapids 79.9998 mm/min)

(Z_Cut: -1.4 mm)
(Z_Move: 1.999 mm)
(Z Toolchange: 12.7 mm)
(X,Y Toolchange: 0.0000, 0.0000 mm)
(Z Start: None mm)
(Z End: 12.7 mm)
(Steps per circle: 128)
(Postprocessor Geometry: grbl_11)

(X range:  -89.3260 ...    1.7272  mm)
(Y range:  -77.9812 ...    1.6420  mm)

(Spindle Speed: 30 RPM)


G21
G90
G94
G17

G01 F80.00
G00 Z1.9990

M03 S30
G00 X1.7272 Y-34.4828
G01 F80.00
G01 Z-1.4000
G01 F80.00
G01 X1.7272 Y-0.0446 F80.00
G01 X1.7191 Y0.1207 F80.00
G01 X1.6948 Y0.2845 F80.00
G01 X1.6546 Y0.4450 F80.00
G01 X1.5988 Y0.6008 F80.00
G01 X1.5281 Y0.7505 F80.00
G01 X1.4430 Y0.8924 F80.00
G01 X1.3444 Y1.0254 F80.00
G01 X1.2332 Y1.1480 F80.00
G01 X1.1106 Y1.2592 F80.00
G01 X0.9776 Y1.3578 F80.00
G01 X0.8357 Y1.4429 F80.00
G01 X0.6860 Y1.5136 F80.00
G01 X0.5302 Y1.5694 F80.00
G01 X0.3697 Y1.6096 F80.00
G01 X0.2059 Y1.6339 F80.00
G01 X0.0406 Y1.6420 F80.00
G01 X-40.1125 Y1.6420 F80.00
G00 Z1.9990
G00 X-47.2880 Y1.6420
G01 F80.00
G01 Z-1.4000
G01 F80.00
G01 X-87.6394 Y1.6420 F80.00
G01 X-87.8047 Y1.6339 F80.00
G01 X-87.9685 Y1.6096 F80.00
G01 X-88.1290 Y1.5694 F80.00
G01 X-88.2848 Y1.5136 F80.00
G01 X-88.4345 Y1.4429 F80.00
G01 X-88.5764 Y1.3578 F80.00
G01 X-88.7094 Y1.2592 F80.00
G01 X-88.8320 Y1.1480 F80.00
G01 X-88.9432 Y1.0254 F80.00
G01 X-89.0418 Y0.8924 F80.00
G01 X-89.1269 Y0.7505 F80.00
G01 X-89.1976 Y0.6008 F80.00
G01 X-89.2534 Y0.4450 F80.00
G01 X-89.2936 Y0.2845 F80.00
G01 X-89.3179 Y0.1207 F80.00
G01 X-89.3260 Y-0.0446 F80.00
G01 X-89.3260 Y-34.4828 F80.00
G00 Z1.9990
G00 X-89.3260 Y-41.6583
G01 F80.00
G01 Z-1.4000
G01 F80.00
G01 X-89.3260 Y-76.2946 F80.00
G01 X-89.3179 Y-76.4599 F80.00
G01 X-89.2936 Y-76.6237 F80.00
G01 X-89.2534 Y-76.7842 F80.00
G01 X-89.1976 Y-76.9400 F80.00
G01 X-89.1269 Y-77.0897 F80.00
G01 X-89.0418 Y-77.2316 F80.00
G01 X-88.9432 Y-77.3646 F80.00
G01 X-88.8320 Y-77.4872 F80.00
G01 X-88.7094 Y-77.5984 F80.00
G01 X-88.5764 Y-77.6970 F80.00
G01 X-88.4345 Y-77.7821 F80.00
G01 X-88.2848 Y-77.8528 F80.00
G01 X-88.1290 Y-77.9086 F80.00
G01 X-87.9685 Y-77.9488 F80.00
G01 X-87.8047 Y-77.9731 F80.00
G01 X-87.6394 Y-77.9812 F80.00
G01 X-47.2880 Y-77.9812 F80.00
G00 Z1.9990
G00 X-40.1125 Y-77.9812
G01 F80.00
G01 Z-1.4000
G01 F80.00
G01 X0.0406 Y-77.9812 F80.00
G00 Z1.9990
G00 X0.0406 Y-77.9812
G01 F80.00
G01 Z-1.4000
G01 F80.00
G01 X0.2059 Y-77.9731 F80.00
G01 X0.3697 Y-77.9488 F80.00
G01 X0.5302 Y-77.9086 F80.00
G01 X0.6860 Y-77.8528 F80.00
G01 X0.8357 Y-77.7821 F80.00
G01 X0.9776 Y-77.6970 F80.00
G01 X1.1106 Y-77.5984 F80.00
G01 X1.2332 Y-77.4872 F80.00
G01 X1.3444 Y-77.3646 F80.00
G01 X1.4430 Y-77.2316 F80.00
G01 X1.5281 Y-77.0897 F80.00
G01 X1.5988 Y-76.9400 F80.00
G01 X1.6546 Y-76.7842 F80.00
G01 X1.6948 Y-76.6237 F80.00
G01 X1.7191 Y-76.4599 F80.00
G01 X1.7272 Y-76.2946 F80.00
G01 X1.7272 Y-41.6583 F80.00
G00 Z1.9990
M05
G00 Z1.9990
G00 Z12.70
G00 X0.0 Y0.0

M02