(G-CODE GENERATED BY FLATCAM v8.96 - www.flatcam.org - Version Date: 2019/08/23)

(Name: front)
(Type: G-code from Geometry)
(Units: MM)

(Created on Monday, 14 October 2019 at 20:51)

(TOOL DIAMETER: 0.16 mm)

(Feedrate: 79.9998 mm/min)
(Feedrate_Z: 79.9998 mm/min)
(Feedrate rapids 79.9998 mm/min)

(Z_Cut: -0.112 mm)
(Z_Move: 1.999 mm)
(Z Toolchange: 12.7 mm)
(X,Y Toolchange: 0.0000, 0.0000 mm)
(Z Start: None mm)
(Z End: 12.7 mm)
(Steps per circle: 128)
(Postprocessor Geometry: grbl_11)

(X range:  -83.2848 ...   -2.0121  mm)
(Y range:  -71.9400 ...   -3.0816  mm)

(Spindle Speed: 30 RPM)


G21
G90
G94
G17

G01 F80.00
G00 Z1.9990

M03 S30
G00 X-4.0121 Y-17.3207
G01 F80.00
G01 Z-0.1120
G01 F80.00
G01 X-4.0121 Y-17.4978 F80.00
G01 X-3.9775 Y-17.5670 F80.00
G01 X-3.9612 Y-17.5751 F80.00
G01 X-4.0121 Y-17.3207 F80.00
G00 Z1.9990
G00 X-3.0887 Y-17.6016
G01 F80.00
G01 Z-0.1120
G01 F80.00
G01 X-3.3060 Y-16.5148 F80.00
G01 X-3.3159 Y-16.4755 F80.00
G01 X-3.3232 Y-16.4534 F80.00
G01 X-3.3388 Y-16.4161 F80.00
G01 X-3.3578 Y-16.3804 F80.00
G01 X-3.3703 Y-16.3607 F80.00
G01 X-3.3945 Y-16.3282 F80.00
G01 X-3.4216 Y-16.2982 F80.00
G01 X-3.4385 Y-16.2822 F80.00
G01 X-3.4534 Y-16.2694 F80.00
G01 X-3.4708 Y-16.2558 F80.00
G01 X-3.5035 Y-16.2340 F80.00
G01 X-3.5216 Y-16.2237 F80.00
G01 X-3.5413 Y-16.2137 F80.00
G01 X-3.5615 Y-16.2048 F80.00
G01 X-3.5985 Y-16.1916 F80.00
G01 X-3.6197 Y-16.1857 F80.00
G01 X-3.6413 Y-16.1809 F80.00
G01 X-3.6801 Y-16.1752 F80.00
G01 X-3.7021 Y-16.1735 F80.00
G01 X-3.7224 Y-16.1730 F80.00
G01 X-4.0093 Y-16.1730 F80.00
G01 X-4.0306 Y-16.1735 F80.00
G01 X-4.0524 Y-16.1752 F80.00
G01 X-4.0741 Y-16.1781 F80.00
G01 X-4.0957 Y-16.1820 F80.00
G01 X-4.1170 Y-16.1870 F80.00
G01 X-4.1380 Y-16.1931 F80.00
G01 X-4.1587 Y-16.2003 F80.00
G01 X-4.1802 Y-16.2091 F80.00
G01 X-4.4845 Y-16.3607 F80.00
G01 X-4.5031 Y-16.3706 F80.00
G01 X-4.5212 Y-16.3814 F80.00
G01 X-4.5397 Y-16.3938 F80.00
G01 X-4.5710 Y-16.4181 F80.00
G01 X-4.5866 Y-16.4322 F80.00
G01 X-4.6024 Y-16.4479 F80.00
G01 X-4.6165 Y-16.4635 F80.00
G01 X-4.6299 Y-16.4798 F80.00
G01 X-4.6424 Y-16.4967 F80.00
G01 X-4.6547 Y-16.5153 F80.00
G01 X-4.6744 Y-16.5503 F80.00
G01 X-4.8178 Y-16.8372 F80.00
G01 X-4.8273 Y-16.8576 F80.00
G01 X-4.8351 Y-16.8767 F80.00
G01 X-4.8419 Y-16.8962 F80.00
G01 X-4.8484 Y-16.9184 F80.00
G01 X-4.8534 Y-16.9397 F80.00
G01 X-4.8574 Y-16.9613 F80.00
G01 X-4.8602 Y-16.9830 F80.00
G01 X-4.8619 Y-17.0048 F80.00
G01 X-4.8624 Y-17.0261 F80.00
G01 X-4.8624 Y-17.5995 F80.00
G01 X-4.8619 Y-17.6201 F80.00
G01 X-4.8602 Y-17.6419 F80.00
G01 X-4.8574 Y-17.6636 F80.00
G01 X-4.8534 Y-17.6852 F80.00
G01 X-4.8484 Y-17.7065 F80.00
G01 X-4.8423 Y-17.7275 F80.00
G01 X-4.8351 Y-17.7482 F80.00
G01 X-4.8268 Y-17.7685 F80.00
G01 X-4.8176 Y-17.7883 F80.00
G01 X-4.6648 Y-18.0926 F80.00
G01 X-4.6540 Y-18.1107 F80.00
G01 X-4.6417 Y-18.1292 F80.00
G01 X-4.6173 Y-18.1605 F80.00
G01 X-4.6032 Y-18.1761 F80.00
G01 X-4.5866 Y-18.1927 F80.00
G01 X-4.5719 Y-18.2060 F80.00
G01 X-4.5547 Y-18.2201 F80.00
G01 X-4.5212 Y-18.2435 F80.00
G01 X-4.5031 Y-18.2543 F80.00
G01 X-4.4851 Y-18.2639 F80.00
G01 X-4.1988 Y-18.4070 F80.00
G01 X-4.1790 Y-18.4163 F80.00
G01 X-4.1575 Y-18.4250 F80.00
G01 X-4.1380 Y-18.4318 F80.00
G01 X-4.1182 Y-18.4376 F80.00
G01 X-4.0957 Y-18.4429 F80.00
G01 X-4.0741 Y-18.4469 F80.00
G01 X-4.0511 Y-18.4498 F80.00
G01 X-4.0306 Y-18.4514 F80.00
G01 X-4.0087 Y-18.4519 F80.00
G01 X-2.8658 Y-18.4519 F80.00
G01 X-2.8439 Y-18.4514 F80.00
G01 X-2.8221 Y-18.4497 F80.00
G01 X-2.8004 Y-18.4469 F80.00
G01 X-2.7788 Y-18.4429 F80.00
G01 X-2.7588 Y-18.4382 F80.00
G01 X-2.7353 Y-18.4314 F80.00
G01 X-2.7158 Y-18.4246 F80.00
G01 X-2.6943 Y-18.4158 F80.00
G01 X-2.3900 Y-18.2642 F80.00
G01 X-2.3714 Y-18.2543 F80.00
G01 X-2.3533 Y-18.2435 F80.00
G01 X-2.3348 Y-18.2311 F80.00
G01 X-2.3035 Y-18.2068 F80.00
G01 X-2.2879 Y-18.1927 F80.00
G01 X-2.2713 Y-18.1761 F80.00
G01 X-2.2446 Y-18.1451 F80.00
G01 X-2.2211 Y-18.1117 F80.00
G01 X-2.2091 Y-18.0915 F80.00
G01 X-2.0564 Y-17.7872 F80.00
G01 X-2.0477 Y-17.7685 F80.00
G01 X-2.0394 Y-17.7482 F80.00
G01 X-2.0322 Y-17.7275 F80.00
G01 X-2.0258 Y-17.7052 F80.00
G01 X-2.0211 Y-17.6852 F80.00
G01 X-2.0174 Y-17.6649 F80.00
G01 X-2.0145 Y-17.6432 F80.00
G01 X-2.0126 Y-17.6201 F80.00
G01 X-2.0121 Y-17.5982 F80.00
G01 X-2.0121 Y-17.0261 F80.00
G01 X-2.0126 Y-17.0048 F80.00
G01 X-2.0143 Y-16.9830 F80.00
G01 X-2.0171 Y-16.9613 F80.00
G01 X-2.0213 Y-16.9385 F80.00
G01 X-2.0261 Y-16.9184 F80.00
G01 X-2.0322 Y-16.8974 F80.00
G01 X-2.0394 Y-16.8767 F80.00
G01 X-2.0482 Y-16.8553 F80.00
G01 X-2.0570 Y-16.8366 F80.00
G01 X-2.2096 Y-16.5324 F80.00
G01 X-2.2203 Y-16.5145 F80.00
G01 X-2.2325 Y-16.4961 F80.00
G01 X-2.2450 Y-16.4794 F80.00
G01 X-2.2706 Y-16.4496 F80.00
G01 X-2.2861 Y-16.4339 F80.00
G01 X-2.3015 Y-16.4198 F80.00
G01 X-2.3176 Y-16.4065 F80.00
G01 X-2.3344 Y-16.3941 F80.00
G01 X-2.3517 Y-16.3824 F80.00
G01 X-2.3695 Y-16.3716 F80.00
G01 X-2.3879 Y-16.3618 F80.00
G01 X-2.4068 Y-16.3528 F80.00
G01 X-2.4260 Y-16.3447 F80.00
G01 X-2.4457 Y-16.3377 F80.00
G01 X-2.4656 Y-16.3315 F80.00
G01 X-2.4870 Y-16.3262 F80.00
G01 X-2.5063 Y-16.3223 F80.00
G01 X-2.5282 Y-16.3190 F80.00
G01 X-2.5489 Y-16.3170 F80.00
G01 X-2.5882 Y-16.3159 F80.00
G01 X-2.6103 Y-16.3169 F80.00
G01 X-2.6310 Y-16.3189 F80.00
G01 X-2.6710 Y-16.3257 F80.00
G01 X-2.6924 Y-16.3309 F80.00
G01 X-2.7124 Y-16.3369 F80.00
G01 X-2.7321 Y-16.3439 F80.00
G01 X-2.7514 Y-16.3519 F80.00
G01 X-2.7703 Y-16.3607 F80.00
G01 X-2.7887 Y-16.3705 F80.00
G01 X-2.8066 Y-16.3812 F80.00
G01 X-2.8240 Y-16.3927 F80.00
G01 X-2.8408 Y-16.4051 F80.00
G01 X-2.8570 Y-16.4183 F80.00
G01 X-2.8725 Y-16.4323 F80.00
G01 X-2.8873 Y-16.4470 F80.00
G01 X-2.9013 Y-16.4624 F80.00
G01 X-2.9146 Y-16.4785 F80.00
G01 X-2.9271 Y-16.4953 F80.00
G01 X-2.9387 Y-16.5126 F80.00
G01 X-2.9588 Y-16.5478 F80.00
G01 X-2.9688 Y-16.5688 F80.00
G01 X-2.9835 Y-16.6066 F80.00
G01 X-2.9944 Y-16.6456 F80.00
G01 X-2.9990 Y-16.6684 F80.00
G01 X-3.0041 Y-16.7086 F80.00
G01 X-3.0052 Y-16.7307 F80.00
G01 X-3.0042 Y-16.7712 F80.00
G01 X-2.9994 Y-16.8114 F80.00
G01 X-2.9952 Y-16.8331 F80.00
G01 X-2.9846 Y-16.8721 F80.00
G01 X-2.9768 Y-16.8941 F80.00
G01 X-2.9607 Y-16.9306 F80.00
G01 X-2.8624 Y-17.1271 F80.00
G01 X-2.8624 Y-17.4978 F80.00
G01 X-2.8970 Y-17.5670 F80.00
G01 X-2.9662 Y-17.6016 F80.00
G01 X-3.0887 Y-17.6016 F80.00
G00 Z1.9990
G00 X-3.9373 Y-20.0157
G01 F80.00
G01 Z-0.1120
G01 F80.00
G01 X-3.9775 Y-19.9955 F80.00
G01 X-4.0121 Y-19.9264 F80.00
G01 X-4.0121 Y-19.6985 F80.00
G01 X-3.9052 Y-19.4837 F80.00
G01 X-3.8973 Y-19.4644 F80.00
G01 X-3.8899 Y-19.4436 F80.00
G01 X-3.8796 Y-19.4057 F80.00
G01 X-3.8753 Y-19.3840 F80.00
G01 X-3.8721 Y-19.3622 F80.00
G01 X-3.8693 Y-19.3218 F80.00
G01 X-3.8704 Y-19.2813 F80.00
G01 X-3.8727 Y-19.2581 F80.00
G01 X-3.8798 Y-19.2182 F80.00
G01 X-3.8907 Y-19.1792 F80.00
G01 X-3.8986 Y-19.1572 F80.00
G01 X-3.9151 Y-19.1203 F80.00
G01 X-3.9250 Y-19.1019 F80.00
G01 X-3.9358 Y-19.0840 F80.00
G01 X-3.9474 Y-19.0667 F80.00
G01 X-3.9599 Y-19.0500 F80.00
G01 X-3.9732 Y-19.0339 F80.00
G01 X-3.9872 Y-19.0184 F80.00
G01 X-4.0020 Y-19.0037 F80.00
G01 X-4.0175 Y-18.9898 F80.00
G01 X-4.0337 Y-18.9766 F80.00
G01 X-4.0505 Y-18.9642 F80.00
G01 X-4.0679 Y-18.9526 F80.00
G01 X-4.0858 Y-18.9419 F80.00
G01 X-4.1042 Y-18.9322 F80.00
G01 X-4.1231 Y-18.9233 F80.00
G01 X-4.1424 Y-18.9154 F80.00
G01 X-4.1621 Y-18.9084 F80.00
G01 X-4.1821 Y-18.9024 F80.00
G01 X-4.2024 Y-18.8974 F80.00
G01 X-4.2228 Y-18.8933 F80.00
G01 X-4.2435 Y-18.8903 F80.00
G01 X-4.2643 Y-18.8883 F80.00
G01 X-4.2851 Y-18.8874 F80.00
G01 X-4.3060 Y-18.8874 F80.00
G01 X-4.3268 Y-18.8885 F80.00
G01 X-4.3476 Y-18.8906 F80.00
G01 X-4.3682 Y-18.8937 F80.00
G01 X-4.3887 Y-18.8979 F80.00
G01 X-4.4089 Y-18.9030 F80.00
G01 X-4.4289 Y-18.9091 F80.00
G01 X-4.4485 Y-18.9162 F80.00
G01 X-4.4677 Y-18.9242 F80.00
G01 X-4.4866 Y-18.9332 F80.00
G01 X-4.5060 Y-18.9437 F80.00
G01 X-4.5391 Y-18.9648 F80.00
G01 X-4.5569 Y-18.9780 F80.00
G01 X-4.5739 Y-18.9921 F80.00
G01 X-4.6023 Y-19.0192 F80.00
G01 X-4.6171 Y-19.0356 F80.00
G01 X-4.6310 Y-19.0527 F80.00
G01 X-4.6536 Y-19.0849 F80.00
G01 X-4.6649 Y-19.1039 F80.00
G01 X-4.6747 Y-19.1223 F80.00
G01 X-4.8178 Y-19.4086 F80.00
G01 X-4.8268 Y-19.4279 F80.00
G01 X-4.8346 Y-19.4469 F80.00
G01 X-4.8423 Y-19.4688 F80.00
G01 X-4.8484 Y-19.4899 F80.00
G01 X-4.8532 Y-19.5099 F80.00
G01 X-4.8574 Y-19.5327 F80.00
G01 X-4.8603 Y-19.5557 F80.00
G01 X-4.8619 Y-19.5763 F80.00
G01 X-4.8624 Y-19.5975 F80.00
G01 X-4.8624 Y-20.0274 F80.00
G01 X-4.8619 Y-20.0486 F80.00
G01 X-4.8602 Y-20.0705 F80.00
G01 X-4.8574 Y-20.0922 F80.00
G01 X-4.8535 Y-20.1137 F80.00
G01 X-4.8484 Y-20.1351 F80.00
G01 X-4.8423 Y-20.1561 F80.00
G01 X-4.8351 Y-20.1768 F80.00
G01 X-4.8263 Y-20.1982 F80.00
G01 X-4.6744 Y-20.5032 F80.00
G01 X-4.6547 Y-20.5382 F80.00
G01 X-4.6424 Y-20.5568 F80.00
G01 X-4.6173 Y-20.5890 F80.00
G01 X-4.6015 Y-20.6065 F80.00
G01 X-4.5719 Y-20.6346 F80.00
G01 X-4.5397 Y-20.6597 F80.00
G01 X-4.5202 Y-20.6727 F80.00
G01 X-4.4856 Y-20.6922 F80.00
G01 X-4.1802 Y-20.8444 F80.00
G01 X-4.1587 Y-20.8532 F80.00
G01 X-4.1380 Y-20.8604 F80.00
G01 X-4.1170 Y-20.8665 F80.00
G01 X-4.0969 Y-20.8712 F80.00
G01 X-4.0729 Y-20.8756 F80.00
G01 X-4.0524 Y-20.8782 F80.00
G01 X-4.0293 Y-20.8800 F80.00
G01 X-4.0087 Y-20.8805 F80.00
G01 X-3.8452 Y-20.8800 F80.00
G01 X-3.8221 Y-20.8782 F80.00
G01 X-3.7991 Y-20.8752 F80.00
G01 X-3.7788 Y-20.8715 F80.00
G01 X-3.7588 Y-20.8668 F80.00
G01 X-3.7365 Y-20.8604 F80.00
G01 X-3.7146 Y-20.8527 F80.00
G01 X-3.6955 Y-20.8449 F80.00
G01 X-3.6763 Y-20.8359 F80.00
G01 X-3.3714 Y-20.6829 F80.00
G01 X-3.3523 Y-20.6714 F80.00
G01 X-3.3189 Y-20.6479 F80.00
G01 X-3.2879 Y-20.6213 F80.00
G01 X-3.2713 Y-20.6047 F80.00
G01 X-3.2572 Y-20.5890 F80.00
G01 X-3.2329 Y-20.5578 F80.00
G01 X-3.2205 Y-20.5393 F80.00
G01 X-3.2091 Y-20.5201 F80.00
G01 X-3.0567 Y-20.2163 F80.00
G01 X-3.0472 Y-20.1959 F80.00
G01 X-3.0394 Y-20.1768 F80.00
G01 X-3.0326 Y-20.1573 F80.00
G01 X-3.0261 Y-20.1351 F80.00
G01 X-3.0208 Y-20.1125 F80.00
G01 X-3.0171 Y-20.0922 F80.00
G01 X-3.0145 Y-20.0718 F80.00
G01 X-3.0126 Y-20.0486 F80.00
G01 X-3.0121 Y-20.0267 F80.00
G01 X-3.0121 Y-19.6985 F80.00
G01 X-2.9775 Y-19.6294 F80.00
G01 X-2.9373 Y-19.6093 F80.00
G01 X-2.8970 Y-19.6294 F80.00
G01 X-2.8624 Y-19.6985 F80.00
G01 X-2.8624 Y-20.0692 F80.00
G01 X-2.9693 Y-20.2841 F80.00
G01 X-2.9772 Y-20.3034 F80.00
G01 X-2.9846 Y-20.3242 F80.00
G01 X-2.9949 Y-20.3621 F80.00
G01 X-2.9992 Y-20.3837 F80.00
G01 X-3.0024 Y-20.4056 F80.00
G01 X-3.0052 Y-20.4460 F80.00
G01 X-3.0041 Y-20.4865 F80.00
G01 X-3.0018 Y-20.5097 F80.00
G01 X-2.9947 Y-20.5496 F80.00
G01 X-2.9839 Y-20.5886 F80.00
G01 X-2.9759 Y-20.6105 F80.00
G01 X-2.9599 Y-20.6464 F80.00
G01 X-2.9495 Y-20.6659 F80.00
G01 X-2.9387 Y-20.6838 F80.00
G01 X-2.9271 Y-20.7011 F80.00
G01 X-2.9146 Y-20.7178 F80.00
G01 X-2.9013 Y-20.7339 F80.00
G01 X-2.8873 Y-20.7493 F80.00
G01 X-2.8725 Y-20.7640 F80.00
G01 X-2.8560 Y-20.7788 F80.00
G01 X-2.8408 Y-20.7912 F80.00
G01 X-2.8230 Y-20.8043 F80.00
G01 X-2.7898 Y-20.8252 F80.00
G01 X-2.7714 Y-20.8351 F80.00
G01 X-2.7514 Y-20.8445 F80.00
G01 X-2.7321 Y-20.8524 F80.00
G01 X-2.7124 Y-20.8594 F80.00
G01 X-2.6924 Y-20.8654 F80.00
G01 X-2.6722 Y-20.8704 F80.00
G01 X-2.6517 Y-20.8744 F80.00
G01 X-2.6310 Y-20.8774 F80.00
G01 X-2.6090 Y-20.8795 F80.00
G01 X-2.5882 Y-20.8804 F80.00
G01 X-2.5489 Y-20.8793 F80.00
G01 X-2.5269 Y-20.8772 F80.00
G01 X-2.5075 Y-20.8742 F80.00
G01 X-2.4858 Y-20.8699 F80.00
G01 X-2.4656 Y-20.8648 F80.00
G01 X-2.4457 Y-20.8587 F80.00
G01 X-2.4260 Y-20.8516 F80.00
G01 X-2.4068 Y-20.8436 F80.00
G01 X-2.3879 Y-20.8346 F80.00
G01 X-2.3695 Y-20.8247 F80.00
G01 X-2.3507 Y-20.8133 F80.00
G01 X-2.3344 Y-20.8023 F80.00
G01 X-2.3167 Y-20.7890 F80.00
G01 X-2.2870 Y-20.7633 F80.00
G01 X-2.2722 Y-20.7486 F80.00
G01 X-2.2574 Y-20.7322 F80.00
G01 X-2.2442 Y-20.7160 F80.00
G01 X-2.2318 Y-20.6992 F80.00
G01 X-2.2196 Y-20.6808 F80.00
G01 X-2.1998 Y-20.6455 F80.00
G01 X-2.0567 Y-20.3592 F80.00
G01 X-2.0477 Y-20.3399 F80.00
G01 X-2.0394 Y-20.3196 F80.00
G01 X-2.0322 Y-20.2989 F80.00
G01 X-2.0258 Y-20.2767 F80.00
G01 X-2.0211 Y-20.2566 F80.00
G01 X-2.0174 Y-20.2363 F80.00
G01 X-2.0145 Y-20.2146 F80.00
G01 X-2.0126 Y-20.1915 F80.00
G01 X-2.0121 Y-20.1709 F80.00
G01 X-2.0121 Y-19.5982 F80.00
G01 X-2.0126 Y-19.5763 F80.00
G01 X-2.0145 Y-19.5532 F80.00
G01 X-2.0171 Y-19.5327 F80.00
G01 X-2.0208 Y-19.5124 F80.00
G01 X-2.0261 Y-19.4899 F80.00
G01 X-2.0322 Y-19.4688 F80.00
G01 X-2.0394 Y-19.4481 F80.00
G01 X-2.0477 Y-19.4279 F80.00
G01 X-2.0564 Y-19.4092 F80.00
G01 X-2.1998 Y-19.1223 F80.00
G01 X-2.2103 Y-19.1027 F80.00
G01 X-2.2205 Y-19.0856 F80.00
G01 X-2.2329 Y-19.0671 F80.00
G01 X-2.2572 Y-19.0359 F80.00
G01 X-2.2713 Y-19.0202 F80.00
G01 X-2.2870 Y-19.0045 F80.00
G01 X-2.3026 Y-18.9903 F80.00
G01 X-2.3189 Y-18.9770 F80.00
G01 X-2.3368 Y-18.9638 F80.00
G01 X-2.3703 Y-18.9427 F80.00
G01 X-2.3894 Y-18.9324 F80.00
G01 X-2.6763 Y-18.7890 F80.00
G01 X-2.6955 Y-18.7800 F80.00
G01 X-2.7158 Y-18.7718 F80.00
G01 X-2.7365 Y-18.7646 F80.00
G01 X-2.7575 Y-18.7584 F80.00
G01 X-2.7788 Y-18.7534 F80.00
G01 X-2.8004 Y-18.7495 F80.00
G01 X-2.8221 Y-18.7467 F80.00
G01 X-2.8439 Y-18.7450 F80.00
G01 X-3.0087 Y-18.7444 F80.00
G01 X-3.0319 Y-18.7451 F80.00
G01 X-3.0524 Y-18.7467 F80.00
G01 X-3.0729 Y-18.7493 F80.00
G01 X-3.0957 Y-18.7534 F80.00
G01 X-3.1170 Y-18.7584 F80.00
G01 X-3.1380 Y-18.7646 F80.00
G01 X-3.1587 Y-18.7718 F80.00
G01 X-3.1790 Y-18.7800 F80.00
G01 X-3.1983 Y-18.7890 F80.00
G01 X-3.4845 Y-18.9322 F80.00
G01 X-3.5202 Y-18.9522 F80.00
G01 X-3.5387 Y-18.9645 F80.00
G01 X-3.5556 Y-18.9770 F80.00
G01 X-3.5719 Y-18.9903 F80.00
G01 X-3.5884 Y-19.0053 F80.00
G01 X-3.6024 Y-19.0193 F80.00
G01 X-3.6173 Y-19.0359 F80.00
G01 X-3.6417 Y-19.0671 F80.00
G01 X-3.6534 Y-19.0846 F80.00
G01 X-3.6648 Y-19.1037 F80.00
G01 X-3.6747 Y-19.1223 F80.00
G01 X-3.8178 Y-19.4086 F80.00
G01 X-3.8268 Y-19.4279 F80.00
G01 X-3.8346 Y-19.4469 F80.00
G01 X-3.8427 Y-19.4701 F80.00
G01 X-3.8487 Y-19.4911 F80.00
G01 X-3.8534 Y-19.5112 F80.00
G01 X-3.8572 Y-19.5314 F80.00
G01 X-3.8602 Y-19.5544 F80.00
G01 X-3.8619 Y-19.5763 F80.00
G01 X-3.8624 Y-19.5982 F80.00
G01 X-3.8624 Y-19.9264 F80.00
G01 X-3.8970 Y-19.9955 F80.00
G01 X-3.9373 Y-20.0157 F80.00
G00 Z1.9990
G00 X-2.8624 Y-22.1662
G01 F80.00
G01 Z-0.1120
G01 F80.00
G01 X-3.1549 Y-22.1662 F80.00
G01 X-3.1549 Y-22.6407 F80.00
G01 X-3.1203 Y-22.7098 F80.00
G01 X-3.0512 Y-22.7444 F80.00
G01 X-2.9662 Y-22.7444 F80.00
G01 X-2.8970 Y-22.7098 F80.00
G01 X-2.8624 Y-22.6407 F80.00
G01 X-2.8624 Y-22.1662 F80.00
G00 Z1.9990
G00 X-4.0053 Y-22.6542
G01 F80.00
G01 Z-0.1120
G01 F80.00
G01 X-4.0053 Y-22.2564 F80.00
G01 X-4.0121 Y-22.2700 F80.00
G01 X-4.0121 Y-22.6407 F80.00
G01 X-4.0053 Y-22.6542 F80.00
G00 Z1.9990
G00 X-3.8757 Y-23.1006
G01 F80.00
G01 Z-0.1120
G01 F80.00
G01 X-3.8170 Y-23.2180 F80.00
G01 X-3.8071 Y-23.2365 F80.00
G01 X-3.7859 Y-23.2700 F80.00
G01 X-3.7720 Y-23.2890 F80.00
G01 X-3.7453 Y-23.3199 F80.00
G01 X-3.7157 Y-23.3481 F80.00
G01 X-3.6975 Y-23.3630 F80.00
G01 X-3.6641 Y-23.3864 F80.00
G01 X-3.6285 Y-23.4065 F80.00
G01 X-3.3405 Y-23.5505 F80.00
G01 X-3.3219 Y-23.5592 F80.00
G01 X-3.3028 Y-23.5670 F80.00
G01 X-3.2809 Y-23.5746 F80.00
G01 X-3.2586 Y-23.5811 F80.00
G01 X-3.2385 Y-23.5858 F80.00
G01 X-3.2170 Y-23.5897 F80.00
G01 X-3.1940 Y-23.5926 F80.00
G01 X-3.1734 Y-23.5942 F80.00
G01 X-3.1522 Y-23.5948 F80.00
G01 X-2.8645 Y-23.5948 F80.00
G01 X-2.8426 Y-23.5941 F80.00
G01 X-2.8221 Y-23.5925 F80.00
G01 X-2.8017 Y-23.5899 F80.00
G01 X-2.7788 Y-23.5858 F80.00
G01 X-2.7575 Y-23.5808 F80.00
G01 X-2.7365 Y-23.5746 F80.00
G01 X-2.7158 Y-23.5674 F80.00
G01 X-2.6955 Y-23.5592 F80.00
G01 X-2.6768 Y-23.5505 F80.00
G01 X-2.3894 Y-23.4068 F80.00
G01 X-2.3544 Y-23.3870 F80.00
G01 X-2.3358 Y-23.3747 F80.00
G01 X-2.3179 Y-23.3614 F80.00
G01 X-2.2870 Y-23.3347 F80.00
G01 X-2.2713 Y-23.3190 F80.00
G01 X-2.2447 Y-23.2880 F80.00
G01 X-2.2314 Y-23.2700 F80.00
G01 X-2.2097 Y-23.2355 F80.00
G01 X-2.0570 Y-22.9312 F80.00
G01 X-2.0477 Y-22.9113 F80.00
G01 X-2.0394 Y-22.8911 F80.00
G01 X-2.0322 Y-22.8704 F80.00
G01 X-2.0264 Y-22.8506 F80.00
G01 X-2.0211 Y-22.8280 F80.00
G01 X-2.0174 Y-22.8077 F80.00
G01 X-2.0142 Y-22.7835 F80.00
G01 X-2.0126 Y-22.7629 F80.00
G01 X-2.0121 Y-22.7410 F80.00
G01 X-2.0121 Y-22.0255 F80.00
G01 X-2.0126 Y-22.0048 F80.00
G01 X-2.0142 Y-21.9843 F80.00
G01 X-2.0174 Y-21.9600 F80.00
G01 X-2.0211 Y-21.9397 F80.00
G01 X-2.0261 Y-21.9184 F80.00
G01 X-2.0368 Y-21.8840 F80.00
G01 X-2.0304 Y-21.8645 F80.00
G01 X-2.0248 Y-21.8443 F80.00
G01 X-2.0202 Y-21.8240 F80.00
G01 X-2.0165 Y-21.8022 F80.00
G01 X-2.0141 Y-21.7827 F80.00
G01 X-2.0125 Y-21.7607 F80.00
G01 X-2.0125 Y-21.7214 F80.00
G01 X-2.0140 Y-21.7006 F80.00
G01 X-2.0169 Y-21.6774 F80.00
G01 X-2.0248 Y-21.6377 F80.00
G01 X-2.0365 Y-21.5989 F80.00
G01 X-2.0449 Y-21.5772 F80.00
G01 X-2.0623 Y-21.5406 F80.00
G01 X-2.0831 Y-21.5058 F80.00
G01 X-2.0965 Y-21.4868 F80.00
G01 X-2.1086 Y-21.4713 F80.00
G01 X-2.1230 Y-21.4546 F80.00
G01 X-2.1517 Y-21.4260 F80.00
G01 X-2.1675 Y-21.4124 F80.00
G01 X-2.1840 Y-21.3995 F80.00
G01 X-2.2010 Y-21.3875 F80.00
G01 X-2.2187 Y-21.3763 F80.00
G01 X-2.2368 Y-21.3660 F80.00
G01 X-2.2555 Y-21.3567 F80.00
G01 X-2.2745 Y-21.3482 F80.00
G01 X-2.2940 Y-21.3407 F80.00
G01 X-2.3138 Y-21.3341 F80.00
G01 X-2.3339 Y-21.3286 F80.00
G01 X-2.3543 Y-21.3240 F80.00
G01 X-2.3749 Y-21.3204 F80.00
G01 X-2.4152 Y-21.3164 F80.00
G01 X-2.4373 Y-21.3158 F80.00
G01 X-4.0087 Y-21.3158 F80.00
G01 X-4.0306 Y-21.3164 F80.00
G01 X-4.0524 Y-21.3181 F80.00
G01 X-4.0741 Y-21.3209 F80.00
G01 X-4.0957 Y-21.3248 F80.00
G01 X-4.1158 Y-21.3296 F80.00
G01 X-4.1392 Y-21.3364 F80.00
G01 X-4.1587 Y-21.3432 F80.00
G01 X-4.1802 Y-21.3520 F80.00
G01 X-4.4845 Y-21.5036 F80.00
G01 X-4.5031 Y-21.5135 F80.00
G01 X-4.5212 Y-21.5242 F80.00
G01 X-4.5397 Y-21.5366 F80.00
G01 X-4.5710 Y-21.5610 F80.00
G01 X-4.5875 Y-21.5759 F80.00
G01 X-4.6157 Y-21.6054 F80.00
G01 X-4.6306 Y-21.6236 F80.00
G01 X-4.6540 Y-21.6571 F80.00
G01 X-4.6648 Y-21.6752 F80.00
G01 X-4.6744 Y-21.6932 F80.00
G01 X-4.8176 Y-21.9794 F80.00
G01 X-4.8268 Y-21.9993 F80.00
G01 X-4.8351 Y-22.0196 F80.00
G01 X-4.8427 Y-22.0415 F80.00
G01 X-4.8484 Y-22.0613 F80.00
G01 X-4.8532 Y-22.0813 F80.00
G01 X-4.8572 Y-22.1029 F80.00
G01 X-4.8603 Y-22.1272 F80.00
G01 X-4.8619 Y-22.1477 F80.00
G01 X-4.8624 Y-22.1690 F80.00
G01 X-4.8619 Y-22.7616 F80.00
G01 X-4.8602 Y-22.7848 F80.00
G01 X-4.8574 Y-22.8065 F80.00
G01 X-4.8534 Y-22.8280 F80.00
G01 X-4.8487 Y-22.8481 F80.00
G01 X-4.8419 Y-22.8716 F80.00
G01 X-4.8351 Y-22.8911 F80.00
G01 X-4.8263 Y-22.9125 F80.00
G01 X-4.8176 Y-22.9312 F80.00
G01 X-4.6655 Y-23.2342 F80.00
G01 X-4.6542 Y-23.2533 F80.00
G01 X-4.6427 Y-23.2706 F80.00
G01 X-4.6303 Y-23.2874 F80.00
G01 X-4.6171 Y-23.3036 F80.00
G01 X-4.5893 Y-23.3330 F80.00
G01 X-4.5720 Y-23.3487 F80.00
G01 X-4.5402 Y-23.3737 F80.00
G01 X-4.5228 Y-23.3854 F80.00
G01 X-4.5050 Y-23.3961 F80.00
G01 X-4.4689 Y-23.4145 F80.00
G01 X-4.4473 Y-23.4235 F80.00
G01 X-4.4089 Y-23.4362 F80.00
G01 X-4.3694 Y-23.4452 F80.00
G01 X-4.3476 Y-23.4486 F80.00
G01 X-4.3268 Y-23.4507 F80.00
G01 X-4.3060 Y-23.4518 F80.00
G01 X-4.2851 Y-23.4518 F80.00
G01 X-4.2643 Y-23.4509 F80.00
G01 X-4.2435 Y-23.4489 F80.00
G01 X-4.2228 Y-23.4459 F80.00
G01 X-4.2024 Y-23.4418 F80.00
G01 X-4.1821 Y-23.4368 F80.00
G01 X-4.1621 Y-23.4308 F80.00
G01 X-4.1424 Y-23.4238 F80.00
G01 X-4.1231 Y-23.4159 F80.00
G01 X-4.1042 Y-23.4070 F80.00
G01 X-4.0858 Y-23.3973 F80.00
G01 X-4.0679 Y-23.3866 F80.00
G01 X-4.0505 Y-23.3750 F80.00
G01 X-4.0337 Y-23.3626 F80.00
G01 X-4.0175 Y-23.3494 F80.00
G01 X-4.0020 Y-23.3355 F80.00
G01 X-3.9872 Y-23.3208 F80.00
G01 X-3.9732 Y-23.3053 F80.00
G01 X-3.9599 Y-23.2892 F80.00
G01 X-3.9474 Y-23.2725 F80.00
G01 X-3.9358 Y-23.2552 F80.00
G01 X-3.9250 Y-23.2373 F80.00
G01 X-3.9151 Y-23.2189 F80.00
G01 X-3.9062 Y-23.2001 F80.00
G01 X-3.8981 Y-23.1808 F80.00
G01 X-3.8910 Y-23.1612 F80.00
G01 X-3.8849 Y-23.1412 F80.00
G01 X-3.8798 Y-23.1210 F80.00
G01 X-3.8757 Y-23.1006 F80.00
G00 Z1.9990
G00 X-3.5835 Y-25.0957
G01 F80.00
G01 Z-0.1120
G01 F80.00
G01 X-3.5835 Y-25.6016 F80.00
G01 X-2.8624 Y-25.6016 F80.00
G01 X-2.8624 Y-24.9843 F80.00
G01 X-2.9296 Y-24.8500 F80.00
G01 X-2.9748 Y-24.8048 F80.00
G01 X-3.1091 Y-24.7376 F80.00
G01 X-3.3369 Y-24.7376 F80.00
G01 X-3.4711 Y-24.8048 F80.00
G01 X-3.4942 Y-24.8278 F80.00
G01 X-3.5835 Y-25.0957 F80.00
G00 Z1.9990
G00 X-4.4339 Y-25.6016
G01 F80.00
G01 Z-0.1120
G01 F80.00
G01 X-4.4339 Y-25.1271 F80.00
G01 X-4.5010 Y-24.9929 F80.00
G01 X-4.5463 Y-24.9476 F80.00
G01 X-4.6805 Y-24.8805 F80.00
G01 X-4.7655 Y-24.8805 F80.00
G01 X-4.8997 Y-24.9476 F80.00
G01 X-4.9450 Y-24.9929 F80.00
G01 X-5.0121 Y-25.1271 F80.00
G01 X-5.0121 Y-25.6016 F80.00
G01 X-4.4339 Y-25.6016 F80.00
G00 Z1.9990
G00 X-5.5190 Y-26.4440
G01 F80.00
G01 Z-0.1120
G01 F80.00
G01 X-5.4789 Y-26.4499 F80.00
G01 X-5.4581 Y-26.4514 F80.00
G01 X-5.4373 Y-26.4519 F80.00
G01 X-2.4366 Y-26.4519 F80.00
G01 X-2.3968 Y-26.4500 F80.00
G01 X-2.3749 Y-26.4473 F80.00
G01 X-2.3531 Y-26.4435 F80.00
G01 X-2.3150 Y-26.4340 F80.00
G01 X-2.2940 Y-26.4271 F80.00
G01 X-2.2734 Y-26.4191 F80.00
G01 X-2.2379 Y-26.4023 F80.00
G01 X-2.2176 Y-26.3908 F80.00
G01 X-2.2000 Y-26.3796 F80.00
G01 X-2.1685 Y-26.3562 F80.00
G01 X-2.1517 Y-26.3418 F80.00
G01 X-2.1375 Y-26.3283 F80.00
G01 X-2.1222 Y-26.3123 F80.00
G01 X-2.1086 Y-26.2965 F80.00
G01 X-2.0957 Y-26.2800 F80.00
G01 X-2.0837 Y-26.2630 F80.00
G01 X-2.0726 Y-26.2453 F80.00
G01 X-2.0617 Y-26.2261 F80.00
G01 X-2.0449 Y-26.1906 F80.00
G01 X-2.0374 Y-26.1711 F80.00
G01 X-2.0304 Y-26.1502 F80.00
G01 X-2.0248 Y-26.1301 F80.00
G01 X-2.0202 Y-26.1097 F80.00
G01 X-2.0167 Y-26.0891 F80.00
G01 X-2.0140 Y-26.0672 F80.00
G01 X-2.0121 Y-26.0267 F80.00
G01 X-2.0121 Y-24.8839 F80.00
G01 X-2.0126 Y-24.8620 F80.00
G01 X-2.0143 Y-24.8402 F80.00
G01 X-2.0171 Y-24.8184 F80.00
G01 X-2.0208 Y-24.7982 F80.00
G01 X-2.0261 Y-24.7756 F80.00
G01 X-2.0318 Y-24.7558 F80.00
G01 X-2.0399 Y-24.7327 F80.00
G01 X-2.0477 Y-24.7136 F80.00
G01 X-2.0570 Y-24.6937 F80.00
G01 X-2.1998 Y-24.4080 F80.00
G01 X-2.2189 Y-24.3739 F80.00
G01 X-2.2410 Y-24.3417 F80.00
G01 X-2.2660 Y-24.3116 F80.00
G01 X-2.4223 Y-24.1547 F80.00
G01 X-2.4373 Y-24.1404 F80.00
G01 X-2.4656 Y-24.1169 F80.00
G01 X-2.4987 Y-24.0941 F80.00
G01 X-2.5328 Y-24.0750 F80.00
G01 X-2.8185 Y-23.9322 F80.00
G01 X-2.8384 Y-23.9229 F80.00
G01 X-2.8587 Y-23.9146 F80.00
G01 X-2.8793 Y-23.9074 F80.00
G01 X-2.9004 Y-23.9013 F80.00
G01 X-2.9204 Y-23.8965 F80.00
G01 X-2.9445 Y-23.8922 F80.00
G01 X-2.9650 Y-23.8895 F80.00
G01 X-2.9868 Y-23.8878 F80.00
G01 X-3.0087 Y-23.8873 F80.00
G01 X-3.4579 Y-23.8878 F80.00
G01 X-3.4810 Y-23.8895 F80.00
G01 X-3.5040 Y-23.8926 F80.00
G01 X-3.5255 Y-23.8965 F80.00
G01 X-3.5456 Y-23.9013 F80.00
G01 X-3.5654 Y-23.9070 F80.00
G01 X-3.5885 Y-23.9151 F80.00
G01 X-3.6076 Y-23.9229 F80.00
G01 X-3.6268 Y-23.9319 F80.00
G01 X-3.9131 Y-24.0750 F80.00
G01 X-3.9462 Y-24.0935 F80.00
G01 X-3.9794 Y-24.1162 F80.00
G01 X-4.0086 Y-24.1404 F80.00
G01 X-4.0929 Y-24.2239 F80.00
G01 X-4.3911 Y-24.0745 F80.00
G01 X-4.4098 Y-24.0657 F80.00
G01 X-4.4301 Y-24.0575 F80.00
G01 X-4.4508 Y-24.0503 F80.00
G01 X-4.4718 Y-24.0442 F80.00
G01 X-4.4931 Y-24.0391 F80.00
G01 X-4.5147 Y-24.0352 F80.00
G01 X-4.5364 Y-24.0324 F80.00
G01 X-4.5595 Y-24.0306 F80.00
G01 X-4.8665 Y-24.0301 F80.00
G01 X-4.8877 Y-24.0307 F80.00
G01 X-4.9096 Y-24.0324 F80.00
G01 X-4.9313 Y-24.0352 F80.00
G01 X-4.9516 Y-24.0389 F80.00
G01 X-4.9741 Y-24.0442 F80.00
G01 X-4.9939 Y-24.0499 F80.00
G01 X-5.0171 Y-24.0579 F80.00
G01 X-5.0361 Y-24.0657 F80.00
G01 X-5.0560 Y-24.0750 F80.00
G01 X-5.3417 Y-24.2179 F80.00
G01 X-5.3758 Y-24.2369 F80.00
G01 X-5.4089 Y-24.2597 F80.00
G01 X-5.4372 Y-24.2833 F80.00
G01 X-5.4522 Y-24.2975 F80.00
G01 X-5.6086 Y-24.4545 F80.00
G01 X-5.6335 Y-24.4846 F80.00
G01 X-5.6556 Y-24.5168 F80.00
G01 X-5.6747 Y-24.5509 F80.00
G01 X-5.8176 Y-24.8366 F80.00
G01 X-5.8268 Y-24.8564 F80.00
G01 X-5.8351 Y-24.8767 F80.00
G01 X-5.8419 Y-24.8962 F80.00
G01 X-5.8487 Y-24.9197 F80.00
G01 X-5.8534 Y-24.9397 F80.00
G01 X-5.8574 Y-24.9613 F80.00
G01 X-5.8602 Y-24.9830 F80.00
G01 X-5.8618 Y-25.0036 F80.00
G01 X-5.8624 Y-25.0267 F80.00
G01 X-5.8624 Y-26.0274 F80.00
G01 X-5.8619 Y-26.0488 F80.00
G01 X-5.8580 Y-26.0879 F80.00
G01 X-5.8543 Y-26.1097 F80.00
G01 X-5.8497 Y-26.1301 F80.00
G01 X-5.8438 Y-26.1513 F80.00
G01 X-5.8301 Y-26.1895 F80.00
G01 X-5.8211 Y-26.2096 F80.00
G01 X-5.8020 Y-26.2453 F80.00
G01 X-5.7901 Y-26.2640 F80.00
G01 X-5.7659 Y-26.2965 F80.00
G01 X-5.7515 Y-26.3132 F80.00
G01 X-5.7237 Y-26.3410 F80.00
G01 X-5.7060 Y-26.3562 F80.00
G01 X-5.6735 Y-26.3803 F80.00
G01 X-5.6548 Y-26.3921 F80.00
G01 X-5.6202 Y-26.4106 F80.00
G01 X-5.5988 Y-26.4200 F80.00
G01 X-5.5619 Y-26.4333 F80.00
G01 X-5.5406 Y-26.4392 F80.00
G01 X-5.5190 Y-26.4440 F80.00
G00 Z1.9990
G00 X-4.8624 Y-29.4553
G01 F80.00
G01 Z-0.1120
G01 F80.00
G01 X-4.8624 Y-31.0267 F80.00
G01 X-4.8619 Y-31.0476 F80.00
G01 X-4.8604 Y-31.0684 F80.00
G01 X-4.8578 Y-31.0891 F80.00
G01 X-4.8540 Y-31.1109 F80.00
G01 X-4.8494 Y-31.1312 F80.00
G01 X-4.8380 Y-31.1688 F80.00
G01 X-4.8301 Y-31.1895 F80.00
G01 X-4.8216 Y-31.2085 F80.00
G01 X-4.8122 Y-31.2272 F80.00
G01 X-4.8020 Y-31.2453 F80.00
G01 X-4.7908 Y-31.2630 F80.00
G01 X-4.7780 Y-31.2810 F80.00
G01 X-4.7651 Y-31.2974 F80.00
G01 X-4.7388 Y-31.3265 F80.00
G01 X-4.7228 Y-31.3418 F80.00
G01 X-4.7070 Y-31.3554 F80.00
G01 X-4.6905 Y-31.3683 F80.00
G01 X-4.6725 Y-31.3809 F80.00
G01 X-4.6377 Y-31.4017 F80.00
G01 X-4.6190 Y-31.4111 F80.00
G01 X-4.6000 Y-31.4196 F80.00
G01 X-4.5805 Y-31.4271 F80.00
G01 X-4.5607 Y-31.4336 F80.00
G01 X-4.5406 Y-31.4392 F80.00
G01 X-4.5202 Y-31.4438 F80.00
G01 X-4.4996 Y-31.4473 F80.00
G01 X-4.4789 Y-31.4499 F80.00
G01 X-4.4581 Y-31.4514 F80.00
G01 X-4.4373 Y-31.4519 F80.00
G01 X-4.4164 Y-31.4514 F80.00
G01 X-4.3956 Y-31.4499 F80.00
G01 X-4.3749 Y-31.4473 F80.00
G01 X-4.3531 Y-31.4435 F80.00
G01 X-4.3138 Y-31.4336 F80.00
G01 X-4.2940 Y-31.4271 F80.00
G01 X-4.2745 Y-31.4196 F80.00
G01 X-4.2555 Y-31.4111 F80.00
G01 X-4.2368 Y-31.4017 F80.00
G01 X-4.2187 Y-31.3914 F80.00
G01 X-4.2000 Y-31.3796 F80.00
G01 X-4.1675 Y-31.3554 F80.00
G01 X-4.1517 Y-31.3418 F80.00
G01 X-4.1357 Y-31.3265 F80.00
G01 X-4.1222 Y-31.3123 F80.00
G01 X-4.1078 Y-31.2955 F80.00
G01 X-4.0844 Y-31.2640 F80.00
G01 X-4.0732 Y-31.2464 F80.00
G01 X-4.0623 Y-31.2272 F80.00
G01 X-4.0524 Y-31.2074 F80.00
G01 X-4.0374 Y-31.1711 F80.00
G01 X-4.0304 Y-31.1502 F80.00
G01 X-4.0248 Y-31.1301 F80.00
G01 X-4.0200 Y-31.1085 F80.00
G01 X-4.0143 Y-31.0696 F80.00
G01 X-4.0127 Y-31.0488 F80.00
G01 X-4.0121 Y-31.0267 F80.00
G01 X-4.0121 Y-30.3301 F80.00
G01 X-2.6999 Y-31.3611 F80.00
G01 X-2.6834 Y-31.3734 F80.00
G01 X-2.6662 Y-31.3850 F80.00
G01 X-2.6486 Y-31.3957 F80.00
G01 X-2.6293 Y-31.4061 F80.00
G01 X-2.5927 Y-31.4225 F80.00
G01 X-2.5733 Y-31.4296 F80.00
G01 X-2.5535 Y-31.4357 F80.00
G01 X-2.5335 Y-31.4409 F80.00
G01 X-2.5133 Y-31.4451 F80.00
G01 X-2.4735 Y-31.4504 F80.00
G01 X-2.4516 Y-31.4517 F80.00
G01 X-2.4322 Y-31.4519 F80.00
G01 X-2.4091 Y-31.4510 F80.00
G01 X-2.3692 Y-31.4465 F80.00
G01 X-2.3489 Y-31.4427 F80.00
G01 X-2.3288 Y-31.4379 F80.00
G01 X-2.3090 Y-31.4321 F80.00
G01 X-2.2894 Y-31.4254 F80.00
G01 X-2.2702 Y-31.4177 F80.00
G01 X-2.2514 Y-31.4092 F80.00
G01 X-2.2330 Y-31.3997 F80.00
G01 X-2.2151 Y-31.3893 F80.00
G01 X-2.1820 Y-31.3667 F80.00
G01 X-2.1639 Y-31.3524 F80.00
G01 X-2.1493 Y-31.3395 F80.00
G01 X-2.1335 Y-31.3243 F80.00
G01 X-2.1068 Y-31.2943 F80.00
G01 X-2.0942 Y-31.2780 F80.00
G01 X-2.0824 Y-31.2610 F80.00
G01 X-2.0619 Y-31.2265 F80.00
G01 X-2.0521 Y-31.2069 F80.00
G01 X-2.0434 Y-31.1869 F80.00
G01 X-2.0304 Y-31.1502 F80.00
G01 X-2.0246 Y-31.1291 F80.00
G01 X-2.0199 Y-31.1077 F80.00
G01 X-2.0142 Y-31.0692 F80.00
G01 X-2.0126 Y-31.0474 F80.00
G01 X-2.0121 Y-29.4553 F80.00
G01 X-2.0126 Y-29.4345 F80.00
G01 X-2.0143 Y-29.4124 F80.00
G01 X-2.0200 Y-29.3736 F80.00
G01 X-2.0248 Y-29.3520 F80.00
G01 X-2.0304 Y-29.3319 F80.00
G01 X-2.0369 Y-29.3121 F80.00
G01 X-2.0449 Y-29.2915 F80.00
G01 X-2.0617 Y-29.2560 F80.00
G01 X-2.0719 Y-29.2378 F80.00
G01 X-2.0837 Y-29.2191 F80.00
G01 X-2.0957 Y-29.2020 F80.00
G01 X-2.1086 Y-29.1856 F80.00
G01 X-2.1230 Y-29.1689 F80.00
G01 X-2.1375 Y-29.1538 F80.00
G01 X-2.1666 Y-29.1274 F80.00
G01 X-2.1840 Y-29.1138 F80.00
G01 X-2.2021 Y-29.1011 F80.00
G01 X-2.2368 Y-29.0803 F80.00
G01 X-2.2555 Y-29.0709 F80.00
G01 X-2.2745 Y-29.0625 F80.00
G01 X-2.2940 Y-29.0550 F80.00
G01 X-2.3138 Y-29.0484 F80.00
G01 X-2.3339 Y-29.0429 F80.00
G01 X-2.3543 Y-29.0383 F80.00
G01 X-2.3749 Y-29.0347 F80.00
G01 X-2.3956 Y-29.0322 F80.00
G01 X-2.4164 Y-29.0306 F80.00
G01 X-2.4373 Y-29.0301 F80.00
G01 X-2.4581 Y-29.0306 F80.00
G01 X-2.4789 Y-29.0322 F80.00
G01 X-2.4996 Y-29.0347 F80.00
G01 X-2.5214 Y-29.0386 F80.00
G01 X-2.5607 Y-29.0484 F80.00
G01 X-2.5805 Y-29.0550 F80.00
G01 X-2.6000 Y-29.0625 F80.00
G01 X-2.6190 Y-29.0709 F80.00
G01 X-2.6377 Y-29.0803 F80.00
G01 X-2.6558 Y-29.0906 F80.00
G01 X-2.6745 Y-29.1025 F80.00
G01 X-2.7070 Y-29.1266 F80.00
G01 X-2.7228 Y-29.1403 F80.00
G01 X-2.7388 Y-29.1555 F80.00
G01 X-2.7523 Y-29.1698 F80.00
G01 X-2.7667 Y-29.1865 F80.00
G01 X-2.7901 Y-29.2181 F80.00
G01 X-2.8013 Y-29.2357 F80.00
G01 X-2.8122 Y-29.2549 F80.00
G01 X-2.8221 Y-29.2746 F80.00
G01 X-2.8372 Y-29.3109 F80.00
G01 X-2.8441 Y-29.3319 F80.00
G01 X-2.8497 Y-29.3520 F80.00
G01 X-2.8545 Y-29.3736 F80.00
G01 X-2.8603 Y-29.4124 F80.00
G01 X-2.8619 Y-29.4332 F80.00
G01 X-2.8624 Y-29.4553 F80.00
G01 X-2.8624 Y-30.1519 F80.00
G01 X-4.1750 Y-29.1206 F80.00
G01 X-4.2083 Y-29.0971 F80.00
G01 X-4.2431 Y-29.0771 F80.00
G01 X-4.2639 Y-29.0671 F80.00
G01 X-4.3013 Y-29.0525 F80.00
G01 X-4.3210 Y-29.0463 F80.00
G01 X-4.3422 Y-29.0409 F80.00
G01 X-4.3805 Y-29.0339 F80.00
G01 X-4.4022 Y-29.0316 F80.00
G01 X-4.4229 Y-29.0304 F80.00
G01 X-4.4448 Y-29.0302 F80.00
G01 X-4.4654 Y-29.0311 F80.00
G01 X-4.5041 Y-29.0354 F80.00
G01 X-4.5256 Y-29.0394 F80.00
G01 X-4.5457 Y-29.0442 F80.00
G01 X-4.5656 Y-29.0499 F80.00
G01 X-4.5862 Y-29.0571 F80.00
G01 X-4.6054 Y-29.0648 F80.00
G01 X-4.6404 Y-29.0818 F80.00
G01 X-4.6594 Y-29.0928 F80.00
G01 X-4.6777 Y-29.1047 F80.00
G01 X-4.6945 Y-29.1168 F80.00
G01 X-4.7244 Y-29.1417 F80.00
G01 X-4.7401 Y-29.1569 F80.00
G01 X-4.7543 Y-29.1720 F80.00
G01 X-4.7684 Y-29.1887 F80.00
G01 X-4.7914 Y-29.2200 F80.00
G01 X-4.8031 Y-29.2386 F80.00
G01 X-4.8132 Y-29.2566 F80.00
G01 X-4.8229 Y-29.2762 F80.00
G01 X-4.8376 Y-29.3122 F80.00
G01 X-4.8445 Y-29.3330 F80.00
G01 X-4.8499 Y-29.3530 F80.00
G01 X-4.8546 Y-29.3743 F80.00
G01 X-4.8603 Y-29.4128 F80.00
G01 X-4.8619 Y-29.4346 F80.00
G01 X-4.8624 Y-29.4553 F80.00
G00 Z1.9990
G00 X-5.8545 Y-33.8021
G01 F80.00
G01 Z-0.1120
G01 F80.00
G01 X-5.8580 Y-33.8227 F80.00
G01 X-5.8619 Y-33.8618 F80.00
G01 X-5.8624 Y-33.8839 F80.00
G01 X-5.8620 Y-33.9035 F80.00
G01 X-5.8604 Y-33.9256 F80.00
G01 X-5.8578 Y-33.9463 F80.00
G01 X-5.8500 Y-33.9860 F80.00
G01 X-5.8441 Y-34.0073 F80.00
G01 X-5.8376 Y-34.0271 F80.00
G01 X-5.8301 Y-34.0466 F80.00
G01 X-5.8216 Y-34.0657 F80.00
G01 X-5.8122 Y-34.0843 F80.00
G01 X-5.8020 Y-34.1025 F80.00
G01 X-5.7795 Y-34.1362 F80.00
G01 X-5.7659 Y-34.1536 F80.00
G01 X-5.7523 Y-34.1694 F80.00
G01 X-5.7379 Y-34.1845 F80.00
G01 X-5.7228 Y-34.1989 F80.00
G01 X-5.7070 Y-34.2126 F80.00
G01 X-5.6905 Y-34.2254 F80.00
G01 X-5.6735 Y-34.2374 F80.00
G01 X-5.6558 Y-34.2486 F80.00
G01 X-5.6377 Y-34.2589 F80.00
G01 X-5.6190 Y-34.2683 F80.00
G01 X-5.6000 Y-34.2767 F80.00
G01 X-5.5805 Y-34.2842 F80.00
G01 X-5.5607 Y-34.2908 F80.00
G01 X-5.5406 Y-34.2963 F80.00
G01 X-5.5202 Y-34.3009 F80.00
G01 X-5.4984 Y-34.3046 F80.00
G01 X-5.4593 Y-34.3085 F80.00
G01 X-5.4373 Y-34.3091 F80.00
G01 X-2.4366 Y-34.3091 F80.00
G01 X-2.4164 Y-34.3086 F80.00
G01 X-2.3944 Y-34.3069 F80.00
G01 X-2.3555 Y-34.3011 F80.00
G01 X-2.3351 Y-34.2966 F80.00
G01 X-2.3138 Y-34.2908 F80.00
G01 X-2.2940 Y-34.2842 F80.00
G01 X-2.2745 Y-34.2767 F80.00
G01 X-2.2555 Y-34.2683 F80.00
G01 X-2.2358 Y-34.2583 F80.00
G01 X-2.2010 Y-34.2374 F80.00
G01 X-2.1830 Y-34.2247 F80.00
G01 X-2.1526 Y-34.1997 F80.00
G01 X-2.1366 Y-34.1845 F80.00
G01 X-2.1214 Y-34.1685 F80.00
G01 X-2.0965 Y-34.1381 F80.00
G01 X-2.0837 Y-34.1201 F80.00
G01 X-2.0719 Y-34.1014 F80.00
G01 X-2.0534 Y-34.0668 F80.00
G01 X-2.0444 Y-34.0466 F80.00
G01 X-2.0365 Y-34.0260 F80.00
G01 X-2.0251 Y-33.9884 F80.00
G01 X-2.0202 Y-33.9668 F80.00
G01 X-2.0165 Y-33.9451 F80.00
G01 X-2.0126 Y-33.9047 F80.00
G01 X-2.0121 Y-33.8827 F80.00
G01 X-2.0140 Y-33.8434 F80.00
G01 X-2.0167 Y-33.8215 F80.00
G01 X-2.0205 Y-33.7997 F80.00
G01 X-2.0300 Y-33.7616 F80.00
G01 X-2.0369 Y-33.7406 F80.00
G01 X-2.0524 Y-33.7032 F80.00
G01 X-2.0623 Y-33.6835 F80.00
G01 X-2.0732 Y-33.6643 F80.00
G01 X-2.0950 Y-33.6316 F80.00
G01 X-2.1086 Y-33.6141 F80.00
G01 X-2.1230 Y-33.5974 F80.00
G01 X-2.1508 Y-33.5697 F80.00
G01 X-2.1675 Y-33.5552 F80.00
G01 X-2.2000 Y-33.5310 F80.00
G01 X-2.2187 Y-33.5192 F80.00
G01 X-2.2379 Y-33.5083 F80.00
G01 X-2.2734 Y-33.4915 F80.00
G01 X-2.2940 Y-33.4836 F80.00
G01 X-2.3138 Y-33.4770 F80.00
G01 X-2.3339 Y-33.4714 F80.00
G01 X-2.3555 Y-33.4666 F80.00
G01 X-2.3944 Y-33.4609 F80.00
G01 X-2.4164 Y-33.4592 F80.00
G01 X-2.4373 Y-33.4587 F80.00
G01 X-3.5835 Y-33.4587 F80.00
G01 X-3.5835 Y-32.5948 F80.00
G01 X-2.4360 Y-32.5948 F80.00
G01 X-2.3956 Y-32.5927 F80.00
G01 X-2.3749 Y-32.5902 F80.00
G01 X-2.3543 Y-32.5866 F80.00
G01 X-2.3339 Y-32.5820 F80.00
G01 X-2.3138 Y-32.5765 F80.00
G01 X-2.2757 Y-32.5629 F80.00
G01 X-2.2555 Y-32.5540 F80.00
G01 X-2.2368 Y-32.5446 F80.00
G01 X-2.2187 Y-32.5343 F80.00
G01 X-2.2010 Y-32.5231 F80.00
G01 X-2.1840 Y-32.5111 F80.00
G01 X-2.1675 Y-32.4983 F80.00
G01 X-2.1517 Y-32.4846 F80.00
G01 X-2.1366 Y-32.4703 F80.00
G01 X-2.1222 Y-32.4551 F80.00
G01 X-2.1086 Y-32.4393 F80.00
G01 X-2.0957 Y-32.4229 F80.00
G01 X-2.0837 Y-32.4058 F80.00
G01 X-2.0726 Y-32.3882 F80.00
G01 X-2.0623 Y-32.3700 F80.00
G01 X-2.0529 Y-32.3514 F80.00
G01 X-2.0440 Y-32.3312 F80.00
G01 X-2.0304 Y-32.2930 F80.00
G01 X-2.0248 Y-32.2729 F80.00
G01 X-2.0200 Y-32.2513 F80.00
G01 X-2.0165 Y-32.2308 F80.00
G01 X-2.0127 Y-32.1917 F80.00
G01 X-2.0121 Y-32.1696 F80.00
G01 X-2.0125 Y-32.1500 F80.00
G01 X-2.0141 Y-32.1279 F80.00
G01 X-2.0167 Y-32.1072 F80.00
G01 X-2.0202 Y-32.0866 F80.00
G01 X-2.0248 Y-32.0663 F80.00
G01 X-2.0304 Y-32.0462 F80.00
G01 X-2.0369 Y-32.0264 F80.00
G01 X-2.0444 Y-32.0069 F80.00
G01 X-2.0529 Y-31.9878 F80.00
G01 X-2.0629 Y-31.9681 F80.00
G01 X-2.0837 Y-31.9334 F80.00
G01 X-2.0965 Y-31.9153 F80.00
G01 X-2.1214 Y-31.8850 F80.00
G01 X-2.1366 Y-31.8689 F80.00
G01 X-2.1526 Y-31.8537 F80.00
G01 X-2.1830 Y-31.8288 F80.00
G01 X-2.2010 Y-31.8161 F80.00
G01 X-2.2197 Y-31.8043 F80.00
G01 X-2.2544 Y-31.7858 F80.00
G01 X-2.2745 Y-31.7768 F80.00
G01 X-2.2952 Y-31.7689 F80.00
G01 X-2.3328 Y-31.7575 F80.00
G01 X-2.3543 Y-31.7526 F80.00
G01 X-2.3761 Y-31.7488 F80.00
G01 X-2.4164 Y-31.7449 F80.00
G01 X-2.4373 Y-31.7444 F80.00
G01 X-5.4379 Y-31.7444 F80.00
G01 X-5.4581 Y-31.7449 F80.00
G01 X-5.4802 Y-31.7466 F80.00
G01 X-5.5190 Y-31.7524 F80.00
G01 X-5.5394 Y-31.7569 F80.00
G01 X-5.5607 Y-31.7627 F80.00
G01 X-5.5805 Y-31.7693 F80.00
G01 X-5.6000 Y-31.7768 F80.00
G01 X-5.6190 Y-31.7852 F80.00
G01 X-5.6388 Y-31.7952 F80.00
G01 X-5.6735 Y-31.8161 F80.00
G01 X-5.6915 Y-31.8288 F80.00
G01 X-5.7219 Y-31.8537 F80.00
G01 X-5.7379 Y-31.8689 F80.00
G01 X-5.7531 Y-31.8850 F80.00
G01 X-5.7780 Y-31.9153 F80.00
G01 X-5.7908 Y-31.9334 F80.00
G01 X-5.8026 Y-31.9521 F80.00
G01 X-5.8211 Y-31.9867 F80.00
G01 X-5.8301 Y-32.0069 F80.00
G01 X-5.8380 Y-32.0275 F80.00
G01 X-5.8494 Y-32.0651 F80.00
G01 X-5.8543 Y-32.0866 F80.00
G01 X-5.8580 Y-32.1084 F80.00
G01 X-5.8619 Y-32.1475 F80.00
G01 X-5.8624 Y-32.1696 F80.00
G01 X-5.8619 Y-32.1917 F80.00
G01 X-5.8580 Y-32.2308 F80.00
G01 X-5.8543 Y-32.2526 F80.00
G01 X-5.8494 Y-32.2741 F80.00
G01 X-5.8380 Y-32.3117 F80.00
G01 X-5.8301 Y-32.3323 F80.00
G01 X-5.8211 Y-32.3525 F80.00
G01 X-5.8026 Y-32.3871 F80.00
G01 X-5.7908 Y-32.4058 F80.00
G01 X-5.7780 Y-32.4239 F80.00
G01 X-5.7531 Y-32.4542 F80.00
G01 X-5.7379 Y-32.4703 F80.00
G01 X-5.7219 Y-32.4855 F80.00
G01 X-5.6915 Y-32.5104 F80.00
G01 X-5.6735 Y-32.5231 F80.00
G01 X-5.6548 Y-32.5349 F80.00
G01 X-5.6202 Y-32.5534 F80.00
G01 X-5.6000 Y-32.5624 F80.00
G01 X-5.5793 Y-32.5703 F80.00
G01 X-5.5418 Y-32.5817 F80.00
G01 X-5.5202 Y-32.5866 F80.00
G01 X-5.4984 Y-32.5904 F80.00
G01 X-5.4581 Y-32.5943 F80.00
G01 X-5.4373 Y-32.5948 F80.00
G01 X-4.4339 Y-32.5948 F80.00
G01 X-4.4339 Y-33.4587 F80.00
G01 X-5.4379 Y-33.4587 F80.00
G01 X-5.4593 Y-33.4593 F80.00
G01 X-5.4984 Y-33.4631 F80.00
G01 X-5.5202 Y-33.4669 F80.00
G01 X-5.5406 Y-33.4714 F80.00
G01 X-5.5619 Y-33.4774 F80.00
G01 X-5.6000 Y-33.4911 F80.00
G01 X-5.6202 Y-33.5001 F80.00
G01 X-5.6558 Y-33.5192 F80.00
G01 X-5.6745 Y-33.5310 F80.00
G01 X-5.7070 Y-33.5552 F80.00
G01 X-5.7237 Y-33.5697 F80.00
G01 X-5.7515 Y-33.5974 F80.00
G01 X-5.7667 Y-33.6151 F80.00
G01 X-5.7908 Y-33.6477 F80.00
G01 X-5.8026 Y-33.6664 F80.00
G01 X-5.8211 Y-33.7010 F80.00
G01 X-5.8305 Y-33.7223 F80.00
G01 X-5.8438 Y-33.7593 F80.00
G01 X-5.8497 Y-33.7806 F80.00
G01 X-5.8545 Y-33.8021 F80.00
G00 Z1.9990
G00 X-4.8545 Y-37.8021
G01 F80.00
G01 Z-0.1120
G01 F80.00
G01 X-4.8580 Y-37.8227 F80.00
G01 X-4.8619 Y-37.8618 F80.00
G01 X-4.8624 Y-37.8839 F80.00
G01 X-4.8620 Y-37.9035 F80.00
G01 X-4.8604 Y-37.9256 F80.00
G01 X-4.8578 Y-37.9463 F80.00
G01 X-4.8500 Y-37.9860 F80.00
G01 X-4.8441 Y-38.0073 F80.00
G01 X-4.8376 Y-38.0271 F80.00
G01 X-4.8301 Y-38.0466 F80.00
G01 X-4.8216 Y-38.0657 F80.00
G01 X-4.8122 Y-38.0843 F80.00
G01 X-4.8020 Y-38.1025 F80.00
G01 X-4.7795 Y-38.1362 F80.00
G01 X-4.7659 Y-38.1536 F80.00
G01 X-4.7523 Y-38.1694 F80.00
G01 X-4.7379 Y-38.1845 F80.00
G01 X-4.7228 Y-38.1989 F80.00
G01 X-4.7070 Y-38.2126 F80.00
G01 X-4.6905 Y-38.2254 F80.00
G01 X-4.6735 Y-38.2374 F80.00
G01 X-4.6558 Y-38.2486 F80.00
G01 X-4.6377 Y-38.2589 F80.00
G01 X-4.6190 Y-38.2683 F80.00
G01 X-4.6000 Y-38.2767 F80.00
G01 X-4.5805 Y-38.2842 F80.00
G01 X-4.5607 Y-38.2908 F80.00
G01 X-4.5406 Y-38.2963 F80.00
G01 X-4.5202 Y-38.3009 F80.00
G01 X-4.4996 Y-38.3045 F80.00
G01 X-4.4777 Y-38.3071 F80.00
G01 X-4.4373 Y-38.3091 F80.00
G01 X-2.4373 Y-38.3091 F80.00
G01 X-2.4164 Y-38.3086 F80.00
G01 X-2.3956 Y-38.3070 F80.00
G01 X-2.3749 Y-38.3045 F80.00
G01 X-2.3543 Y-38.3009 F80.00
G01 X-2.3339 Y-38.2963 F80.00
G01 X-2.3138 Y-38.2908 F80.00
G01 X-2.2940 Y-38.2842 F80.00
G01 X-2.2566 Y-38.2688 F80.00
G01 X-2.2358 Y-38.2583 F80.00
G01 X-2.2187 Y-38.2486 F80.00
G01 X-2.2000 Y-38.2367 F80.00
G01 X-2.1675 Y-38.2126 F80.00
G01 X-2.1517 Y-38.1989 F80.00
G01 X-2.1357 Y-38.1837 F80.00
G01 X-2.1214 Y-38.1685 F80.00
G01 X-2.0965 Y-38.1381 F80.00
G01 X-2.0837 Y-38.1201 F80.00
G01 X-2.0726 Y-38.1025 F80.00
G01 X-2.0617 Y-38.0832 F80.00
G01 X-2.0449 Y-38.0477 F80.00
G01 X-2.0369 Y-38.0271 F80.00
G01 X-2.0304 Y-38.0073 F80.00
G01 X-2.0248 Y-37.9872 F80.00
G01 X-2.0200 Y-37.9656 F80.00
G01 X-2.0143 Y-37.9268 F80.00
G01 X-2.0126 Y-37.9047 F80.00
G01 X-2.0121 Y-37.8827 F80.00
G01 X-2.0140 Y-37.8434 F80.00
G01 X-2.0167 Y-37.8215 F80.00
G01 X-2.0202 Y-37.8009 F80.00
G01 X-2.0251 Y-37.7794 F80.00
G01 X-2.0365 Y-37.7418 F80.00
G01 X-2.0444 Y-37.7212 F80.00
G01 X-2.0529 Y-37.7021 F80.00
G01 X-2.0623 Y-37.6835 F80.00
G01 X-2.0732 Y-37.6643 F80.00
G01 X-2.0950 Y-37.6316 F80.00
G01 X-2.1086 Y-37.6141 F80.00
G01 X-2.1222 Y-37.5983 F80.00
G01 X-2.1375 Y-37.5824 F80.00
G01 X-2.1666 Y-37.5560 F80.00
G01 X-2.1840 Y-37.5424 F80.00
G01 X-2.2010 Y-37.5304 F80.00
G01 X-2.2197 Y-37.5186 F80.00
G01 X-2.2544 Y-37.5001 F80.00
G01 X-2.2734 Y-37.4915 F80.00
G01 X-2.2940 Y-37.4836 F80.00
G01 X-2.3138 Y-37.4770 F80.00
G01 X-2.3339 Y-37.4714 F80.00
G01 X-2.3543 Y-37.4669 F80.00
G01 X-2.3749 Y-37.4633 F80.00
G01 X-2.3956 Y-37.4607 F80.00
G01 X-2.4360 Y-37.4587 F80.00
G01 X-3.9602 Y-37.4587 F80.00
G01 X-4.0121 Y-37.3549 F80.00
G01 X-4.0121 Y-37.1271 F80.00
G01 X-3.9775 Y-37.0579 F80.00
G01 X-3.9083 Y-37.0234 F80.00
G01 X-2.4373 Y-37.0234 F80.00
G01 X-2.4164 Y-37.0228 F80.00
G01 X-2.3956 Y-37.0213 F80.00
G01 X-2.3749 Y-37.0188 F80.00
G01 X-2.3543 Y-37.0152 F80.00
G01 X-2.3339 Y-37.0106 F80.00
G01 X-2.3138 Y-37.0051 F80.00
G01 X-2.2940 Y-36.9985 F80.00
G01 X-2.2745 Y-36.9910 F80.00
G01 X-2.2555 Y-36.9825 F80.00
G01 X-2.2368 Y-36.9732 F80.00
G01 X-2.2187 Y-36.9629 F80.00
G01 X-2.2010 Y-36.9517 F80.00
G01 X-2.1840 Y-36.9397 F80.00
G01 X-2.1675 Y-36.9268 F80.00
G01 X-2.1517 Y-36.9132 F80.00
G01 X-2.1366 Y-36.8988 F80.00
G01 X-2.1222 Y-36.8837 F80.00
G01 X-2.1078 Y-36.8669 F80.00
G01 X-2.0844 Y-36.8354 F80.00
G01 X-2.0732 Y-36.8178 F80.00
G01 X-2.0623 Y-36.7986 F80.00
G01 X-2.0529 Y-36.7800 F80.00
G01 X-2.0444 Y-36.7609 F80.00
G01 X-2.0365 Y-36.7403 F80.00
G01 X-2.0251 Y-36.7027 F80.00
G01 X-2.0205 Y-36.6823 F80.00
G01 X-2.0167 Y-36.6606 F80.00
G01 X-2.0141 Y-36.6398 F80.00
G01 X-2.0126 Y-36.6190 F80.00
G01 X-2.0121 Y-36.5969 F80.00
G01 X-2.0127 Y-36.5761 F80.00
G01 X-2.0165 Y-36.5370 F80.00
G01 X-2.0202 Y-36.5152 F80.00
G01 X-2.0248 Y-36.4949 F80.00
G01 X-2.0307 Y-36.4736 F80.00
G01 X-2.0440 Y-36.4366 F80.00
G01 X-2.0529 Y-36.4164 F80.00
G01 X-2.0623 Y-36.3977 F80.00
G01 X-2.0726 Y-36.3796 F80.00
G01 X-2.0844 Y-36.3609 F80.00
G01 X-2.0965 Y-36.3439 F80.00
G01 X-2.1214 Y-36.3136 F80.00
G01 X-2.1366 Y-36.2975 F80.00
G01 X-2.1517 Y-36.2831 F80.00
G01 X-2.1675 Y-36.2695 F80.00
G01 X-2.1850 Y-36.2559 F80.00
G01 X-2.2176 Y-36.2341 F80.00
G01 X-2.2358 Y-36.2238 F80.00
G01 X-2.2555 Y-36.2138 F80.00
G01 X-2.2745 Y-36.2053 F80.00
G01 X-2.2940 Y-36.1978 F80.00
G01 X-2.3138 Y-36.1913 F80.00
G01 X-2.3339 Y-36.1857 F80.00
G01 X-2.3543 Y-36.1812 F80.00
G01 X-2.3749 Y-36.1776 F80.00
G01 X-2.3956 Y-36.1750 F80.00
G01 X-2.4360 Y-36.1730 F80.00
G01 X-3.9083 Y-36.1730 F80.00
G01 X-3.9775 Y-36.1384 F80.00
G01 X-4.0121 Y-36.0692 F80.00
G01 X-4.0121 Y-35.8414 F80.00
G01 X-3.9775 Y-35.7722 F80.00
G01 X-3.9083 Y-35.7376 F80.00
G01 X-2.4176 Y-35.7372 F80.00
G01 X-2.3956 Y-35.7356 F80.00
G01 X-2.3749 Y-35.7330 F80.00
G01 X-2.3543 Y-35.7295 F80.00
G01 X-2.3328 Y-35.7246 F80.00
G01 X-2.2952 Y-35.7132 F80.00
G01 X-2.2757 Y-35.7057 F80.00
G01 X-2.2555 Y-35.6968 F80.00
G01 X-2.2358 Y-35.6868 F80.00
G01 X-2.2176 Y-35.6765 F80.00
G01 X-2.1850 Y-35.6547 F80.00
G01 X-2.1675 Y-35.6411 F80.00
G01 X-2.1517 Y-35.6275 F80.00
G01 X-2.1366 Y-35.6131 F80.00
G01 X-2.1214 Y-35.5971 F80.00
G01 X-2.0965 Y-35.5667 F80.00
G01 X-2.0844 Y-35.5497 F80.00
G01 X-2.0726 Y-35.5310 F80.00
G01 X-2.0623 Y-35.5129 F80.00
G01 X-2.0529 Y-35.4942 F80.00
G01 X-2.0440 Y-35.4740 F80.00
G01 X-2.0365 Y-35.4545 F80.00
G01 X-2.0251 Y-35.4170 F80.00
G01 X-2.0202 Y-35.3954 F80.00
G01 X-2.0167 Y-35.3748 F80.00
G01 X-2.0140 Y-35.3529 F80.00
G01 X-2.0121 Y-35.3137 F80.00
G01 X-2.0126 Y-35.2916 F80.00
G01 X-2.0141 Y-35.2708 F80.00
G01 X-2.0167 Y-35.2501 F80.00
G01 X-2.0205 Y-35.2283 F80.00
G01 X-2.0251 Y-35.2080 F80.00
G01 X-2.0365 Y-35.1704 F80.00
G01 X-2.0444 Y-35.1497 F80.00
G01 X-2.0529 Y-35.1307 F80.00
G01 X-2.0623 Y-35.1120 F80.00
G01 X-2.0732 Y-35.0928 F80.00
G01 X-2.0844 Y-35.0752 F80.00
G01 X-2.1078 Y-35.0437 F80.00
G01 X-2.1222 Y-35.0269 F80.00
G01 X-2.1375 Y-35.0109 F80.00
G01 X-2.1675 Y-34.9838 F80.00
G01 X-2.1840 Y-34.9709 F80.00
G01 X-2.2010 Y-34.9589 F80.00
G01 X-2.2187 Y-34.9478 F80.00
G01 X-2.2368 Y-34.9375 F80.00
G01 X-2.2734 Y-34.9201 F80.00
G01 X-2.2940 Y-34.9121 F80.00
G01 X-2.3127 Y-34.9059 F80.00
G01 X-2.3351 Y-34.8997 F80.00
G01 X-2.3749 Y-34.8919 F80.00
G01 X-2.4152 Y-34.8879 F80.00
G01 X-2.4373 Y-34.8873 F80.00
G01 X-4.0087 Y-34.8873 F80.00
G01 X-4.0306 Y-34.8878 F80.00
G01 X-4.0524 Y-34.8895 F80.00
G01 X-4.0741 Y-34.8923 F80.00
G01 X-4.0957 Y-34.8963 F80.00
G01 X-4.1170 Y-34.9013 F80.00
G01 X-4.1380 Y-34.9074 F80.00
G01 X-4.1587 Y-34.9146 F80.00
G01 X-4.1790 Y-34.9229 F80.00
G01 X-4.1983 Y-34.9319 F80.00
G01 X-4.5031 Y-35.0849 F80.00
G01 X-4.5377 Y-35.1066 F80.00
G01 X-4.5556 Y-35.1198 F80.00
G01 X-4.5866 Y-35.1465 F80.00
G01 X-4.6024 Y-35.1622 F80.00
G01 X-4.6173 Y-35.1787 F80.00
G01 X-4.6417 Y-35.2100 F80.00
G01 X-4.6540 Y-35.2285 F80.00
G01 X-4.6648 Y-35.2466 F80.00
G01 X-4.8178 Y-35.5515 F80.00
G01 X-4.8268 Y-35.5707 F80.00
G01 X-4.8351 Y-35.5910 F80.00
G01 X-4.8423 Y-35.6117 F80.00
G01 X-4.8481 Y-35.6315 F80.00
G01 X-4.8537 Y-35.6553 F80.00
G01 X-4.8574 Y-35.6756 F80.00
G01 X-4.8602 Y-35.6973 F80.00
G01 X-4.8619 Y-35.7191 F80.00
G01 X-4.8624 Y-35.7410 F80.00
G01 X-4.8624 Y-36.1696 F80.00
G01 X-4.8619 Y-36.1915 F80.00
G01 X-4.8603 Y-36.2120 F80.00
G01 X-4.8572 Y-36.2363 F80.00
G01 X-4.8534 Y-36.2566 F80.00
G01 X-4.8487 Y-36.2767 F80.00
G01 X-4.8427 Y-36.2977 F80.00
G01 X-4.8351 Y-36.3196 F80.00
G01 X-4.8268 Y-36.3399 F80.00
G01 X-4.8176 Y-36.3598 F80.00
G01 X-4.6983 Y-36.5982 F80.00
G01 X-4.8176 Y-36.8366 F80.00
G01 X-4.8268 Y-36.8564 F80.00
G01 X-4.8355 Y-36.8779 F80.00
G01 X-4.8423 Y-36.8974 F80.00
G01 X-4.8481 Y-36.9172 F80.00
G01 X-4.8534 Y-36.9397 F80.00
G01 X-4.8576 Y-36.9626 F80.00
G01 X-4.8602 Y-36.9830 F80.00
G01 X-4.8618 Y-37.0036 F80.00
G01 X-4.8624 Y-37.0261 F80.00
G01 X-4.8624 Y-37.4553 F80.00
G01 X-4.8618 Y-37.4785 F80.00
G01 X-4.8602 Y-37.4990 F80.00
G01 X-4.8572 Y-37.5220 F80.00
G01 X-4.8534 Y-37.5423 F80.00
G01 X-4.8487 Y-37.5624 F80.00
G01 X-4.8427 Y-37.5834 F80.00
G01 X-4.8351 Y-37.6053 F80.00
G01 X-4.8268 Y-37.6256 F80.00
G01 X-4.8050 Y-37.6706 F80.00
G01 X-4.8216 Y-37.7021 F80.00
G01 X-4.8372 Y-37.7395 F80.00
G01 X-4.8441 Y-37.7605 F80.00
G01 X-4.8494 Y-37.7794 F80.00
G01 X-4.8545 Y-37.8021 F80.00
G00 Z1.9990
G00 X-5.8624 Y-41.4553
G01 F80.00
G01 Z-0.1120
G01 F80.00
G01 X-5.8624 Y-43.3125 F80.00
G01 X-5.8619 Y-43.3333 F80.00
G01 X-5.8603 Y-43.3554 F80.00
G01 X-5.8545 Y-43.3942 F80.00
G01 X-5.8497 Y-43.4158 F80.00
G01 X-5.8438 Y-43.4371 F80.00
G01 X-5.8305 Y-43.4740 F80.00
G01 X-5.8216 Y-43.4942 F80.00
G01 X-5.8116 Y-43.5140 F80.00
G01 X-5.7915 Y-43.5476 F80.00
G01 X-5.7788 Y-43.5657 F80.00
G01 X-5.7651 Y-43.5831 F80.00
G01 X-5.7379 Y-43.6131 F80.00
G01 X-5.7219 Y-43.6283 F80.00
G01 X-5.6915 Y-43.6532 F80.00
G01 X-5.6735 Y-43.6660 F80.00
G01 X-5.6548 Y-43.6778 F80.00
G01 X-5.6202 Y-43.6963 F80.00
G01 X-5.6000 Y-43.7053 F80.00
G01 X-5.5805 Y-43.7128 F80.00
G01 X-5.5607 Y-43.7193 F80.00
G01 X-5.5406 Y-43.7249 F80.00
G01 X-5.5202 Y-43.7295 F80.00
G01 X-5.4996 Y-43.7330 F80.00
G01 X-5.4789 Y-43.7356 F80.00
G01 X-5.4581 Y-43.7371 F80.00
G01 X-5.4373 Y-43.7376 F80.00
G01 X-5.4164 Y-43.7371 F80.00
G01 X-5.3956 Y-43.7356 F80.00
G01 X-5.3749 Y-43.7330 F80.00
G01 X-5.3543 Y-43.7295 F80.00
G01 X-5.3339 Y-43.7249 F80.00
G01 X-5.3138 Y-43.7193 F80.00
G01 X-5.2757 Y-43.7057 F80.00
G01 X-5.2555 Y-43.6968 F80.00
G01 X-5.2368 Y-43.6874 F80.00
G01 X-5.2187 Y-43.6772 F80.00
G01 X-5.2010 Y-43.6660 F80.00
G01 X-5.1840 Y-43.6540 F80.00
G01 X-5.1675 Y-43.6411 F80.00
G01 X-5.1375 Y-43.6140 F80.00
G01 X-5.1222 Y-43.5980 F80.00
G01 X-5.1086 Y-43.5822 F80.00
G01 X-5.0844 Y-43.5497 F80.00
G01 X-5.0726 Y-43.5310 F80.00
G01 X-5.0629 Y-43.5140 F80.00
G01 X-5.0524 Y-43.4931 F80.00
G01 X-5.0369 Y-43.4557 F80.00
G01 X-5.0304 Y-43.4359 F80.00
G01 X-5.0248 Y-43.4158 F80.00
G01 X-5.0202 Y-43.3954 F80.00
G01 X-5.0167 Y-43.3748 F80.00
G01 X-5.0141 Y-43.3541 F80.00
G01 X-5.0125 Y-43.3321 F80.00
G01 X-5.0121 Y-42.3923 F80.00
G01 X-4.5739 Y-42.7757 F80.00
G01 X-4.5585 Y-42.7886 F80.00
G01 X-4.5409 Y-42.8017 F80.00
G01 X-4.5082 Y-42.8228 F80.00
G01 X-4.4900 Y-42.8328 F80.00
G01 X-4.4703 Y-42.8424 F80.00
G01 X-4.4512 Y-42.8505 F80.00
G01 X-4.4318 Y-42.8577 F80.00
G01 X-4.4121 Y-42.8639 F80.00
G01 X-4.3920 Y-42.8691 F80.00
G01 X-4.3718 Y-42.8734 F80.00
G01 X-4.3513 Y-42.8767 F80.00
G01 X-4.3295 Y-42.8790 F80.00
G01 X-4.3100 Y-42.8802 F80.00
G01 X-4.2881 Y-42.8804 F80.00
G01 X-4.2492 Y-42.8781 F80.00
G01 X-4.2287 Y-42.8754 F80.00
G01 X-4.2071 Y-42.8714 F80.00
G01 X-4.1870 Y-42.8667 F80.00
G01 X-4.1670 Y-42.8610 F80.00
G01 X-4.1474 Y-42.8543 F80.00
G01 X-4.1282 Y-42.8467 F80.00
G01 X-4.1093 Y-42.8381 F80.00
G01 X-4.0740 Y-42.8189 F80.00
G01 X-4.0546 Y-42.8064 F80.00
G01 X-4.0387 Y-42.7950 F80.00
G01 X-4.0215 Y-42.7814 F80.00
G01 X-3.9920 Y-42.7542 F80.00
G01 X-3.9778 Y-42.7391 F80.00
G01 X-3.9643 Y-42.7233 F80.00
G01 X-3.9517 Y-42.7069 F80.00
G01 X-3.9398 Y-42.6900 F80.00
G01 X-3.9288 Y-42.6724 F80.00
G01 X-3.9187 Y-42.6544 F80.00
G01 X-3.9094 Y-42.6358 F80.00
G01 X-3.9011 Y-42.6169 F80.00
G01 X-3.8937 Y-42.5975 F80.00
G01 X-3.8872 Y-42.5778 F80.00
G01 X-3.8818 Y-42.5579 F80.00
G01 X-3.8773 Y-42.5376 F80.00
G01 X-3.8737 Y-42.5172 F80.00
G01 X-3.8712 Y-42.4967 F80.00
G01 X-3.8697 Y-42.4760 F80.00
G01 X-3.8692 Y-42.4553 F80.00
G01 X-3.8692 Y-42.1271 F80.00
G01 X-3.8021 Y-41.9929 F80.00
G01 X-3.7568 Y-41.9476 F80.00
G01 X-3.6226 Y-41.8805 F80.00
G01 X-3.1091 Y-41.8805 F80.00
G01 X-2.9748 Y-41.9476 F80.00
G01 X-2.9296 Y-41.9929 F80.00
G01 X-2.8624 Y-42.1271 F80.00
G01 X-2.8624 Y-42.7835 F80.00
G01 X-2.9296 Y-42.9177 F80.00
G01 X-3.0380 Y-43.0269 F80.00
G01 X-3.0516 Y-43.0427 F80.00
G01 X-3.0645 Y-43.0592 F80.00
G01 X-3.0765 Y-43.0762 F80.00
G01 X-3.0883 Y-43.0949 F80.00
G01 X-3.1068 Y-43.1296 F80.00
G01 X-3.1153 Y-43.1486 F80.00
G01 X-3.1233 Y-43.1692 F80.00
G01 X-3.1295 Y-43.1879 F80.00
G01 X-3.1354 Y-43.2091 F80.00
G01 X-3.1400 Y-43.2295 F80.00
G01 X-3.1436 Y-43.2501 F80.00
G01 X-3.1462 Y-43.2720 F80.00
G01 X-3.1481 Y-43.3112 F80.00
G01 X-3.1476 Y-43.3333 F80.00
G01 X-3.1460 Y-43.3554 F80.00
G01 X-3.1402 Y-43.3942 F80.00
G01 X-3.1354 Y-43.4158 F80.00
G01 X-3.1295 Y-43.4371 F80.00
G01 X-3.1229 Y-43.4568 F80.00
G01 X-3.1078 Y-43.4931 F80.00
G01 X-3.0980 Y-43.5129 F80.00
G01 X-3.0870 Y-43.5321 F80.00
G01 X-3.0652 Y-43.5647 F80.00
G01 X-3.0516 Y-43.5822 F80.00
G01 X-3.0380 Y-43.5980 F80.00
G01 X-3.0227 Y-43.6140 F80.00
G01 X-2.9936 Y-43.6403 F80.00
G01 X-2.9763 Y-43.6540 F80.00
G01 X-2.9426 Y-43.6765 F80.00
G01 X-2.9234 Y-43.6874 F80.00
G01 X-2.9036 Y-43.6973 F80.00
G01 X-2.8662 Y-43.7128 F80.00
G01 X-2.8452 Y-43.7197 F80.00
G01 X-2.8059 Y-43.7295 F80.00
G01 X-2.7659 Y-43.7355 F80.00
G01 X-2.7426 Y-43.7372 F80.00
G01 X-2.7021 Y-43.7371 F80.00
G01 X-2.6618 Y-43.7332 F80.00
G01 X-2.6388 Y-43.7292 F80.00
G01 X-2.6007 Y-43.7197 F80.00
G01 X-2.5786 Y-43.7124 F80.00
G01 X-2.5412 Y-43.6968 F80.00
G01 X-2.5215 Y-43.6868 F80.00
G01 X-2.4878 Y-43.6667 F80.00
G01 X-2.4697 Y-43.6540 F80.00
G01 X-2.4532 Y-43.6411 F80.00
G01 X-2.4374 Y-43.6275 F80.00
G01 X-2.4223 Y-43.6131 F80.00
G01 X-2.2667 Y-43.4570 F80.00
G01 X-2.2524 Y-43.4405 F80.00
G01 X-2.2302 Y-43.4112 F80.00
G01 X-2.2183 Y-43.3929 F80.00
G01 X-2.2001 Y-43.3603 F80.00
G01 X-2.0570 Y-43.0740 F80.00
G01 X-2.0472 Y-43.0530 F80.00
G01 X-2.0394 Y-43.0339 F80.00
G01 X-2.0322 Y-43.0132 F80.00
G01 X-2.0261 Y-42.9922 F80.00
G01 X-2.0211 Y-42.9709 F80.00
G01 X-2.0171 Y-42.9493 F80.00
G01 X-2.0143 Y-42.9276 F80.00
G01 X-2.0126 Y-42.9058 F80.00
G01 X-2.0121 Y-42.8839 F80.00
G01 X-2.0121 Y-42.0267 F80.00
G01 X-2.0126 Y-42.0061 F80.00
G01 X-2.0145 Y-41.9817 F80.00
G01 X-2.0171 Y-41.9613 F80.00
G01 X-2.0211 Y-41.9397 F80.00
G01 X-2.0261 Y-41.9184 F80.00
G01 X-2.0318 Y-41.8986 F80.00
G01 X-2.0399 Y-41.8755 F80.00
G01 X-2.0477 Y-41.8564 F80.00
G01 X-2.0570 Y-41.8366 F80.00
G01 X-2.2090 Y-41.5336 F80.00
G01 X-2.2195 Y-41.5158 F80.00
G01 X-2.2410 Y-41.4846 F80.00
G01 X-2.2539 Y-41.4684 F80.00
G01 X-2.2791 Y-41.4408 F80.00
G01 X-2.4356 Y-41.2848 F80.00
G01 X-2.4521 Y-41.2705 F80.00
G01 X-2.4824 Y-41.2476 F80.00
G01 X-2.4997 Y-41.2363 F80.00
G01 X-2.5323 Y-41.2181 F80.00
G01 X-2.8185 Y-41.0750 F80.00
G01 X-2.8396 Y-41.0652 F80.00
G01 X-2.8587 Y-41.0575 F80.00
G01 X-2.8793 Y-41.0503 F80.00
G01 X-2.9004 Y-41.0442 F80.00
G01 X-2.9217 Y-41.0391 F80.00
G01 X-2.9432 Y-41.0352 F80.00
G01 X-2.9650 Y-41.0324 F80.00
G01 X-2.9868 Y-41.0307 F80.00
G01 X-3.0080 Y-41.0301 F80.00
G01 X-3.7243 Y-41.0301 F80.00
G01 X-3.7449 Y-41.0307 F80.00
G01 X-3.7654 Y-41.0323 F80.00
G01 X-3.7884 Y-41.0352 F80.00
G01 X-3.8112 Y-41.0394 F80.00
G01 X-3.8313 Y-41.0442 F80.00
G01 X-3.8523 Y-41.0503 F80.00
G01 X-3.8742 Y-41.0579 F80.00
G01 X-3.8933 Y-41.0657 F80.00
G01 X-3.9125 Y-41.0747 F80.00
G01 X-4.1993 Y-41.2181 F80.00
G01 X-4.2171 Y-41.2276 F80.00
G01 X-4.2484 Y-41.2470 F80.00
G01 X-4.2805 Y-41.2712 F80.00
G01 X-4.3089 Y-41.2971 F80.00
G01 X-4.4522 Y-41.4404 F80.00
G01 X-4.4793 Y-41.4701 F80.00
G01 X-4.5021 Y-41.5004 F80.00
G01 X-4.5227 Y-41.5336 F80.00
G01 X-4.5777 Y-41.6425 F80.00
G01 X-5.1573 Y-41.1353 F80.00
G01 X-5.1741 Y-41.1213 F80.00
G01 X-5.2058 Y-41.0986 F80.00
G01 X-5.2245 Y-41.0872 F80.00
G01 X-5.2416 Y-41.0778 F80.00
G01 X-5.2625 Y-41.0677 F80.00
G01 X-5.2998 Y-41.0529 F80.00
G01 X-5.3196 Y-41.0467 F80.00
G01 X-5.3396 Y-41.0415 F80.00
G01 X-5.3599 Y-41.0372 F80.00
G01 X-5.3804 Y-41.0340 F80.00
G01 X-5.4204 Y-41.0305 F80.00
G01 X-5.4423 Y-41.0302 F80.00
G01 X-5.4618 Y-41.0308 F80.00
G01 X-5.4849 Y-41.0328 F80.00
G01 X-5.5245 Y-41.0392 F80.00
G01 X-5.5447 Y-41.0439 F80.00
G01 X-5.5646 Y-41.0496 F80.00
G01 X-5.5842 Y-41.0563 F80.00
G01 X-5.6035 Y-41.0640 F80.00
G01 X-5.6397 Y-41.0814 F80.00
G01 X-5.6597 Y-41.0930 F80.00
G01 X-5.6761 Y-41.1036 F80.00
G01 X-5.6939 Y-41.1163 F80.00
G01 X-5.7248 Y-41.1421 F80.00
G01 X-5.7397 Y-41.1565 F80.00
G01 X-5.7539 Y-41.1715 F80.00
G01 X-5.7673 Y-41.1873 F80.00
G01 X-5.7800 Y-41.2037 F80.00
G01 X-5.7918 Y-41.2207 F80.00
G01 X-5.8028 Y-41.2382 F80.00
G01 X-5.8130 Y-41.2563 F80.00
G01 X-5.8222 Y-41.2748 F80.00
G01 X-5.8375 Y-41.3120 F80.00
G01 X-5.8447 Y-41.3340 F80.00
G01 X-5.8499 Y-41.3528 F80.00
G01 X-5.8546 Y-41.3742 F80.00
G01 X-5.8604 Y-41.4140 F80.00
G01 X-5.8619 Y-41.4346 F80.00
G01 X-5.8624 Y-41.4553 F80.00
G00 Z1.9990
G00 X-5.8624 Y-44.3125
G01 F80.00
G01 Z-0.1120
G01 F80.00
G01 X-5.8624 Y-46.1696 F80.00
G01 X-5.8619 Y-46.1905 F80.00
G01 X-5.8603 Y-46.2125 F80.00
G01 X-5.8545 Y-46.2513 F80.00
G01 X-5.8497 Y-46.2729 F80.00
G01 X-5.8438 Y-46.2942 F80.00
G01 X-5.8305 Y-46.3312 F80.00
G01 X-5.8216 Y-46.3514 F80.00
G01 X-5.8116 Y-46.3711 F80.00
G01 X-5.7915 Y-46.4048 F80.00
G01 X-5.7788 Y-46.4229 F80.00
G01 X-5.7651 Y-46.4403 F80.00
G01 X-5.7379 Y-46.4703 F80.00
G01 X-5.7219 Y-46.4855 F80.00
G01 X-5.6915 Y-46.5104 F80.00
G01 X-5.6735 Y-46.5231 F80.00
G01 X-5.6548 Y-46.5349 F80.00
G01 X-5.6202 Y-46.5534 F80.00
G01 X-5.6000 Y-46.5624 F80.00
G01 X-5.5805 Y-46.5699 F80.00
G01 X-5.5607 Y-46.5765 F80.00
G01 X-5.5406 Y-46.5820 F80.00
G01 X-5.5202 Y-46.5866 F80.00
G01 X-5.4996 Y-46.5902 F80.00
G01 X-5.4789 Y-46.5927 F80.00
G01 X-5.4581 Y-46.5943 F80.00
G01 X-5.4373 Y-46.5948 F80.00
G01 X-5.4164 Y-46.5943 F80.00
G01 X-5.3956 Y-46.5927 F80.00
G01 X-5.3749 Y-46.5902 F80.00
G01 X-5.3543 Y-46.5866 F80.00
G01 X-5.3339 Y-46.5820 F80.00
G01 X-5.3138 Y-46.5765 F80.00
G01 X-5.2757 Y-46.5629 F80.00
G01 X-5.2555 Y-46.5540 F80.00
G01 X-5.2368 Y-46.5446 F80.00
G01 X-5.2187 Y-46.5343 F80.00
G01 X-5.2010 Y-46.5231 F80.00
G01 X-5.1840 Y-46.5111 F80.00
G01 X-5.1675 Y-46.4983 F80.00
G01 X-5.1375 Y-46.4711 F80.00
G01 X-5.1222 Y-46.4551 F80.00
G01 X-5.1086 Y-46.4393 F80.00
G01 X-5.0844 Y-46.4068 F80.00
G01 X-5.0726 Y-46.3882 F80.00
G01 X-5.0629 Y-46.3711 F80.00
G01 X-5.0524 Y-46.3503 F80.00
G01 X-5.0369 Y-46.3128 F80.00
G01 X-5.0304 Y-46.2930 F80.00
G01 X-5.0248 Y-46.2729 F80.00
G01 X-5.0202 Y-46.2526 F80.00
G01 X-5.0167 Y-46.2320 F80.00
G01 X-5.0141 Y-46.2113 F80.00
G01 X-5.0125 Y-46.1892 F80.00
G01 X-5.0121 Y-45.2495 F80.00
G01 X-4.5739 Y-45.6328 F80.00
G01 X-4.5585 Y-45.6457 F80.00
G01 X-4.5409 Y-45.6589 F80.00
G01 X-4.5082 Y-45.6800 F80.00
G01 X-4.4900 Y-45.6900 F80.00
G01 X-4.4703 Y-45.6995 F80.00
G01 X-4.4512 Y-45.7077 F80.00
G01 X-4.4318 Y-45.7148 F80.00
G01 X-4.4121 Y-45.7210 F80.00
G01 X-4.3920 Y-45.7263 F80.00
G01 X-4.3718 Y-45.7305 F80.00
G01 X-4.3513 Y-45.7338 F80.00
G01 X-4.3295 Y-45.7362 F80.00
G01 X-4.3100 Y-45.7374 F80.00
G01 X-4.2881 Y-45.7376 F80.00
G01 X-4.2492 Y-45.7352 F80.00
G01 X-4.2287 Y-45.7325 F80.00
G01 X-4.2071 Y-45.7286 F80.00
G01 X-4.1870 Y-45.7238 F80.00
G01 X-4.1670 Y-45.7181 F80.00
G01 X-4.1474 Y-45.7114 F80.00
G01 X-4.1282 Y-45.7038 F80.00
G01 X-4.1093 Y-45.6953 F80.00
G01 X-4.0740 Y-45.6761 F80.00
G01 X-4.0546 Y-45.6635 F80.00
G01 X-4.0387 Y-45.6522 F80.00
G01 X-4.0215 Y-45.6385 F80.00
G01 X-3.9920 Y-45.6113 F80.00
G01 X-3.9778 Y-45.5962 F80.00
G01 X-3.9643 Y-45.5805 F80.00
G01 X-3.9517 Y-45.5641 F80.00
G01 X-3.9398 Y-45.5471 F80.00
G01 X-3.9288 Y-45.5296 F80.00
G01 X-3.9187 Y-45.5115 F80.00
G01 X-3.9094 Y-45.4930 F80.00
G01 X-3.9011 Y-45.4740 F80.00
G01 X-3.8937 Y-45.4547 F80.00
G01 X-3.8872 Y-45.4350 F80.00
G01 X-3.8818 Y-45.4150 F80.00
G01 X-3.8773 Y-45.3948 F80.00
G01 X-3.8737 Y-45.3744 F80.00
G01 X-3.8712 Y-45.3538 F80.00
G01 X-3.8697 Y-45.3332 F80.00
G01 X-3.8692 Y-45.3125 F80.00
G01 X-3.8692 Y-44.9843 F80.00
G01 X-3.8021 Y-44.8500 F80.00
G01 X-3.7568 Y-44.8048 F80.00
G01 X-3.6226 Y-44.7376 F80.00
G01 X-3.1091 Y-44.7376 F80.00
G01 X-2.9748 Y-44.8048 F80.00
G01 X-2.9296 Y-44.8500 F80.00
G01 X-2.8624 Y-44.9843 F80.00
G01 X-2.8624 Y-45.6407 F80.00
G01 X-2.9296 Y-45.7749 F80.00
G01 X-3.0380 Y-45.8841 F80.00
G01 X-3.0516 Y-45.8999 F80.00
G01 X-3.0645 Y-45.9163 F80.00
G01 X-3.0765 Y-45.9334 F80.00
G01 X-3.0883 Y-45.9521 F80.00
G01 X-3.1068 Y-45.9867 F80.00
G01 X-3.1153 Y-46.0058 F80.00
G01 X-3.1233 Y-46.0264 F80.00
G01 X-3.1295 Y-46.0450 F80.00
G01 X-3.1354 Y-46.0663 F80.00
G01 X-3.1400 Y-46.0867 F80.00
G01 X-3.1436 Y-46.1072 F80.00
G01 X-3.1462 Y-46.1291 F80.00
G01 X-3.1481 Y-46.1684 F80.00
G01 X-3.1477 Y-46.1892 F80.00
G01 X-3.1461 Y-46.2113 F80.00
G01 X-3.1434 Y-46.2332 F80.00
G01 X-3.1357 Y-46.2717 F80.00
G01 X-3.1299 Y-46.2930 F80.00
G01 X-3.1229 Y-46.3140 F80.00
G01 X-3.1078 Y-46.3503 F80.00
G01 X-3.0980 Y-46.3700 F80.00
G01 X-3.0870 Y-46.3892 F80.00
G01 X-3.0652 Y-46.4219 F80.00
G01 X-3.0516 Y-46.4393 F80.00
G01 X-3.0380 Y-46.4551 F80.00
G01 X-3.0227 Y-46.4711 F80.00
G01 X-2.9936 Y-46.4975 F80.00
G01 X-2.9763 Y-46.5111 F80.00
G01 X-2.9582 Y-46.5238 F80.00
G01 X-2.9234 Y-46.5446 F80.00
G01 X-2.9036 Y-46.5545 F80.00
G01 X-2.8662 Y-46.5699 F80.00
G01 X-2.8452 Y-46.5768 F80.00
G01 X-2.8059 Y-46.5866 F80.00
G01 X-2.7659 Y-46.5926 F80.00
G01 X-2.7426 Y-46.5943 F80.00
G01 X-2.7033 Y-46.5943 F80.00
G01 X-2.6801 Y-46.5926 F80.00
G01 X-2.6400 Y-46.5866 F80.00
G01 X-2.6007 Y-46.5768 F80.00
G01 X-2.5786 Y-46.5695 F80.00
G01 X-2.5412 Y-46.5540 F80.00
G01 X-2.5215 Y-46.5440 F80.00
G01 X-2.4878 Y-46.5238 F80.00
G01 X-2.4697 Y-46.5111 F80.00
G01 X-2.4532 Y-46.4983 F80.00
G01 X-2.4374 Y-46.4846 F80.00
G01 X-2.4223 Y-46.4703 F80.00
G01 X-2.2667 Y-46.3141 F80.00
G01 X-2.2524 Y-46.2976 F80.00
G01 X-2.2302 Y-46.2683 F80.00
G01 X-2.2183 Y-46.2500 F80.00
G01 X-2.2001 Y-46.2174 F80.00
G01 X-2.0570 Y-45.9312 F80.00
G01 X-2.0472 Y-45.9102 F80.00
G01 X-2.0394 Y-45.8911 F80.00
G01 X-2.0322 Y-45.8704 F80.00
G01 X-2.0261 Y-45.8493 F80.00
G01 X-2.0211 Y-45.8280 F80.00
G01 X-2.0171 Y-45.8065 F80.00
G01 X-2.0143 Y-45.7848 F80.00
G01 X-2.0126 Y-45.7629 F80.00
G01 X-2.0121 Y-45.7410 F80.00
G01 X-2.0121 Y-44.8839 F80.00
G01 X-2.0126 Y-44.8633 F80.00
G01 X-2.0145 Y-44.8389 F80.00
G01 X-2.0171 Y-44.8184 F80.00
G01 X-2.0211 Y-44.7969 F80.00
G01 X-2.0261 Y-44.7756 F80.00
G01 X-2.0318 Y-44.7558 F80.00
G01 X-2.0399 Y-44.7327 F80.00
G01 X-2.0477 Y-44.7136 F80.00
G01 X-2.0570 Y-44.6937 F80.00
G01 X-2.2090 Y-44.3907 F80.00
G01 X-2.2195 Y-44.3729 F80.00
G01 X-2.2410 Y-44.3417 F80.00
G01 X-2.2539 Y-44.3255 F80.00
G01 X-2.2791 Y-44.2979 F80.00
G01 X-2.4356 Y-44.1419 F80.00
G01 X-2.4521 Y-44.1276 F80.00
G01 X-2.4824 Y-44.1048 F80.00
G01 X-2.4997 Y-44.0935 F80.00
G01 X-2.5323 Y-44.0753 F80.00
G01 X-2.8185 Y-43.9322 F80.00
G01 X-2.8396 Y-43.9224 F80.00
G01 X-2.8587 Y-43.9146 F80.00
G01 X-2.8793 Y-43.9074 F80.00
G01 X-2.9004 Y-43.9013 F80.00
G01 X-2.9217 Y-43.8963 F80.00
G01 X-2.9432 Y-43.8923 F80.00
G01 X-2.9650 Y-43.8895 F80.00
G01 X-2.9868 Y-43.8878 F80.00
G01 X-3.0080 Y-43.8873 F80.00
G01 X-3.7243 Y-43.8873 F80.00
G01 X-3.7449 Y-43.8878 F80.00
G01 X-3.7654 Y-43.8894 F80.00
G01 X-3.7884 Y-43.8923 F80.00
G01 X-3.8112 Y-43.8965 F80.00
G01 X-3.8313 Y-43.9013 F80.00
G01 X-3.8523 Y-43.9074 F80.00
G01 X-3.8742 Y-43.9151 F80.00
G01 X-3.8933 Y-43.9229 F80.00
G01 X-3.9125 Y-43.9319 F80.00
G01 X-4.1994 Y-44.0753 F80.00
G01 X-4.2171 Y-44.0847 F80.00
G01 X-4.2484 Y-44.1041 F80.00
G01 X-4.2805 Y-44.1283 F80.00
G01 X-4.3089 Y-44.1543 F80.00
G01 X-4.4522 Y-44.2975 F80.00
G01 X-4.4793 Y-44.3273 F80.00
G01 X-4.5021 Y-44.3576 F80.00
G01 X-4.5227 Y-44.3907 F80.00
G01 X-4.5777 Y-44.4996 F80.00
G01 X-5.1573 Y-43.9925 F80.00
G01 X-5.1741 Y-43.9785 F80.00
G01 X-5.2058 Y-43.9558 F80.00
G01 X-5.2245 Y-43.9443 F80.00
G01 X-5.2416 Y-43.9350 F80.00
G01 X-5.2625 Y-43.9249 F80.00
G01 X-5.2998 Y-43.9101 F80.00
G01 X-5.3196 Y-43.9039 F80.00
G01 X-5.3396 Y-43.8986 F80.00
G01 X-5.3599 Y-43.8944 F80.00
G01 X-5.3804 Y-43.8911 F80.00
G01 X-5.4204 Y-43.8876 F80.00
G01 X-5.4423 Y-43.8873 F80.00
G01 X-5.4618 Y-43.8880 F80.00
G01 X-5.4849 Y-43.8900 F80.00
G01 X-5.5245 Y-43.8963 F80.00
G01 X-5.5447 Y-43.9011 F80.00
G01 X-5.5646 Y-43.9068 F80.00
G01 X-5.5842 Y-43.9135 F80.00
G01 X-5.6035 Y-43.9211 F80.00
G01 X-5.6397 Y-43.9386 F80.00
G01 X-5.6597 Y-43.9501 F80.00
G01 X-5.6761 Y-43.9607 F80.00
G01 X-5.6939 Y-43.9735 F80.00
G01 X-5.7248 Y-43.9992 F80.00
G01 X-5.7397 Y-44.0136 F80.00
G01 X-5.7539 Y-44.0287 F80.00
G01 X-5.7673 Y-44.0444 F80.00
G01 X-5.7800 Y-44.0608 F80.00
G01 X-5.7918 Y-44.0778 F80.00
G01 X-5.8028 Y-44.0954 F80.00
G01 X-5.8130 Y-44.1134 F80.00
G01 X-5.8222 Y-44.1320 F80.00
G01 X-5.8375 Y-44.1691 F80.00
G01 X-5.8447 Y-44.1911 F80.00
G01 X-5.8499 Y-44.2099 F80.00
G01 X-5.8546 Y-44.2313 F80.00
G01 X-5.8604 Y-44.2711 F80.00
G01 X-5.8619 Y-44.2918 F80.00
G01 X-5.8624 Y-44.3125 F80.00
G00 Z1.9990
G00 X-4.8545 Y-47.3736
G01 F80.00
G01 Z-0.1120
G01 F80.00
G01 X-4.8604 Y-47.4136 F80.00
G01 X-4.8624 Y-47.4541 F80.00
G01 X-4.8619 Y-47.4774 F80.00
G01 X-4.8580 Y-47.5165 F80.00
G01 X-4.8540 Y-47.5395 F80.00
G01 X-4.8441 Y-47.5787 F80.00
G01 X-4.8372 Y-47.5997 F80.00
G01 X-4.8216 Y-47.6371 F80.00
G01 X-4.8026 Y-47.6728 F80.00
G01 X-4.7901 Y-47.6925 F80.00
G01 X-4.7659 Y-47.7250 F80.00
G01 X-4.7388 Y-47.7551 F80.00
G01 X-4.7219 Y-47.7712 F80.00
G01 X-4.6905 Y-47.7968 F80.00
G01 X-4.6569 Y-47.8194 F80.00
G01 X-4.6366 Y-47.8309 F80.00
G01 X-4.6000 Y-47.8481 F80.00
G01 X-4.5805 Y-47.8556 F80.00
G01 X-4.5595 Y-47.8625 F80.00
G01 X-4.5406 Y-47.8678 F80.00
G01 X-4.5190 Y-47.8726 F80.00
G01 X-4.4802 Y-47.8783 F80.00
G01 X-4.4593 Y-47.8799 F80.00
G01 X-4.4373 Y-47.8805 F80.00
G01 X-3.8624 Y-47.8805 F80.00
G01 X-3.8624 Y-48.2940 F80.00
G01 X-5.4462 Y-47.7660 F80.00
G01 X-5.4858 Y-47.7550 F80.00
G01 X-5.5063 Y-47.7509 F80.00
G01 X-5.5269 Y-47.7478 F80.00
G01 X-5.5477 Y-47.7456 F80.00
G01 X-5.5685 Y-47.7446 F80.00
G01 X-5.6090 Y-47.7454 F80.00
G01 X-5.6322 Y-47.7476 F80.00
G01 X-5.6710 Y-47.7542 F80.00
G01 X-5.6924 Y-47.7595 F80.00
G01 X-5.7136 Y-47.7659 F80.00
G01 X-5.7502 Y-47.7799 F80.00
G01 X-5.7703 Y-47.7893 F80.00
G01 X-5.7898 Y-47.7997 F80.00
G01 X-5.8230 Y-47.8206 F80.00
G01 X-5.8408 Y-47.8337 F80.00
G01 X-5.8579 Y-47.8477 F80.00
G01 X-5.8864 Y-47.8747 F80.00
G01 X-5.9013 Y-47.8910 F80.00
G01 X-5.9154 Y-47.9081 F80.00
G01 X-5.9381 Y-47.9401 F80.00
G01 X-5.9495 Y-47.9590 F80.00
G01 X-5.9599 Y-47.9785 F80.00
G01 X-5.9759 Y-48.0144 F80.00
G01 X-5.9835 Y-48.0351 F80.00
G01 X-5.9899 Y-48.0563 F80.00
G01 X-5.9986 Y-48.0946 F80.00
G01 X-6.0020 Y-48.1164 F80.00
G01 X-6.0041 Y-48.1384 F80.00
G01 X-6.0052 Y-48.1777 F80.00
G01 X-6.0042 Y-48.1997 F80.00
G01 X-6.0021 Y-48.2217 F80.00
G01 X-5.9952 Y-48.2616 F80.00
G01 X-5.9899 Y-48.2831 F80.00
G01 X-5.9776 Y-48.3204 F80.00
G01 X-5.9693 Y-48.3409 F80.00
G01 X-5.9599 Y-48.3608 F80.00
G01 X-5.9406 Y-48.3951 F80.00
G01 X-5.9277 Y-48.4145 F80.00
G01 X-5.9036 Y-48.4455 F80.00
G01 X-5.8888 Y-48.4620 F80.00
G01 X-5.8732 Y-48.4776 F80.00
G01 X-5.8426 Y-48.5041 F80.00
G01 X-5.8096 Y-48.5275 F80.00
G01 X-5.7907 Y-48.5390 F80.00
G01 X-5.7546 Y-48.5573 F80.00
G01 X-5.7331 Y-48.5663 F80.00
G01 X-3.5711 Y-49.2874 F80.00
G01 X-3.5332 Y-49.2981 F80.00
G01 X-3.5118 Y-49.3025 F80.00
G01 X-3.4721 Y-49.3076 F80.00
G01 X-3.4503 Y-49.3089 F80.00
G01 X-3.4102 Y-49.3082 F80.00
G01 X-3.3873 Y-49.3061 F80.00
G01 X-3.3478 Y-49.2995 F80.00
G01 X-3.3091 Y-49.2893 F80.00
G01 X-3.2873 Y-49.2817 F80.00
G01 X-3.2505 Y-49.2659 F80.00
G01 X-3.2154 Y-49.2466 F80.00
G01 X-3.1961 Y-49.2340 F80.00
G01 X-3.1642 Y-49.2098 F80.00
G01 X-3.1348 Y-49.1827 F80.00
G01 X-3.1190 Y-49.1658 F80.00
G01 X-3.0939 Y-49.1347 F80.00
G01 X-3.0719 Y-49.1013 F80.00
G01 X-3.0606 Y-49.0811 F80.00
G01 X-3.0437 Y-49.0448 F80.00
G01 X-3.0364 Y-49.0256 F80.00
G01 X-3.0300 Y-49.0059 F80.00
G01 X-3.0242 Y-48.9849 F80.00
G01 X-3.0166 Y-48.9456 F80.00
G01 X-3.0140 Y-48.9239 F80.00
G01 X-3.0121 Y-48.8845 F80.00
G01 X-3.0121 Y-47.8805 F80.00
G01 X-2.4164 Y-47.8800 F80.00
G01 X-2.3761 Y-47.8761 F80.00
G01 X-2.3531 Y-47.8721 F80.00
G01 X-2.3138 Y-47.8622 F80.00
G01 X-2.2940 Y-47.8556 F80.00
G01 X-2.2745 Y-47.8481 F80.00
G01 X-2.2544 Y-47.8391 F80.00
G01 X-2.2187 Y-47.8200 F80.00
G01 X-2.2000 Y-47.8082 F80.00
G01 X-2.1675 Y-47.7840 F80.00
G01 X-2.1375 Y-47.7568 F80.00
G01 X-2.1222 Y-47.7409 F80.00
G01 X-2.1078 Y-47.7241 F80.00
G01 X-2.0844 Y-47.6925 F80.00
G01 X-2.0719 Y-47.6728 F80.00
G01 X-2.0529 Y-47.6371 F80.00
G01 X-2.0440 Y-47.6169 F80.00
G01 X-2.0307 Y-47.5799 F80.00
G01 X-2.0248 Y-47.5586 F80.00
G01 X-2.0200 Y-47.5371 F80.00
G01 X-2.0143 Y-47.4982 F80.00
G01 X-2.0125 Y-47.4750 F80.00
G01 X-2.0125 Y-47.4357 F80.00
G01 X-2.0141 Y-47.4136 F80.00
G01 X-2.0169 Y-47.3917 F80.00
G01 X-2.0245 Y-47.3532 F80.00
G01 X-2.0304 Y-47.3319 F80.00
G01 X-2.0374 Y-47.3109 F80.00
G01 X-2.0524 Y-47.2746 F80.00
G01 X-2.0623 Y-47.2549 F80.00
G01 X-2.0732 Y-47.2357 F80.00
G01 X-2.0950 Y-47.2030 F80.00
G01 X-2.1086 Y-47.1856 F80.00
G01 X-2.1230 Y-47.1689 F80.00
G01 X-2.1508 Y-47.1411 F80.00
G01 X-2.1675 Y-47.1266 F80.00
G01 X-2.1850 Y-47.1131 F80.00
G01 X-2.2176 Y-47.0913 F80.00
G01 X-2.2368 Y-47.0803 F80.00
G01 X-2.2555 Y-47.0709 F80.00
G01 X-2.2745 Y-47.0625 F80.00
G01 X-2.2952 Y-47.0546 F80.00
G01 X-2.3328 Y-47.0432 F80.00
G01 X-2.3531 Y-47.0386 F80.00
G01 X-2.3749 Y-47.0347 F80.00
G01 X-2.3968 Y-47.0321 F80.00
G01 X-2.4373 Y-47.0301 F80.00
G01 X-3.0121 Y-47.0301 F80.00
G01 X-3.0127 Y-47.0047 F80.00
G01 X-3.0141 Y-46.9851 F80.00
G01 X-3.0169 Y-46.9631 F80.00
G01 X-3.0248 Y-46.9234 F80.00
G01 X-3.0304 Y-46.9033 F80.00
G01 X-3.0374 Y-46.8824 F80.00
G01 X-3.0529 Y-46.8450 F80.00
G01 X-3.0623 Y-46.8263 F80.00
G01 X-3.0726 Y-46.8082 F80.00
G01 X-3.0837 Y-46.7905 F80.00
G01 X-3.0957 Y-46.7735 F80.00
G01 X-3.1086 Y-46.7570 F80.00
G01 X-3.1230 Y-46.7403 F80.00
G01 X-3.1517 Y-46.7117 F80.00
G01 X-3.1675 Y-46.6981 F80.00
G01 X-3.1840 Y-46.6852 F80.00
G01 X-3.2010 Y-46.6732 F80.00
G01 X-3.2187 Y-46.6620 F80.00
G01 X-3.2368 Y-46.6518 F80.00
G01 X-3.2555 Y-46.6424 F80.00
G01 X-3.2745 Y-46.6339 F80.00
G01 X-3.2940 Y-46.6264 F80.00
G01 X-3.3138 Y-46.6199 F80.00
G01 X-3.3339 Y-46.6143 F80.00
G01 X-3.3543 Y-46.6097 F80.00
G01 X-3.3749 Y-46.6062 F80.00
G01 X-3.3956 Y-46.6036 F80.00
G01 X-3.4176 Y-46.6020 F80.00
G01 X-3.4569 Y-46.6020 F80.00
G01 X-3.4777 Y-46.6035 F80.00
G01 X-3.4996 Y-46.6062 F80.00
G01 X-3.5190 Y-46.6095 F80.00
G01 X-3.5406 Y-46.6143 F80.00
G01 X-3.5607 Y-46.6199 F80.00
G01 X-3.5988 Y-46.6335 F80.00
G01 X-3.6190 Y-46.6424 F80.00
G01 X-3.6377 Y-46.6518 F80.00
G01 X-3.6558 Y-46.6620 F80.00
G01 X-3.6735 Y-46.6732 F80.00
G01 X-3.6905 Y-46.6852 F80.00
G01 X-3.7070 Y-46.6981 F80.00
G01 X-3.7370 Y-46.7252 F80.00
G01 X-3.7523 Y-46.7412 F80.00
G01 X-3.7659 Y-46.7570 F80.00
G01 X-3.7788 Y-46.7735 F80.00
G01 X-3.7908 Y-46.7905 F80.00
G01 X-3.8020 Y-46.8082 F80.00
G01 X-3.8122 Y-46.8263 F80.00
G01 X-3.8216 Y-46.8450 F80.00
G01 X-3.8301 Y-46.8640 F80.00
G01 X-3.8376 Y-46.8835 F80.00
G01 X-3.8441 Y-46.9033 F80.00
G01 X-3.8497 Y-46.9234 F80.00
G01 X-3.8543 Y-46.9438 F80.00
G01 X-3.8578 Y-46.9644 F80.00
G01 X-3.8604 Y-46.9851 F80.00
G01 X-3.8619 Y-47.0059 F80.00
G01 X-3.8624 Y-47.0301 F80.00
G01 X-4.4569 Y-47.0306 F80.00
G01 X-4.4802 Y-47.0323 F80.00
G01 X-4.5202 Y-47.0383 F80.00
G01 X-4.5595 Y-47.0481 F80.00
G01 X-4.5805 Y-47.0550 F80.00
G01 X-4.6011 Y-47.0630 F80.00
G01 X-4.6366 Y-47.0798 F80.00
G01 X-4.6558 Y-47.0906 F80.00
G01 X-4.6745 Y-47.1025 F80.00
G01 X-4.7060 Y-47.1259 F80.00
G01 X-4.7228 Y-47.1403 F80.00
G01 X-4.7388 Y-47.1555 F80.00
G01 X-4.7651 Y-47.1846 F80.00
G01 X-4.7788 Y-47.2020 F80.00
G01 X-4.7915 Y-47.2201 F80.00
G01 X-4.8116 Y-47.2538 F80.00
G01 X-4.8216 Y-47.2735 F80.00
G01 X-4.8305 Y-47.2937 F80.00
G01 X-4.8438 Y-47.3307 F80.00
G01 X-4.8497 Y-47.3520 F80.00
G01 X-4.8545 Y-47.3736 F80.00
G00 Z1.9990
G00 X-5.8545 Y-52.2307
G01 F80.00
G01 Z-0.1120
G01 F80.00
G01 X-5.8578 Y-52.2501 F80.00
G01 X-5.8605 Y-52.2720 F80.00
G01 X-5.8620 Y-52.2928 F80.00
G01 X-5.8620 Y-52.3321 F80.00
G01 X-5.8604 Y-52.3541 F80.00
G01 X-5.8578 Y-52.3748 F80.00
G01 X-5.8543 Y-52.3954 F80.00
G01 X-5.8497 Y-52.4158 F80.00
G01 X-5.8441 Y-52.4359 F80.00
G01 X-5.8376 Y-52.4557 F80.00
G01 X-5.8301 Y-52.4752 F80.00
G01 X-5.8211 Y-52.4954 F80.00
G01 X-5.8116 Y-52.5140 F80.00
G01 X-5.7915 Y-52.5477 F80.00
G01 X-5.7788 Y-52.5657 F80.00
G01 X-5.7659 Y-52.5822 F80.00
G01 X-5.7523 Y-52.5980 F80.00
G01 X-5.7379 Y-52.6131 F80.00
G01 X-4.7495 Y-53.6016 F80.00
G01 X-5.4373 Y-53.6016 F80.00
G01 X-5.4581 Y-53.6021 F80.00
G01 X-5.4802 Y-53.6037 F80.00
G01 X-5.5190 Y-53.6095 F80.00
G01 X-5.5418 Y-53.6146 F80.00
G01 X-5.5805 Y-53.6264 F80.00
G01 X-5.6179 Y-53.6419 F80.00
G01 X-5.6388 Y-53.6524 F80.00
G01 X-5.6735 Y-53.6732 F80.00
G01 X-5.6915 Y-53.6860 F80.00
G01 X-5.7228 Y-53.7117 F80.00
G01 X-5.7379 Y-53.7261 F80.00
G01 X-5.7531 Y-53.7421 F80.00
G01 X-5.7780 Y-53.7725 F80.00
G01 X-5.7908 Y-53.7905 F80.00
G01 X-5.8020 Y-53.8082 F80.00
G01 X-5.8128 Y-53.8274 F80.00
G01 X-5.8296 Y-53.8629 F80.00
G01 X-5.8372 Y-53.8824 F80.00
G01 X-5.8441 Y-53.9033 F80.00
G01 X-5.8497 Y-53.9234 F80.00
G01 X-5.8543 Y-53.9438 F80.00
G01 X-5.8580 Y-53.9656 F80.00
G01 X-5.8619 Y-54.0047 F80.00
G01 X-5.8624 Y-54.0255 F80.00
G01 X-5.8619 Y-54.0476 F80.00
G01 X-5.8603 Y-54.0696 F80.00
G01 X-5.8545 Y-54.1085 F80.00
G01 X-5.8500 Y-54.1289 F80.00
G01 X-5.8441 Y-54.1502 F80.00
G01 X-5.8376 Y-54.1700 F80.00
G01 X-5.8301 Y-54.1895 F80.00
G01 X-5.8211 Y-54.2096 F80.00
G01 X-5.8026 Y-54.2443 F80.00
G01 X-5.7908 Y-54.2630 F80.00
G01 X-5.7780 Y-54.2810 F80.00
G01 X-5.7531 Y-54.3114 F80.00
G01 X-5.7379 Y-54.3274 F80.00
G01 X-5.7228 Y-54.3418 F80.00
G01 X-5.7060 Y-54.3562 F80.00
G01 X-5.6745 Y-54.3796 F80.00
G01 X-5.6558 Y-54.3914 F80.00
G01 X-5.6377 Y-54.4017 F80.00
G01 X-5.6190 Y-54.4111 F80.00
G01 X-5.5988 Y-54.4200 F80.00
G01 X-5.5619 Y-54.4333 F80.00
G01 X-5.5406 Y-54.4392 F80.00
G01 X-5.5202 Y-54.4438 F80.00
G01 X-5.4984 Y-54.4475 F80.00
G01 X-5.4593 Y-54.4513 F80.00
G01 X-5.4379 Y-54.4519 F80.00
G01 X-2.4373 Y-54.4519 F80.00
G01 X-2.4164 Y-54.4514 F80.00
G01 X-2.3944 Y-54.4497 F80.00
G01 X-2.3555 Y-54.4440 F80.00
G01 X-2.3339 Y-54.4392 F80.00
G01 X-2.3127 Y-54.4333 F80.00
G01 X-2.2757 Y-54.4200 F80.00
G01 X-2.2555 Y-54.4111 F80.00
G01 X-2.2358 Y-54.4011 F80.00
G01 X-2.2021 Y-54.3809 F80.00
G01 X-2.1840 Y-54.3683 F80.00
G01 X-2.1666 Y-54.3546 F80.00
G01 X-2.1375 Y-54.3283 F80.00
G01 X-2.1222 Y-54.3123 F80.00
G01 X-2.1078 Y-54.2955 F80.00
G01 X-2.0844 Y-54.2640 F80.00
G01 X-2.0726 Y-54.2453 F80.00
G01 X-2.0623 Y-54.2272 F80.00
G01 X-2.0529 Y-54.2085 F80.00
G01 X-2.0444 Y-54.1895 F80.00
G01 X-2.0369 Y-54.1700 F80.00
G01 X-2.0304 Y-54.1502 F80.00
G01 X-2.0248 Y-54.1301 F80.00
G01 X-2.0202 Y-54.1097 F80.00
G01 X-2.0167 Y-54.0891 F80.00
G01 X-2.0140 Y-54.0672 F80.00
G01 X-2.0125 Y-54.0464 F80.00
G01 X-2.0125 Y-54.0071 F80.00
G01 X-2.0141 Y-53.9851 F80.00
G01 X-2.0165 Y-53.9656 F80.00
G01 X-2.0202 Y-53.9438 F80.00
G01 X-2.0248 Y-53.9234 F80.00
G01 X-2.0365 Y-53.8847 F80.00
G01 X-2.0444 Y-53.8640 F80.00
G01 X-2.0529 Y-53.8450 F80.00
G01 X-2.0623 Y-53.8263 F80.00
G01 X-2.0726 Y-53.8082 F80.00
G01 X-2.0837 Y-53.7905 F80.00
G01 X-2.0957 Y-53.7735 F80.00
G01 X-2.1086 Y-53.7570 F80.00
G01 X-2.1222 Y-53.7412 F80.00
G01 X-2.1366 Y-53.7261 F80.00
G01 X-2.1517 Y-53.7117 F80.00
G01 X-2.1675 Y-53.6981 F80.00
G01 X-2.1840 Y-53.6852 F80.00
G01 X-2.2010 Y-53.6732 F80.00
G01 X-2.2187 Y-53.6620 F80.00
G01 X-2.2368 Y-53.6518 F80.00
G01 X-2.2566 Y-53.6419 F80.00
G01 X-2.2940 Y-53.6264 F80.00
G01 X-2.3138 Y-53.6199 F80.00
G01 X-2.3339 Y-53.6143 F80.00
G01 X-2.3543 Y-53.6097 F80.00
G01 X-2.3749 Y-53.6062 F80.00
G01 X-2.3956 Y-53.6036 F80.00
G01 X-2.4176 Y-53.6020 F80.00
G01 X-3.4474 Y-53.6016 F80.00
G01 X-2.1817 Y-52.6522 F80.00
G01 X-2.1509 Y-52.6268 F80.00
G01 X-2.1350 Y-52.6115 F80.00
G01 X-2.1079 Y-52.5814 F80.00
G01 X-2.0944 Y-52.5639 F80.00
G01 X-2.0825 Y-52.5468 F80.00
G01 X-2.0708 Y-52.5280 F80.00
G01 X-2.0606 Y-52.5098 F80.00
G01 X-2.0440 Y-52.4742 F80.00
G01 X-2.0362 Y-52.4535 F80.00
G01 X-2.0297 Y-52.4337 F80.00
G01 X-2.0243 Y-52.4136 F80.00
G01 X-2.0198 Y-52.3932 F80.00
G01 X-2.0163 Y-52.3726 F80.00
G01 X-2.0139 Y-52.3519 F80.00
G01 X-2.0125 Y-52.3310 F80.00
G01 X-2.0121 Y-52.3089 F80.00
G01 X-2.0127 Y-52.2893 F80.00
G01 X-2.0145 Y-52.2673 F80.00
G01 X-2.0172 Y-52.2466 F80.00
G01 X-2.0251 Y-52.2081 F80.00
G01 X-2.0310 Y-52.1869 F80.00
G01 X-2.0377 Y-52.1671 F80.00
G01 X-2.0453 Y-52.1476 F80.00
G01 X-2.0539 Y-52.1286 F80.00
G01 X-2.0634 Y-52.1100 F80.00
G01 X-2.0737 Y-52.0919 F80.00
G01 X-2.0850 Y-52.0743 F80.00
G01 X-2.0979 Y-52.0564 F80.00
G01 X-2.1100 Y-52.0410 F80.00
G01 X-2.1246 Y-52.0243 F80.00
G01 X-2.1525 Y-51.9967 F80.00
G01 X-2.1683 Y-51.9831 F80.00
G01 X-2.1858 Y-51.9696 F80.00
G01 X-2.2029 Y-51.9577 F80.00
G01 X-2.2206 Y-51.9466 F80.00
G01 X-2.2388 Y-51.9364 F80.00
G01 X-2.2575 Y-51.9271 F80.00
G01 X-2.2778 Y-51.9183 F80.00
G01 X-2.3148 Y-51.9053 F80.00
G01 X-2.3362 Y-51.8995 F80.00
G01 X-2.3578 Y-51.8948 F80.00
G01 X-2.3966 Y-51.8892 F80.00
G01 X-2.4187 Y-51.8877 F80.00
G01 X-2.4408 Y-51.8873 F80.00
G01 X-2.4616 Y-51.8880 F80.00
G01 X-2.5007 Y-51.8920 F80.00
G01 X-2.5224 Y-51.8959 F80.00
G01 X-2.5440 Y-51.9009 F80.00
G01 X-2.5815 Y-51.9125 F80.00
G01 X-2.6021 Y-51.9205 F80.00
G01 X-2.6222 Y-51.9296 F80.00
G01 X-2.6567 Y-51.9483 F80.00
G01 X-2.6754 Y-51.9602 F80.00
G01 X-2.6924 Y-51.9723 F80.00
G01 X-4.1116 Y-53.0368 F80.00
G01 X-5.1370 Y-52.0114 F80.00
G01 X-5.1675 Y-51.9838 F80.00
G01 X-5.2000 Y-51.9596 F80.00
G01 X-5.2197 Y-51.9471 F80.00
G01 X-5.2555 Y-51.9281 F80.00
G01 X-5.2745 Y-51.9196 F80.00
G01 X-5.2952 Y-51.9117 F80.00
G01 X-5.3328 Y-51.9003 F80.00
G01 X-5.3531 Y-51.8957 F80.00
G01 X-5.3749 Y-51.8919 F80.00
G01 X-5.3956 Y-51.8893 F80.00
G01 X-5.4164 Y-51.8878 F80.00
G01 X-5.4385 Y-51.8873 F80.00
G01 X-5.4593 Y-51.8879 F80.00
G01 X-5.4984 Y-51.8917 F80.00
G01 X-5.5202 Y-51.8954 F80.00
G01 X-5.5406 Y-51.9000 F80.00
G01 X-5.5607 Y-51.9056 F80.00
G01 X-5.5816 Y-51.9126 F80.00
G01 X-5.6011 Y-51.9201 F80.00
G01 X-5.6366 Y-51.9369 F80.00
G01 X-5.6558 Y-51.9478 F80.00
G01 X-5.6735 Y-51.9589 F80.00
G01 X-5.6905 Y-51.9709 F80.00
G01 X-5.7079 Y-51.9846 F80.00
G01 X-5.7237 Y-51.9982 F80.00
G01 X-5.7515 Y-52.0260 F80.00
G01 X-5.7659 Y-52.0427 F80.00
G01 X-5.7788 Y-52.0592 F80.00
G01 X-5.7908 Y-52.0762 F80.00
G01 X-5.8026 Y-52.0949 F80.00
G01 X-5.8128 Y-52.1131 F80.00
G01 X-5.8296 Y-52.1486 F80.00
G01 X-5.8376 Y-52.1692 F80.00
G01 X-5.8441 Y-52.1890 F80.00
G01 X-5.8497 Y-52.2091 F80.00
G01 X-5.8545 Y-52.2307 F80.00
G00 Z1.9990
G00 X-5.5717 Y-56.4301
G01 F80.00
G01 Z-0.1120
G01 F80.00
G01 X-2.5529 Y-57.4359 F80.00
G01 X-2.5315 Y-57.4413 F80.00
G01 X-2.5123 Y-57.4452 F80.00
G01 X-2.4892 Y-57.4487 F80.00
G01 X-2.4488 Y-57.4518 F80.00
G01 X-2.4280 Y-57.4518 F80.00
G01 X-2.4071 Y-57.4509 F80.00
G01 X-2.3669 Y-57.4461 F80.00
G01 X-2.3440 Y-57.4416 F80.00
G01 X-2.3050 Y-57.4308 F80.00
G01 X-2.2853 Y-57.4238 F80.00
G01 X-2.2660 Y-57.4159 F80.00
G01 X-2.2471 Y-57.4070 F80.00
G01 X-2.2287 Y-57.3973 F80.00
G01 X-2.1944 Y-57.3757 F80.00
G01 X-2.1756 Y-57.3619 F80.00
G01 X-2.1604 Y-57.3494 F80.00
G01 X-2.1440 Y-57.3346 F80.00
G01 X-2.1160 Y-57.3053 F80.00
G01 X-2.1028 Y-57.2892 F80.00
G01 X-2.0903 Y-57.2725 F80.00
G01 X-2.0786 Y-57.2552 F80.00
G01 X-2.0679 Y-57.2373 F80.00
G01 X-2.0580 Y-57.2189 F80.00
G01 X-2.0490 Y-57.2001 F80.00
G01 X-2.0410 Y-57.1808 F80.00
G01 X-2.0339 Y-57.1612 F80.00
G01 X-2.0229 Y-57.1222 F80.00
G01 X-2.0183 Y-57.0993 F80.00
G01 X-2.0154 Y-57.0799 F80.00
G01 X-2.0132 Y-57.0579 F80.00
G01 X-2.0122 Y-57.0174 F80.00
G01 X-2.0131 Y-56.9966 F80.00
G01 X-2.0151 Y-56.9758 F80.00
G01 X-2.0181 Y-56.9552 F80.00
G01 X-2.0222 Y-56.9347 F80.00
G01 X-2.0272 Y-56.9144 F80.00
G01 X-2.0332 Y-56.8945 F80.00
G01 X-2.0402 Y-56.8748 F80.00
G01 X-2.0481 Y-56.8555 F80.00
G01 X-2.0570 Y-56.8366 F80.00
G01 X-2.0667 Y-56.8182 F80.00
G01 X-2.0774 Y-56.8002 F80.00
G01 X-2.0890 Y-56.7828 F80.00
G01 X-2.1138 Y-56.7508 F80.00
G01 X-2.1285 Y-56.7344 F80.00
G01 X-2.1424 Y-56.7204 F80.00
G01 X-2.1596 Y-56.7047 F80.00
G01 X-2.1915 Y-56.6798 F80.00
G01 X-2.2088 Y-56.6681 F80.00
G01 X-2.2278 Y-56.6568 F80.00
G01 X-2.2639 Y-56.6385 F80.00
G01 X-2.3022 Y-56.6236 F80.00
G01 X-2.8692 Y-56.4346 F80.00
G01 X-2.8692 Y-55.6189 F80.00
G01 X-2.2832 Y-55.4230 F80.00
G01 X-2.2639 Y-55.4150 F80.00
G01 X-2.2451 Y-55.4060 F80.00
G01 X-2.2267 Y-55.3961 F80.00
G01 X-2.2088 Y-55.3854 F80.00
G01 X-2.1915 Y-55.3737 F80.00
G01 X-2.1748 Y-55.3612 F80.00
G01 X-2.1441 Y-55.3347 F80.00
G01 X-2.1277 Y-55.3182 F80.00
G01 X-2.1014 Y-55.2874 F80.00
G01 X-2.0883 Y-55.2696 F80.00
G01 X-2.0667 Y-55.2353 F80.00
G01 X-2.0564 Y-55.2158 F80.00
G01 X-2.0402 Y-55.1787 F80.00
G01 X-2.0275 Y-55.1402 F80.00
G01 X-2.0219 Y-55.1176 F80.00
G01 X-2.0153 Y-55.0789 F80.00
G01 X-2.0131 Y-55.0557 F80.00
G01 X-2.0122 Y-55.0152 F80.00
G01 X-2.0153 Y-54.9748 F80.00
G01 X-2.0188 Y-54.9517 F80.00
G01 X-2.0278 Y-54.9122 F80.00
G01 X-2.0343 Y-54.8911 F80.00
G01 X-2.0490 Y-54.8534 F80.00
G01 X-2.0673 Y-54.8172 F80.00
G01 X-2.0793 Y-54.7973 F80.00
G01 X-2.1028 Y-54.7643 F80.00
G01 X-2.1160 Y-54.7482 F80.00
G01 X-2.1301 Y-54.7327 F80.00
G01 X-2.1449 Y-54.7180 F80.00
G01 X-2.1604 Y-54.7040 F80.00
G01 X-2.1924 Y-54.6792 F80.00
G01 X-2.2118 Y-54.6663 F80.00
G01 X-2.2471 Y-54.6464 F80.00
G01 X-2.2660 Y-54.6376 F80.00
G01 X-2.2853 Y-54.6296 F80.00
G01 X-2.3238 Y-54.6170 F80.00
G01 X-2.3464 Y-54.6114 F80.00
G01 X-2.3863 Y-54.6046 F80.00
G01 X-2.4267 Y-54.6017 F80.00
G01 X-2.4501 Y-54.6018 F80.00
G01 X-2.4904 Y-54.6049 F80.00
G01 X-2.5111 Y-54.6080 F80.00
G01 X-2.5315 Y-54.6121 F80.00
G01 X-2.5518 Y-54.6173 F80.00
G01 X-2.5717 Y-54.6234 F80.00
G01 X-5.5717 Y-55.6234 F80.00
G01 X-5.5913 Y-55.6304 F80.00
G01 X-5.6105 Y-55.6385 F80.00
G01 X-5.6304 Y-55.6480 F80.00
G01 X-5.6655 Y-55.6680 F80.00
G01 X-5.6838 Y-55.6803 F80.00
G01 X-5.7156 Y-55.7053 F80.00
G01 X-5.7319 Y-55.7202 F80.00
G01 X-5.7596 Y-55.7495 F80.00
G01 X-5.7736 Y-55.7666 F80.00
G01 X-5.7968 Y-55.7997 F80.00
G01 X-5.8167 Y-55.8349 F80.00
G01 X-5.8261 Y-55.8548 F80.00
G01 X-5.8407 Y-55.8925 F80.00
G01 X-5.8471 Y-55.9136 F80.00
G01 X-5.8560 Y-55.9530 F80.00
G01 X-5.8593 Y-55.9748 F80.00
G01 X-5.8623 Y-56.0151 F80.00
G01 X-5.8623 Y-56.0384 F80.00
G01 X-5.8594 Y-56.0775 F80.00
G01 X-5.8562 Y-56.0993 F80.00
G01 X-5.8474 Y-56.1387 F80.00
G01 X-5.8407 Y-56.1610 F80.00
G01 X-5.8261 Y-56.1987 F80.00
G01 X-5.8080 Y-56.2348 F80.00
G01 X-5.7961 Y-56.2548 F80.00
G01 X-5.7736 Y-56.2869 F80.00
G01 X-5.7588 Y-56.3049 F80.00
G01 X-5.7310 Y-56.3342 F80.00
G01 X-5.7005 Y-56.3607 F80.00
G01 X-5.6828 Y-56.3739 F80.00
G01 X-5.6487 Y-56.3956 F80.00
G01 X-5.6293 Y-56.4061 F80.00
G01 X-5.5924 Y-56.4226 F80.00
G01 X-5.5717 Y-56.4301 F80.00
G00 Z1.9990
G00 X-3.7196 Y-56.1511
G01 F80.00
G01 Z-0.1120
G01 F80.00
G01 X-3.7196 Y-55.9024 F80.00
G01 X-4.0927 Y-56.0267 F80.00
G01 X-3.7196 Y-56.1511 F80.00
G00 Z1.9990
G00 X-2.9517 Y-58.6850
G01 F80.00
G01 Z-0.1120
G01 F80.00
G01 X-3.1177 Y-58.5190 F80.00
G01 X-3.2999 Y-58.4279 F80.00
G01 X-3.7753 Y-58.3091 F80.00
G01 X-4.0992 Y-58.3091 F80.00
G01 X-4.5746 Y-58.4279 F80.00
G01 X-4.7568 Y-58.5190 F80.00
G01 X-4.9228 Y-58.6850 F80.00
G01 X-5.0121 Y-58.9529 F80.00
G01 X-5.0121 Y-59.1730 F80.00
G01 X-2.8624 Y-59.1730 F80.00
G01 X-2.8624 Y-58.9529 F80.00
G01 X-2.9517 Y-58.6850 F80.00
G00 Z1.9990
G00 X-5.5190 Y-60.0154
G01 F80.00
G01 Z-0.1120
G01 F80.00
G01 X-5.4789 Y-60.0213 F80.00
G01 X-5.4581 Y-60.0228 F80.00
G01 X-5.4373 Y-60.0234 F80.00
G01 X-2.4366 Y-60.0234 F80.00
G01 X-2.4152 Y-60.0228 F80.00
G01 X-2.3761 Y-60.0189 F80.00
G01 X-2.3543 Y-60.0152 F80.00
G01 X-2.3339 Y-60.0106 F80.00
G01 X-2.3127 Y-60.0047 F80.00
G01 X-2.2757 Y-59.9914 F80.00
G01 X-2.2555 Y-59.9825 F80.00
G01 X-2.2368 Y-59.9732 F80.00
G01 X-2.2176 Y-59.9622 F80.00
G01 X-2.1850 Y-59.9404 F80.00
G01 X-2.1675 Y-59.9268 F80.00
G01 X-2.1508 Y-59.9124 F80.00
G01 X-2.1230 Y-59.8846 F80.00
G01 X-2.1086 Y-59.8679 F80.00
G01 X-2.0844 Y-59.8354 F80.00
G01 X-2.0726 Y-59.8168 F80.00
G01 X-2.0617 Y-59.7975 F80.00
G01 X-2.0449 Y-59.7620 F80.00
G01 X-2.0369 Y-59.7414 F80.00
G01 X-2.0300 Y-59.7204 F80.00
G01 X-2.0205 Y-59.6823 F80.00
G01 X-2.0167 Y-59.6606 F80.00
G01 X-2.0140 Y-59.6386 F80.00
G01 X-2.0121 Y-59.5994 F80.00
G01 X-2.0121 Y-58.8839 F80.00
G01 X-2.0138 Y-58.8460 F80.00
G01 X-2.0161 Y-58.8254 F80.00
G01 X-2.0232 Y-58.7870 F80.00
G01 X-2.0339 Y-58.7494 F80.00
G01 X-2.1770 Y-58.3202 F80.00
G01 X-2.1842 Y-58.3003 F80.00
G01 X-2.1922 Y-58.2813 F80.00
G01 X-2.2023 Y-58.2604 F80.00
G01 X-2.2135 Y-58.2401 F80.00
G01 X-2.2243 Y-58.2225 F80.00
G01 X-2.2368 Y-58.2045 F80.00
G01 X-2.2510 Y-58.1862 F80.00
G01 X-2.2644 Y-58.1705 F80.00
G01 X-2.2795 Y-58.1547 F80.00
G01 X-2.5785 Y-57.8562 F80.00
G01 X-2.5940 Y-57.8426 F80.00
G01 X-2.6103 Y-57.8298 F80.00
G01 X-2.6406 Y-57.8090 F80.00
G01 X-2.6584 Y-57.7984 F80.00
G01 X-2.9620 Y-57.6461 F80.00
G01 X-2.9837 Y-57.6361 F80.00
G01 X-3.0040 Y-57.6280 F80.00
G01 X-3.0247 Y-57.6209 F80.00
G01 X-3.0484 Y-57.6142 F80.00
G01 X-3.6198 Y-57.4714 F80.00
G01 X-3.6402 Y-57.4668 F80.00
G01 X-3.6607 Y-57.4633 F80.00
G01 X-3.6826 Y-57.4606 F80.00
G01 X-3.7224 Y-57.4587 F80.00
G01 X-4.1522 Y-57.4587 F80.00
G01 X-4.1931 Y-57.4607 F80.00
G01 X-4.2138 Y-57.4633 F80.00
G01 X-4.2355 Y-57.4671 F80.00
G01 X-4.8261 Y-57.6142 F80.00
G01 X-4.8498 Y-57.6209 F80.00
G01 X-4.8705 Y-57.6280 F80.00
G01 X-4.8908 Y-57.6361 F80.00
G01 X-4.9125 Y-57.6461 F80.00
G01 X-5.2151 Y-57.7979 F80.00
G01 X-5.2339 Y-57.8090 F80.00
G01 X-5.2652 Y-57.8305 F80.00
G01 X-5.2813 Y-57.8434 F80.00
G01 X-5.3089 Y-57.8685 F80.00
G01 X-5.5955 Y-58.1551 F80.00
G01 X-5.6101 Y-58.1705 F80.00
G01 X-5.6244 Y-58.1872 F80.00
G01 X-5.6378 Y-58.2045 F80.00
G01 X-5.6509 Y-58.2236 F80.00
G01 X-5.6624 Y-58.2423 F80.00
G01 X-5.6723 Y-58.2604 F80.00
G01 X-5.6813 Y-58.2789 F80.00
G01 X-5.6903 Y-58.3003 F80.00
G01 X-5.6976 Y-58.3202 F80.00
G01 X-5.8408 Y-58.7500 F80.00
G01 X-5.8513 Y-58.7870 F80.00
G01 X-5.8584 Y-58.8254 F80.00
G01 X-5.8607 Y-58.8460 F80.00
G01 X-5.8624 Y-58.8839 F80.00
G01 X-5.8624 Y-59.5988 F80.00
G01 X-5.8605 Y-59.6386 F80.00
G01 X-5.8578 Y-59.6606 F80.00
G01 X-5.8540 Y-59.6823 F80.00
G01 X-5.8445 Y-59.7204 F80.00
G01 X-5.8376 Y-59.7414 F80.00
G01 X-5.8296 Y-59.7620 F80.00
G01 X-5.8128 Y-59.7975 F80.00
G01 X-5.8013 Y-59.8178 F80.00
G01 X-5.7795 Y-59.8505 F80.00
G01 X-5.7659 Y-59.8679 F80.00
G01 X-5.7388 Y-59.8979 F80.00
G01 X-5.7228 Y-59.9132 F80.00
G01 X-5.6915 Y-59.9389 F80.00
G01 X-5.6735 Y-59.9517 F80.00
G01 X-5.6548 Y-59.9635 F80.00
G01 X-5.6202 Y-59.9820 F80.00
G01 X-5.5988 Y-59.9914 F80.00
G01 X-5.5619 Y-60.0047 F80.00
G01 X-5.5406 Y-60.0106 F80.00
G01 X-5.5190 Y-60.0154 F80.00
G00 Z1.9990
G00 X-14.4604 Y-38.7280
G01 F80.00
G01 Z-0.1120
G01 F80.00
G01 X-14.4692 Y-38.7787 F80.00
G01 X-14.4753 Y-38.8287 F80.00
G01 X-14.4791 Y-38.8789 F80.00
G01 X-14.4804 Y-38.9316 F80.00
G01 X-14.4792 Y-38.9819 F80.00
G01 X-14.4753 Y-39.0345 F80.00
G01 X-14.4690 Y-39.0857 F80.00
G01 X-14.4602 Y-39.1364 F80.00
G01 X-14.4492 Y-39.1855 F80.00
G01 X-14.4352 Y-39.2364 F80.00
G01 X-14.4190 Y-39.2853 F80.00
G01 X-14.4005 Y-39.3334 F80.00
G01 X-14.3796 Y-39.3805 F80.00
G01 X-14.3564 Y-39.4266 F80.00
G01 X-14.3310 Y-39.4714 F80.00
G01 X-14.3034 Y-39.5149 F80.00
G01 X-14.2730 Y-39.5581 F80.00
G01 X-14.2413 Y-39.5987 F80.00
G01 X-14.2084 Y-39.6367 F80.00
G01 X-14.1737 Y-39.6732 F80.00
G01 X-14.1355 Y-39.7096 F80.00
G01 X-14.0975 Y-39.7425 F80.00
G01 X-14.0559 Y-39.7750 F80.00
G01 X-14.0137 Y-39.8046 F80.00
G01 X-13.9702 Y-39.8322 F80.00
G01 X-13.9254 Y-39.8576 F80.00
G01 X-13.8793 Y-39.8808 F80.00
G01 X-13.8322 Y-39.9017 F80.00
G01 X-13.7841 Y-39.9202 F80.00
G01 X-13.7340 Y-39.9367 F80.00
G01 X-13.6855 Y-39.9501 F80.00
G01 X-13.6340 Y-39.9616 F80.00
G01 X-13.5833 Y-39.9704 F80.00
G01 X-13.5333 Y-39.9765 F80.00
G01 X-13.4831 Y-39.9803 F80.00
G01 X-13.4304 Y-39.9816 F80.00
G01 X-11.4292 Y-39.9816 F80.00
G01 X-11.3789 Y-39.9803 F80.00
G01 X-11.3287 Y-39.9766 F80.00
G01 X-11.2763 Y-39.9702 F80.00
G01 X-11.2256 Y-39.9614 F80.00
G01 X-11.1765 Y-39.9504 F80.00
G01 X-11.1244 Y-39.9360 F80.00
G01 X-11.0767 Y-39.9202 F80.00
G01 X-11.0297 Y-39.9021 F80.00
G01 X-10.9815 Y-39.8808 F80.00
G01 X-10.9344 Y-39.8570 F80.00
G01 X-10.8906 Y-39.8322 F80.00
G01 X-10.8471 Y-39.8046 F80.00
G01 X-10.8039 Y-39.7742 F80.00
G01 X-10.7643 Y-39.7433 F80.00
G01 X-10.7253 Y-39.7096 F80.00
G01 X-10.6879 Y-39.6741 F80.00
G01 X-10.6532 Y-39.6376 F80.00
G01 X-10.6180 Y-39.5968 F80.00
G01 X-10.5870 Y-39.5571 F80.00
G01 X-10.5581 Y-39.5160 F80.00
G01 X-10.5292 Y-39.4703 F80.00
G01 X-10.5044 Y-39.4266 F80.00
G01 X-10.4812 Y-39.3805 F80.00
G01 X-10.4603 Y-39.3334 F80.00
G01 X-10.4422 Y-39.2865 F80.00
G01 X-10.4253 Y-39.2352 F80.00
G01 X-10.4119 Y-39.1867 F80.00
G01 X-10.4006 Y-39.1364 F80.00
G01 X-10.3916 Y-39.0845 F80.00
G01 X-10.3855 Y-39.0345 F80.00
G01 X-10.3817 Y-38.9843 F80.00
G01 X-10.3804 Y-38.9322 F80.00
G01 X-10.3817 Y-38.8801 F80.00
G01 X-10.3855 Y-38.8287 F80.00
G01 X-10.3918 Y-38.7775 F80.00
G01 X-10.4006 Y-38.7268 F80.00
G01 X-10.4119 Y-38.6765 F80.00
G01 X-10.4256 Y-38.6268 F80.00
G01 X-10.4418 Y-38.5779 F80.00
G01 X-10.4603 Y-38.5298 F80.00
G01 X-10.4812 Y-38.4827 F80.00
G01 X-10.5044 Y-38.4366 F80.00
G01 X-10.5298 Y-38.3918 F80.00
G01 X-10.5574 Y-38.3483 F80.00
G01 X-10.5870 Y-38.3061 F80.00
G01 X-10.6187 Y-38.2655 F80.00
G01 X-10.6524 Y-38.2265 F80.00
G01 X-10.6879 Y-38.1891 F80.00
G01 X-10.7253 Y-38.1536 F80.00
G01 X-10.7643 Y-38.1199 F80.00
G01 X-10.8049 Y-38.0882 F80.00
G01 X-10.8471 Y-38.0586 F80.00
G01 X-10.8906 Y-38.0310 F80.00
G01 X-10.9354 Y-38.0056 F80.00
G01 X-10.9815 Y-37.9824 F80.00
G01 X-11.0286 Y-37.9615 F80.00
G01 X-11.0767 Y-37.9430 F80.00
G01 X-11.1256 Y-37.9268 F80.00
G01 X-11.1753 Y-37.9131 F80.00
G01 X-11.2256 Y-37.9018 F80.00
G01 X-11.2763 Y-37.8930 F80.00
G01 X-11.3275 Y-37.8867 F80.00
G01 X-11.3777 Y-37.8829 F80.00
G01 X-11.4304 Y-37.8816 F80.00
G01 X-13.4310 Y-37.8816 F80.00
G01 X-13.4831 Y-37.8829 F80.00
G01 X-13.5333 Y-37.8867 F80.00
G01 X-13.5833 Y-37.8928 F80.00
G01 X-13.6352 Y-37.9018 F80.00
G01 X-13.6867 Y-37.9134 F80.00
G01 X-13.7352 Y-37.9268 F80.00
G01 X-13.7830 Y-37.9426 F80.00
G01 X-13.8322 Y-37.9615 F80.00
G01 X-13.8804 Y-37.9829 F80.00
G01 X-13.9254 Y-38.0056 F80.00
G01 X-13.9702 Y-38.0310 F80.00
G01 X-14.0148 Y-38.0593 F80.00
G01 X-14.0559 Y-38.0882 F80.00
G01 X-14.0965 Y-38.1199 F80.00
G01 X-14.1364 Y-38.1544 F80.00
G01 X-14.1729 Y-38.1891 F80.00
G01 X-14.2076 Y-38.2256 F80.00
G01 X-14.2428 Y-38.2664 F80.00
G01 X-14.2738 Y-38.3061 F80.00
G01 X-14.3034 Y-38.3483 F80.00
G01 X-14.3316 Y-38.3929 F80.00
G01 X-14.3564 Y-38.4366 F80.00
G01 X-14.3791 Y-38.4816 F80.00
G01 X-14.4009 Y-38.5309 F80.00
G01 X-14.4190 Y-38.5779 F80.00
G01 X-14.4348 Y-38.6256 F80.00
G01 X-14.4489 Y-38.6765 F80.00
G01 X-14.4604 Y-38.7280 F80.00
G00 Z1.9990
G00 X-14.4604 Y-36.1880
G01 F80.00
G01 Z-0.1120
G01 F80.00
G01 X-14.4692 Y-36.2387 F80.00
G01 X-14.4753 Y-36.2887 F80.00
G01 X-14.4791 Y-36.3389 F80.00
G01 X-14.4804 Y-36.3916 F80.00
G01 X-14.4792 Y-36.4419 F80.00
G01 X-14.4753 Y-36.4945 F80.00
G01 X-14.4690 Y-36.5457 F80.00
G01 X-14.4602 Y-36.5964 F80.00
G01 X-14.4492 Y-36.6455 F80.00
G01 X-14.4352 Y-36.6964 F80.00
G01 X-14.4190 Y-36.7453 F80.00
G01 X-14.4005 Y-36.7934 F80.00
G01 X-14.3796 Y-36.8405 F80.00
G01 X-14.3564 Y-36.8866 F80.00
G01 X-14.3310 Y-36.9314 F80.00
G01 X-14.3034 Y-36.9749 F80.00
G01 X-14.2730 Y-37.0181 F80.00
G01 X-14.2413 Y-37.0587 F80.00
G01 X-14.2084 Y-37.0967 F80.00
G01 X-14.1737 Y-37.1332 F80.00
G01 X-14.1355 Y-37.1696 F80.00
G01 X-14.0975 Y-37.2025 F80.00
G01 X-14.0559 Y-37.2350 F80.00
G01 X-14.0137 Y-37.2646 F80.00
G01 X-13.9702 Y-37.2922 F80.00
G01 X-13.9254 Y-37.3176 F80.00
G01 X-13.8793 Y-37.3408 F80.00
G01 X-13.8322 Y-37.3617 F80.00
G01 X-13.7841 Y-37.3802 F80.00
G01 X-13.7340 Y-37.3967 F80.00
G01 X-13.6855 Y-37.4101 F80.00
G01 X-13.6340 Y-37.4216 F80.00
G01 X-13.5833 Y-37.4304 F80.00
G01 X-13.5333 Y-37.4365 F80.00
G01 X-13.4831 Y-37.4403 F80.00
G01 X-13.4304 Y-37.4416 F80.00
G01 X-11.4292 Y-37.4416 F80.00
G01 X-11.3789 Y-37.4403 F80.00
G01 X-11.3287 Y-37.4366 F80.00
G01 X-11.2763 Y-37.4302 F80.00
G01 X-11.2256 Y-37.4214 F80.00
G01 X-11.1765 Y-37.4104 F80.00
G01 X-11.1244 Y-37.3960 F80.00
G01 X-11.0767 Y-37.3802 F80.00
G01 X-11.0297 Y-37.3621 F80.00
G01 X-10.9815 Y-37.3408 F80.00
G01 X-10.9344 Y-37.3170 F80.00
G01 X-10.8906 Y-37.2922 F80.00
G01 X-10.8471 Y-37.2646 F80.00
G01 X-10.8039 Y-37.2342 F80.00
G01 X-10.7643 Y-37.2033 F80.00
G01 X-10.7253 Y-37.1696 F80.00
G01 X-10.6879 Y-37.1341 F80.00
G01 X-10.6532 Y-37.0976 F80.00
G01 X-10.6180 Y-37.0568 F80.00
G01 X-10.5870 Y-37.0171 F80.00
G01 X-10.5581 Y-36.9760 F80.00
G01 X-10.5292 Y-36.9303 F80.00
G01 X-10.5044 Y-36.8866 F80.00
G01 X-10.4812 Y-36.8405 F80.00
G01 X-10.4603 Y-36.7934 F80.00
G01 X-10.4422 Y-36.7465 F80.00
G01 X-10.4253 Y-36.6952 F80.00
G01 X-10.4119 Y-36.6467 F80.00
G01 X-10.4006 Y-36.5964 F80.00
G01 X-10.3916 Y-36.5445 F80.00
G01 X-10.3855 Y-36.4945 F80.00
G01 X-10.3817 Y-36.4443 F80.00
G01 X-10.3804 Y-36.3922 F80.00
G01 X-10.3817 Y-36.3401 F80.00
G01 X-10.3855 Y-36.2887 F80.00
G01 X-10.3918 Y-36.2375 F80.00
G01 X-10.4006 Y-36.1868 F80.00
G01 X-10.4119 Y-36.1365 F80.00
G01 X-10.4256 Y-36.0868 F80.00
G01 X-10.4418 Y-36.0379 F80.00
G01 X-10.4603 Y-35.9898 F80.00
G01 X-10.4812 Y-35.9427 F80.00
G01 X-10.5044 Y-35.8966 F80.00
G01 X-10.5298 Y-35.8518 F80.00
G01 X-10.5574 Y-35.8083 F80.00
G01 X-10.5870 Y-35.7661 F80.00
G01 X-10.6187 Y-35.7255 F80.00
G01 X-10.6524 Y-35.6865 F80.00
G01 X-10.6879 Y-35.6491 F80.00
G01 X-10.7253 Y-35.6136 F80.00
G01 X-10.7643 Y-35.5799 F80.00
G01 X-10.8049 Y-35.5482 F80.00
G01 X-10.8471 Y-35.5186 F80.00
G01 X-10.8906 Y-35.4910 F80.00
G01 X-10.9354 Y-35.4656 F80.00
G01 X-10.9815 Y-35.4424 F80.00
G01 X-11.0286 Y-35.4215 F80.00
G01 X-11.0767 Y-35.4030 F80.00
G01 X-11.1256 Y-35.3868 F80.00
G01 X-11.1753 Y-35.3731 F80.00
G01 X-11.2256 Y-35.3618 F80.00
G01 X-11.2763 Y-35.3530 F80.00
G01 X-11.3275 Y-35.3467 F80.00
G01 X-11.3777 Y-35.3429 F80.00
G01 X-11.4304 Y-35.3416 F80.00
G01 X-13.4310 Y-35.3416 F80.00
G01 X-13.4831 Y-35.3429 F80.00
G01 X-13.5333 Y-35.3467 F80.00
G01 X-13.5833 Y-35.3528 F80.00
G01 X-13.6352 Y-35.3618 F80.00
G01 X-13.6867 Y-35.3734 F80.00
G01 X-13.7352 Y-35.3868 F80.00
G01 X-13.7830 Y-35.4026 F80.00
G01 X-13.8322 Y-35.4215 F80.00
G01 X-13.8804 Y-35.4429 F80.00
G01 X-13.9254 Y-35.4656 F80.00
G01 X-13.9702 Y-35.4910 F80.00
G01 X-14.0148 Y-35.5193 F80.00
G01 X-14.0559 Y-35.5482 F80.00
G01 X-14.0965 Y-35.5799 F80.00
G01 X-14.1364 Y-35.6144 F80.00
G01 X-14.1729 Y-35.6491 F80.00
G01 X-14.2076 Y-35.6856 F80.00
G01 X-14.2428 Y-35.7264 F80.00
G01 X-14.2738 Y-35.7661 F80.00
G01 X-14.3034 Y-35.8083 F80.00
G01 X-14.3316 Y-35.8529 F80.00
G01 X-14.3564 Y-35.8966 F80.00
G01 X-14.3791 Y-35.9416 F80.00
G01 X-14.4009 Y-35.9909 F80.00
G01 X-14.4190 Y-36.0379 F80.00
G01 X-14.4348 Y-36.0856 F80.00
G01 X-14.4489 Y-36.1365 F80.00
G01 X-14.4604 Y-36.1880 F80.00
G00 Z1.9990
G00 X-14.4604 Y-33.6480
G01 F80.00
G01 Z-0.1120
G01 F80.00
G01 X-14.4692 Y-33.6987 F80.00
G01 X-14.4753 Y-33.7487 F80.00
G01 X-14.4791 Y-33.7989 F80.00
G01 X-14.4804 Y-33.8516 F80.00
G01 X-14.4792 Y-33.9019 F80.00
G01 X-14.4753 Y-33.9545 F80.00
G01 X-14.4690 Y-34.0057 F80.00
G01 X-14.4602 Y-34.0564 F80.00
G01 X-14.4492 Y-34.1055 F80.00
G01 X-14.4352 Y-34.1564 F80.00
G01 X-14.4190 Y-34.2053 F80.00
G01 X-14.4005 Y-34.2534 F80.00
G01 X-14.3796 Y-34.3005 F80.00
G01 X-14.3564 Y-34.3466 F80.00
G01 X-14.3310 Y-34.3914 F80.00
G01 X-14.3034 Y-34.4349 F80.00
G01 X-14.2730 Y-34.4781 F80.00
G01 X-14.2413 Y-34.5187 F80.00
G01 X-14.2084 Y-34.5567 F80.00
G01 X-14.1737 Y-34.5932 F80.00
G01 X-14.1355 Y-34.6296 F80.00
G01 X-14.0975 Y-34.6625 F80.00
G01 X-14.0559 Y-34.6950 F80.00
G01 X-14.0137 Y-34.7246 F80.00
G01 X-13.9702 Y-34.7522 F80.00
G01 X-13.9254 Y-34.7776 F80.00
G01 X-13.8793 Y-34.8008 F80.00
G01 X-13.8322 Y-34.8217 F80.00
G01 X-13.7841 Y-34.8402 F80.00
G01 X-13.7340 Y-34.8567 F80.00
G01 X-13.6855 Y-34.8701 F80.00
G01 X-13.6340 Y-34.8816 F80.00
G01 X-13.5833 Y-34.8904 F80.00
G01 X-13.5333 Y-34.8965 F80.00
G01 X-13.4831 Y-34.9003 F80.00
G01 X-13.4304 Y-34.9016 F80.00
G01 X-11.4292 Y-34.9016 F80.00
G01 X-11.3789 Y-34.9003 F80.00
G01 X-11.3287 Y-34.8966 F80.00
G01 X-11.2763 Y-34.8902 F80.00
G01 X-11.2256 Y-34.8814 F80.00
G01 X-11.1765 Y-34.8704 F80.00
G01 X-11.1244 Y-34.8560 F80.00
G01 X-11.0767 Y-34.8402 F80.00
G01 X-11.0297 Y-34.8221 F80.00
G01 X-10.9815 Y-34.8008 F80.00
G01 X-10.9344 Y-34.7770 F80.00
G01 X-10.8906 Y-34.7522 F80.00
G01 X-10.8471 Y-34.7246 F80.00
G01 X-10.8039 Y-34.6942 F80.00
G01 X-10.7643 Y-34.6633 F80.00
G01 X-10.7253 Y-34.6296 F80.00
G01 X-10.6879 Y-34.5941 F80.00
G01 X-10.6532 Y-34.5576 F80.00
G01 X-10.6180 Y-34.5168 F80.00
G01 X-10.5870 Y-34.4771 F80.00
G01 X-10.5581 Y-34.4360 F80.00
G01 X-10.5292 Y-34.3903 F80.00
G01 X-10.5044 Y-34.3466 F80.00
G01 X-10.4812 Y-34.3005 F80.00
G01 X-10.4603 Y-34.2534 F80.00
G01 X-10.4422 Y-34.2065 F80.00
G01 X-10.4253 Y-34.1552 F80.00
G01 X-10.4119 Y-34.1067 F80.00
G01 X-10.4006 Y-34.0564 F80.00
G01 X-10.3916 Y-34.0045 F80.00
G01 X-10.3855 Y-33.9545 F80.00
G01 X-10.3817 Y-33.9043 F80.00
G01 X-10.3804 Y-33.8522 F80.00
G01 X-10.3817 Y-33.8001 F80.00
G01 X-10.3855 Y-33.7487 F80.00
G01 X-10.3918 Y-33.6975 F80.00
G01 X-10.4006 Y-33.6468 F80.00
G01 X-10.4119 Y-33.5965 F80.00
G01 X-10.4256 Y-33.5468 F80.00
G01 X-10.4418 Y-33.4979 F80.00
G01 X-10.4603 Y-33.4498 F80.00
G01 X-10.4812 Y-33.4027 F80.00
G01 X-10.5044 Y-33.3566 F80.00
G01 X-10.5298 Y-33.3118 F80.00
G01 X-10.5574 Y-33.2683 F80.00
G01 X-10.5870 Y-33.2261 F80.00
G01 X-10.6187 Y-33.1855 F80.00
G01 X-10.6524 Y-33.1465 F80.00
G01 X-10.6879 Y-33.1091 F80.00
G01 X-10.7253 Y-33.0736 F80.00
G01 X-10.7643 Y-33.0399 F80.00
G01 X-10.8049 Y-33.0082 F80.00
G01 X-10.8471 Y-32.9786 F80.00
G01 X-10.8906 Y-32.9510 F80.00
G01 X-10.9354 Y-32.9256 F80.00
G01 X-10.9815 Y-32.9024 F80.00
G01 X-11.0286 Y-32.8815 F80.00
G01 X-11.0767 Y-32.8630 F80.00
G01 X-11.1256 Y-32.8468 F80.00
G01 X-11.1753 Y-32.8331 F80.00
G01 X-11.2256 Y-32.8218 F80.00
G01 X-11.2763 Y-32.8130 F80.00
G01 X-11.3275 Y-32.8067 F80.00
G01 X-11.3777 Y-32.8029 F80.00
G01 X-11.4304 Y-32.8016 F80.00
G01 X-13.4310 Y-32.8016 F80.00
G01 X-13.4831 Y-32.8029 F80.00
G01 X-13.5333 Y-32.8067 F80.00
G01 X-13.5833 Y-32.8128 F80.00
G01 X-13.6352 Y-32.8218 F80.00
G01 X-13.6867 Y-32.8334 F80.00
G01 X-13.7352 Y-32.8468 F80.00
G01 X-13.7830 Y-32.8626 F80.00
G01 X-13.8322 Y-32.8815 F80.00
G01 X-13.8804 Y-32.9029 F80.00
G01 X-13.9254 Y-32.9256 F80.00
G01 X-13.9702 Y-32.9510 F80.00
G01 X-14.0148 Y-32.9793 F80.00
G01 X-14.0559 Y-33.0082 F80.00
G01 X-14.0965 Y-33.0399 F80.00
G01 X-14.1364 Y-33.0744 F80.00
G01 X-14.1729 Y-33.1091 F80.00
G01 X-14.2076 Y-33.1456 F80.00
G01 X-14.2428 Y-33.1864 F80.00
G01 X-14.2738 Y-33.2261 F80.00
G01 X-14.3034 Y-33.2683 F80.00
G01 X-14.3316 Y-33.3129 F80.00
G01 X-14.3564 Y-33.3566 F80.00
G01 X-14.3791 Y-33.4016 F80.00
G01 X-14.4009 Y-33.4509 F80.00
G01 X-14.4190 Y-33.4979 F80.00
G01 X-14.4348 Y-33.5456 F80.00
G01 X-14.4489 Y-33.5965 F80.00
G01 X-14.4604 Y-33.6480 F80.00
G00 Z1.9990
G00 X-23.9862 Y-25.4876
G01 F80.00
G01 Z-0.1120
G01 F80.00
G01 X-23.9347 Y-25.4863 F80.00
G01 X-23.8833 Y-25.4825 F80.00
G01 X-23.8285 Y-25.4758 F80.00
G01 X-23.7777 Y-25.4669 F80.00
G01 X-23.7262 Y-25.4554 F80.00
G01 X-23.6753 Y-25.4413 F80.00
G01 X-23.6264 Y-25.4252 F80.00
G01 X-23.5749 Y-25.4053 F80.00
G01 X-23.5278 Y-25.3844 F80.00
G01 X-23.4806 Y-25.3607 F80.00
G01 X-23.4337 Y-25.3340 F80.00
G01 X-23.3902 Y-25.3064 F80.00
G01 X-23.3480 Y-25.2768 F80.00
G01 X-23.3045 Y-25.2428 F80.00
G01 X-23.2655 Y-25.2091 F80.00
G01 X-23.2273 Y-25.1727 F80.00
G01 X-23.1901 Y-25.1336 F80.00
G01 X-23.1564 Y-25.0946 F80.00
G01 X-23.1240 Y-25.0530 F80.00
G01 X-23.0929 Y-25.0088 F80.00
G01 X-23.0653 Y-24.9653 F80.00
G01 X-23.0393 Y-24.9194 F80.00
G01 X-23.0156 Y-24.8722 F80.00
G01 X-22.9947 Y-24.8251 F80.00
G01 X-22.9752 Y-24.7748 F80.00
G01 X-22.9583 Y-24.7235 F80.00
G01 X-22.9446 Y-24.6738 F80.00
G01 X-22.9331 Y-24.6223 F80.00
G01 X-22.9240 Y-24.5703 F80.00
G01 X-22.9177 Y-24.5192 F80.00
G01 X-22.9136 Y-24.4641 F80.00
G01 X-22.9124 Y-24.4126 F80.00
G01 X-22.9124 Y-22.4626 F80.00
G01 X-22.9137 Y-22.4099 F80.00
G01 X-22.9176 Y-22.3572 F80.00
G01 X-22.9240 Y-22.3049 F80.00
G01 X-22.9331 Y-22.2529 F80.00
G01 X-22.9446 Y-22.2014 F80.00
G01 X-22.9587 Y-22.1505 F80.00
G01 X-22.9752 Y-22.1004 F80.00
G01 X-22.9942 Y-22.0512 F80.00
G01 X-23.0156 Y-22.0030 F80.00
G01 X-23.0393 Y-21.9558 F80.00
G01 X-23.0653 Y-21.9099 F80.00
G01 X-23.0936 Y-21.8654 F80.00
G01 X-23.1240 Y-21.8222 F80.00
G01 X-23.1564 Y-21.7806 F80.00
G01 X-23.1909 Y-21.7407 F80.00
G01 X-23.2273 Y-21.7025 F80.00
G01 X-23.2655 Y-21.6661 F80.00
G01 X-23.3054 Y-21.6316 F80.00
G01 X-23.3470 Y-21.5992 F80.00
G01 X-23.3902 Y-21.5688 F80.00
G01 X-23.4347 Y-21.5405 F80.00
G01 X-23.4806 Y-21.5145 F80.00
G01 X-23.5278 Y-21.4908 F80.00
G01 X-23.5760 Y-21.4694 F80.00
G01 X-23.6252 Y-21.4504 F80.00
G01 X-23.6753 Y-21.4339 F80.00
G01 X-23.7262 Y-21.4198 F80.00
G01 X-23.7777 Y-21.4083 F80.00
G01 X-23.8297 Y-21.3992 F80.00
G01 X-23.8820 Y-21.3928 F80.00
G01 X-23.9347 Y-21.3889 F80.00
G01 X-23.9874 Y-21.3876 F80.00
G01 X-24.0401 Y-21.3889 F80.00
G01 X-24.0915 Y-21.3927 F80.00
G01 X-24.1451 Y-21.3992 F80.00
G01 X-24.1971 Y-21.4083 F80.00
G01 X-24.2474 Y-21.4195 F80.00
G01 X-24.3006 Y-21.4343 F80.00
G01 X-24.3496 Y-21.4504 F80.00
G01 X-24.3976 Y-21.4690 F80.00
G01 X-24.4481 Y-21.4913 F80.00
G01 X-24.4942 Y-21.5145 F80.00
G01 X-24.5401 Y-21.5405 F80.00
G01 X-24.5846 Y-21.5688 F80.00
G01 X-24.6268 Y-21.5984 F80.00
G01 X-24.6703 Y-21.6324 F80.00
G01 X-24.7093 Y-21.6661 F80.00
G01 X-24.7475 Y-21.7025 F80.00
G01 X-24.7847 Y-21.7416 F80.00
G01 X-24.8184 Y-21.7806 F80.00
G01 X-24.8508 Y-21.8222 F80.00
G01 X-24.8819 Y-21.8664 F80.00
G01 X-24.9095 Y-21.9099 F80.00
G01 X-24.9355 Y-21.9558 F80.00
G01 X-24.9592 Y-22.0030 F80.00
G01 X-24.9801 Y-22.0501 F80.00
G01 X-24.9996 Y-22.1004 F80.00
G01 X-25.0165 Y-22.1517 F80.00
G01 X-25.0302 Y-22.2014 F80.00
G01 X-25.0417 Y-22.2529 F80.00
G01 X-25.0508 Y-22.3049 F80.00
G01 X-25.0571 Y-22.3560 F80.00
G01 X-25.0612 Y-22.4111 F80.00
G01 X-25.0624 Y-22.4626 F80.00
G01 X-25.0624 Y-24.4126 F80.00
G01 X-25.0611 Y-24.4653 F80.00
G01 X-25.0572 Y-24.5180 F80.00
G01 X-25.0508 Y-24.5703 F80.00
G01 X-25.0417 Y-24.6223 F80.00
G01 X-25.0302 Y-24.6738 F80.00
G01 X-25.0161 Y-24.7247 F80.00
G01 X-24.9996 Y-24.7748 F80.00
G01 X-24.9806 Y-24.8240 F80.00
G01 X-24.9592 Y-24.8722 F80.00
G01 X-24.9355 Y-24.9194 F80.00
G01 X-24.9095 Y-24.9653 F80.00
G01 X-24.8812 Y-25.0098 F80.00
G01 X-24.8508 Y-25.0530 F80.00
G01 X-24.8184 Y-25.0946 F80.00
G01 X-24.7839 Y-25.1345 F80.00
G01 X-24.7475 Y-25.1727 F80.00
G01 X-24.7093 Y-25.2091 F80.00
G01 X-24.6694 Y-25.2436 F80.00
G01 X-24.6278 Y-25.2760 F80.00
G01 X-24.5846 Y-25.3064 F80.00
G01 X-24.5401 Y-25.3347 F80.00
G01 X-24.4942 Y-25.3607 F80.00
G01 X-24.4470 Y-25.3844 F80.00
G01 X-24.3988 Y-25.4058 F80.00
G01 X-24.3496 Y-25.4248 F80.00
G01 X-24.2995 Y-25.4413 F80.00
G01 X-24.2486 Y-25.4554 F80.00
G01 X-24.1971 Y-25.4669 F80.00
G01 X-24.1451 Y-25.4760 F80.00
G01 X-24.0928 Y-25.4824 F80.00
G01 X-24.0401 Y-25.4863 F80.00
G01 X-23.9862 Y-25.4876 F80.00
G00 Z1.9990
G00 X-26.5262 Y-25.4876
G01 F80.00
G01 Z-0.1120
G01 F80.00
G01 X-26.4747 Y-25.4863 F80.00
G01 X-26.4233 Y-25.4825 F80.00
G01 X-26.3685 Y-25.4758 F80.00
G01 X-26.3177 Y-25.4669 F80.00
G01 X-26.2662 Y-25.4554 F80.00
G01 X-26.2153 Y-25.4413 F80.00
G01 X-26.1664 Y-25.4252 F80.00
G01 X-26.1149 Y-25.4053 F80.00
G01 X-26.0678 Y-25.3844 F80.00
G01 X-26.0206 Y-25.3607 F80.00
G01 X-25.9737 Y-25.3340 F80.00
G01 X-25.9302 Y-25.3064 F80.00
G01 X-25.8880 Y-25.2768 F80.00
G01 X-25.8445 Y-25.2428 F80.00
G01 X-25.8055 Y-25.2091 F80.00
G01 X-25.7673 Y-25.1727 F80.00
G01 X-25.7301 Y-25.1336 F80.00
G01 X-25.6964 Y-25.0946 F80.00
G01 X-25.6640 Y-25.0530 F80.00
G01 X-25.6329 Y-25.0088 F80.00
G01 X-25.6053 Y-24.9653 F80.00
G01 X-25.5793 Y-24.9194 F80.00
G01 X-25.5556 Y-24.8722 F80.00
G01 X-25.5347 Y-24.8251 F80.00
G01 X-25.5152 Y-24.7748 F80.00
G01 X-25.4983 Y-24.7235 F80.00
G01 X-25.4846 Y-24.6738 F80.00
G01 X-25.4731 Y-24.6223 F80.00
G01 X-25.4640 Y-24.5703 F80.00
