(G-CODE GENERATED BY FLATCAM v8.96 - www.flatcam.org - Version Date: 2019/08/23)

(Name: small drills)
(Type: G-code from Excellon)
(Units: MM)

(Created on Monday, 14 October 2019 at 20:49)

(Feedrate: 80.0 mm/min)
(Feedrate rapids 800.0009 mm/min)

(Z_Cut: -1.4 mm)
(Z_Move: 2.0 mm)
(Z Toolchange: 12.7 mm)
(X,Y Toolchange: 0.0000, 0.0000 mm)
(Z Start: None mm)
(Z End: 12.7 mm)
(Steps per circle: 128)
(Postprocessor Excellon: grbl_11)
(X range:    7.2742 ...   81.5946  mm)
(Y range:  -70.2498 ...   -6.0894  mm)

(Spindle Speed: 30.0 RPM)


G21
G90
G94
G17

G01 F80.00
G00 Z2.0000

M03 S30.0
G00 X77.4544 Y-66.1096
G01 Z-1.4000
G01 Z0
G00 Z2.0000
G00 X62.0874 Y-48.8376
G01 Z-1.4000
G01 Z0
G00 Z2.0000
G00 X59.5474 Y-48.8376
G01 Z-1.4000
G01 Z0
G00 Z2.0000
G00 X57.0074 Y-48.8376
G01 Z-1.4000
G01 Z0
G00 Z2.0000
G00 X54.4674 Y-48.8376
G01 Z-1.4000
G01 Z0
G00 Z2.0000
G00 X51.9274 Y-48.8376
G01 Z-1.4000
G01 Z0
G00 Z2.0000
G00 X49.3874 Y-48.8376
G01 Z-1.4000
G01 Z0
G00 Z2.0000
G00 X46.8474 Y-48.8376
G01 Z-1.4000
G01 Z0
G00 Z2.0000
G00 X44.3074 Y-48.8376
G01 Z-1.4000
G01 Z0
G00 Z2.0000
G00 X41.7674 Y-48.8376
G01 Z-1.4000
G01 Z0
G00 Z2.0000
G00 X46.8474 Y-23.4376
G01 Z-1.4000
G01 Z0
G00 Z2.0000
G00 X44.3074 Y-23.4376
G01 Z-1.4000
G01 Z0
G00 Z2.0000
G00 X41.7674 Y-23.4376
G01 Z-1.4000
G01 Z0
G00 Z2.0000
G00 X39.2274 Y-23.4376
G01 Z-1.4000
G01 Z0
G00 Z2.0000
G00 X36.6874 Y-23.4376
G01 Z-1.4000
G01 Z0
G00 Z2.0000
G00 X34.1474 Y-23.4376
G01 Z-1.4000
G01 Z0
G00 Z2.0000
G00 X31.6074 Y-23.4376
G01 Z-1.4000
G01 Z0
G00 Z2.0000
G00 X29.0674 Y-23.4376
G01 Z-1.4000
G01 Z0
G00 Z2.0000
G00 X28.9404 Y-8.9596
G01 Z-1.4000
G01 Z0
G00 Z2.0000
G00 X26.4004 Y-8.9596
G01 Z-1.4000
G01 Z0
G00 Z2.0000
G00 X23.8604 Y-8.9596
G01 Z-1.4000
G01 Z0
G00 Z2.0000
G00 X26.5274 Y-23.4376
G01 Z-1.4000
G01 Z0
G00 Z2.0000
G00 X23.9874 Y-23.4376
G01 Z-1.4000
G01 Z0
G00 Z2.0000
G00 X12.4304 Y-33.8516
G01 Z-1.4000
G01 Z0
G00 Z2.0000
G00 X12.4304 Y-36.3916
G01 Z-1.4000
G01 Z0
G00 Z2.0000
G00 X12.4304 Y-38.9316
G01 Z-1.4000
G01 Z0
G00 Z2.0000
G00 X23.9874 Y-48.8376
G01 Z-1.4000
G01 Z0
G00 Z2.0000
G00 X26.5274 Y-48.8376
G01 Z-1.4000
G01 Z0
G00 Z2.0000
G00 X29.0674 Y-48.8376
G01 Z-1.4000
G01 Z0
G00 Z2.0000
G00 X31.6074 Y-48.8376
G01 Z-1.4000
G01 Z0
G00 Z2.0000
G00 X34.1474 Y-48.8376
G01 Z-1.4000
G01 Z0
G00 Z2.0000
G00 X36.6874 Y-48.8376
G01 Z-1.4000
G01 Z0
G00 Z2.0000
G00 X39.2274 Y-48.8376
G01 Z-1.4000
G01 Z0
G00 Z2.0000
G00 X38.0844 Y-64.8396
G01 Z-1.4000
G01 Z0
G00 Z2.0000
G00 X40.6244 Y-64.8396
G01 Z-1.4000
G01 Z0
G00 Z2.0000
G00 X43.1644 Y-64.8396
G01 Z-1.4000
G01 Z0
G00 Z2.0000
G00 X45.7044 Y-64.8396
G01 Z-1.4000
G01 Z0
G00 Z2.0000
M05
G00 Z12.70
G00 X0.0 Y0.0

M02